docs/brainstorm/marketing-site/luts/A_WarmFilmic.cube
TITLE "SuperBad A — Warm Filmic (Portra 400)"
LUT_3D_SIZE 33
DOMAIN_MIN 0.0 0.0 0.0
DOMAIN_MAX 1.0 1.0 1.0
0.073990 0.057798 0.041606
0.097356 0.058222 0.042030
0.120723 0.058646 0.042454
0.144090 0.059070 0.042878
0.167456 0.059494 0.043302
0.190823 0.059918 0.043726
0.214190 0.060343 0.044151
0.237556 0.060767 0.044575
0.268231 0.061323 0.045131
0.298977 0.061882 0.045690
0.329723 0.062440 0.046248
0.360468 0.062998 0.046806
0.391214 0.063556 0.047364
0.421959 0.064114 0.047922
0.452705 0.064672 0.048480
0.484821 0.065255 0.049063
0.519256 0.065880 0.049688
0.553691 0.066505 0.050313
0.588126 0.067130 0.050938
0.622561 0.067755 0.051563
0.656996 0.068380 0.052188
0.691431 0.069005 0.052813
0.725866 0.069630 0.053438
0.751048 0.070087 0.053895
0.773185 0.070489 0.054297
0.795322 0.070891 0.054699
0.817459 0.071293 0.055101
0.839595 0.071694 0.055502
0.861732 0.072096 0.055904
0.883869 0.072498 0.056306
0.903054 0.072846 0.056654
0.903054 0.072846 0.056654
0.903054 0.072846 0.056654
0.075321 0.080542 0.042937
0.098688 0.080967 0.043362
0.122055 0.081391 0.043786
0.145421 0.081815 0.044210
0.168788 0.082239 0.044634
0.192155 0.082663 0.045058
0.215521 0.083087 0.045482
0.238888 0.083511 0.045906
0.269563 0.084068 0.046463
0.300309 0.084626 0.047021
0.331054 0.085184 0.047579
0.361800 0.085742 0.048137
0.392545 0.086300 0.048695
0.423291 0.086859 0.049254
0.454037 0.087417 0.049812
0.486153 0.088000 0.050395
0.520588 0.088625 0.051020
0.555023 0.089250 0.051645
0.589458 0.089875 0.052270
0.623893 0.090500 0.052895
0.658328 0.091125 0.053520
0.692763 0.091750 0.054145
0.727198 0.092375 0.054770
0.752380 0.092832 0.055227
0.774517 0.093234 0.055629
0.796654 0.093636 0.056031
0.818790 0.094037 0.056432
0.840927 0.094439 0.056834
0.863064 0.094841 0.057236
0.885201 0.095243 0.057638
0.904386 0.095591 0.057986
0.904386 0.095591 0.057986
0.904386 0.095591 0.057986
0.076653 0.103287 0.044269
0.100020 0.103711 0.044693
0.123386 0.104135 0.045117
0.146753 0.104559 0.045541
0.170120 0.104984 0.045966
0.193486 0.105408 0.046390
0.216853 0.105832 0.046814
0.240220 0.106256 0.047238
0.270895 0.106813 0.047795
0.301640 0.107371 0.048353
0.332386 0.107929 0.048911
0.363132 0.108487 0.049469
0.393877 0.109045 0.050027
0.424623 0.109603 0.050585
0.455368 0.110161 0.051143
0.487484 0.110744 0.051726
0.521919 0.111369 0.052351
0.556354 0.111994 0.052976
0.590789 0.112619 0.053601
0.625224 0.113244 0.054226
0.659659 0.113869 0.054851
0.694095 0.114495 0.055477
0.728530 0.115120 0.056102
0.753712 0.115577 0.056559
0.775848 0.115978 0.056960
0.797985 0.116380 0.057362
0.820122 0.116782 0.057764
0.842259 0.117184 0.058166
0.864396 0.117586 0.058568
0.886533 0.117988 0.058970
0.905718 0.118336 0.059318
0.905718 0.118336 0.059318
0.905718 0.118336 0.059318
0.077985 0.126032 0.045601
0.101351 0.126456 0.046025
0.124718 0.126880 0.046449
0.148085 0.127304 0.046873
0.171451 0.127728 0.047297
0.194818 0.128152 0.047721
0.218185 0.128577 0.048146
0.241551 0.129001 0.048570
0.272227 0.129558 0.049127
0.302972 0.130116 0.049685
0.333718 0.130674 0.050243
0.364463 0.131232 0.050801
0.395209 0.131790 0.051359
0.425954 0.132348 0.051917
0.456700 0.132906 0.052475
0.488816 0.133489 0.053058
0.523251 0.134114 0.053683
0.557686 0.134739 0.054308
0.592121 0.135364 0.054933
0.626556 0.135989 0.055558
0.660991 0.136614 0.056183
0.695426 0.137239 0.056808
0.729861 0.137864 0.057433
0.755043 0.138321 0.057890
0.777180 0.138723 0.058292
0.799317 0.139125 0.058694
0.821454 0.139527 0.059096
0.843591 0.139929 0.059498
0.865727 0.140330 0.059899
0.887864 0.140732 0.060301
0.907049 0.141080 0.060649
0.907049 0.141080 0.060649
0.907049 0.141080 0.060649
0.079316 0.148776 0.046932
0.102683 0.149201 0.047357
0.126050 0.149625 0.047781
0.149416 0.150049 0.048205
0.172783 0.150473 0.048629
0.196150 0.150897 0.049053
0.219516 0.151321 0.049477
0.242883 0.151745 0.049901
0.273558 0.152302 0.050458
0.304304 0.152860 0.051016
0.335049 0.153418 0.051574
0.365795 0.153976 0.052132
0.396541 0.154535 0.052691
0.427286 0.155093 0.053249
0.458032 0.155651 0.053807
0.490148 0.156234 0.054390
0.524583 0.156859 0.055015
0.559018 0.157484 0.055640
0.593453 0.158109 0.056265
0.627888 0.158734 0.056890
0.662323 0.159359 0.057515
0.696758 0.159984 0.058140
0.731193 0.160609 0.058765
0.756375 0.161066 0.059222
0.778512 0.161468 0.059624
0.800649 0.161870 0.060026
0.822785 0.162271 0.060427
0.844922 0.162673 0.060829
0.867059 0.163075 0.061231
0.889196 0.163477 0.061633
0.908381 0.163825 0.061981
0.908381 0.163825 0.061981
0.908381 0.163825 0.061981
0.080648 0.171521 0.048264
0.104015 0.171945 0.048688
0.127381 0.172369 0.049112
0.150748 0.172794 0.049537
0.174115 0.173218 0.049961
0.197481 0.173642 0.050385
0.220848 0.174066 0.050809
0.244215 0.174490 0.051233
0.274890 0.175047 0.051790
0.305636 0.175605 0.052348
0.336381 0.176163 0.052906
0.367127 0.176721 0.053464
0.397872 0.177279 0.054022
0.428618 0.177837 0.054580
0.459363 0.178395 0.055138
0.491479 0.178978 0.055721
0.525914 0.179603 0.056346
0.560349 0.180228 0.056971
0.594784 0.180853 0.057596
0.629220 0.181479 0.058222
0.663655 0.182104 0.058847
0.698090 0.182729 0.059472
0.732525 0.183354 0.060097
0.757707 0.183811 0.060554
0.779844 0.184213 0.060956
0.801980 0.184614 0.061357
0.824117 0.185016 0.061759
0.846254 0.185418 0.062161
0.868391 0.185820 0.062563
0.890528 0.186222 0.062965
0.909713 0.186570 0.063313
0.909713 0.186570 0.063313
0.909713 0.186570 0.063313
0.081980 0.194266 0.049596
0.105347 0.194690 0.050020
0.128713 0.195114 0.050444
0.152080 0.195538 0.050868
0.175446 0.195962 0.051292
0.198813 0.196387 0.051717
0.222180 0.196811 0.052141
0.245546 0.197235 0.052565
0.276222 0.197792 0.053122
0.306967 0.198350 0.053680
0.337713 0.198908 0.054238
0.368458 0.199466 0.054796
0.399204 0.200024 0.055354
0.429950 0.200582 0.055912
0.460695 0.201140 0.056470
0.492811 0.201723 0.057053
0.527246 0.202348 0.057678
0.561681 0.202973 0.058303
0.596116 0.203598 0.058928
0.630551 0.204223 0.059553
0.664986 0.204848 0.060178
0.699421 0.205473 0.060803
0.733856 0.206098 0.061428
0.759038 0.206555 0.061885
0.781175 0.206957 0.062287
0.803312 0.207359 0.062689
0.825449 0.207761 0.063091
0.847586 0.208163 0.063493
0.869723 0.208565 0.063895
0.891859 0.208966 0.064296
0.911045 0.209315 0.064645
0.911045 0.209315 0.064645
0.911045 0.209315 0.064645
0.083312 0.217011 0.050928
0.106678 0.217435 0.051352
0.130045 0.217859 0.051776
0.153412 0.218283 0.052200
0.176778 0.218707 0.052624
0.200145 0.219131 0.053048
0.223511 0.219555 0.053472
0.246878 0.219980 0.053897
0.277553 0.220536 0.054453
0.308299 0.221094 0.055011
0.339045 0.221653 0.055570
0.369790 0.222211 0.056128
0.400536 0.222769 0.056686
0.431281 0.223327 0.057244
0.462027 0.223885 0.057802
0.494143 0.224468 0.058385
0.528578 0.225093 0.059010
0.563013 0.225718 0.059635
0.597448 0.226343 0.060260
0.631883 0.226968 0.060885
0.666318 0.227593 0.061510
0.700753 0.228218 0.062135
0.735188 0.228843 0.062760
0.760370 0.229300 0.063217
0.782507 0.229702 0.063619
0.804644 0.230104 0.064021
0.826781 0.230506 0.064423
0.848917 0.230907 0.064824
0.871054 0.231309 0.065226
0.893191 0.231711 0.065628
0.912376 0.232059 0.065976
0.912376 0.232059 0.065976
0.912376 0.232059 0.065976
0.084723 0.241123 0.052339
0.108090 0.241548 0.052764
0.131457 0.241972 0.053188
0.154823 0.242396 0.053612
0.178190 0.242820 0.054036
0.201557 0.243244 0.054460
0.224923 0.243668 0.054884
0.248290 0.244092 0.055308
0.278965 0.244649 0.055865
0.309711 0.245207 0.056423
0.340456 0.245765 0.056981
0.371202 0.246323 0.057539
0.401947 0.246881 0.058097
0.432693 0.247440 0.058656
0.463439 0.247998 0.059214
0.495555 0.248581 0.059797
0.529990 0.249206 0.060422
0.564425 0.249831 0.061047
0.598860 0.250456 0.061672
0.633295 0.251081 0.062297
0.667730 0.251706 0.062922
0.702165 0.252331 0.063547
0.736600 0.252956 0.064172
0.761782 0.253413 0.064629
0.783919 0.253815 0.065031
0.806056 0.254217 0.065433
0.828192 0.254618 0.065834
0.850329 0.255020 0.066236
0.872466 0.255422 0.066638
0.894603 0.255824 0.067040
0.913788 0.256172 0.067388
0.913788 0.256172 0.067388
0.913788 0.256172 0.067388
0.086546 0.272248 0.054162
0.109912 0.272672 0.054586
0.133279 0.273096 0.055010
0.156646 0.273520 0.055434
0.180012 0.273944 0.055858
0.203379 0.274368 0.056282
0.226746 0.274793 0.056707
0.250112 0.275217 0.057131
0.280787 0.275773 0.057687
0.311533 0.276332 0.058246
0.342279 0.276890 0.058804
0.373024 0.277448 0.059362
0.403770 0.278006 0.059920
0.434515 0.278564 0.060478
0.465261 0.279122 0.061036
0.497377 0.279705 0.061619
0.531812 0.280330 0.062244
0.566247 0.280955 0.062869
0.600682 0.281580 0.063494
0.635117 0.282205 0.064119
0.669552 0.282830 0.064744
0.703987 0.283455 0.065369
0.738422 0.284080 0.065994
0.763604 0.284537 0.066451
0.785741 0.284939 0.066853
0.807878 0.285341 0.067255
0.830015 0.285743 0.067657
0.852152 0.286145 0.068059
0.874288 0.286546 0.068460
0.896425 0.286948 0.068862
0.915610 0.287296 0.069210
0.915610 0.287296 0.069210
0.915610 0.287296 0.069210
0.088368 0.303372 0.055984
0.111735 0.303796 0.056408
0.135101 0.304220 0.056832
0.158468 0.304644 0.057256
0.181835 0.305069 0.057681
0.205201 0.305493 0.058105
0.228568 0.305917 0.058529
0.251935 0.306341 0.058953
0.282610 0.306898 0.059510
0.313355 0.307456 0.060068
0.344101 0.308014 0.060626
0.374847 0.308572 0.061184
0.405592 0.309130 0.061742
0.436338 0.309688 0.062300
0.467083 0.310246 0.062858
0.499199 0.310829 0.063441
0.533634 0.311454 0.064066
0.568069 0.312079 0.064691
0.602504 0.312704 0.065316
0.636939 0.313329 0.065941
0.671374 0.313954 0.066566
0.705809 0.314579 0.067191
0.740245 0.315205 0.067817
0.765427 0.315662 0.068274
0.787563 0.316063 0.068675
0.809700 0.316465 0.069077
0.831837 0.316867 0.069479
0.853974 0.317269 0.069881
0.876111 0.317671 0.070283
0.898248 0.318073 0.070685
0.917433 0.318421 0.071033
0.917433 0.318421 0.071033
0.917433 0.318421 0.071033
0.090190 0.334496 0.057806
0.113557 0.334921 0.058231
0.136924 0.335345 0.058655
0.160290 0.335769 0.059079
0.183657 0.336193 0.059503
0.207024 0.336617 0.059927
0.230390 0.337041 0.060351
0.253757 0.337465 0.060775
0.284432 0.338022 0.061332
0.315178 0.338580 0.061890
0.345923 0.339138 0.062448
0.376669 0.339696 0.063006
0.407414 0.340254 0.063564
0.438160 0.340813 0.064123
0.468906 0.341371 0.064681
0.501022 0.341954 0.065264
0.535457 0.342579 0.065889
0.569892 0.343204 0.066514
0.604327 0.343829 0.067139
0.638762 0.344454 0.067764
0.673197 0.345079 0.068389
0.707632 0.345704 0.069014
0.742067 0.346329 0.069639
0.767249 0.346786 0.070096
0.789386 0.347188 0.070498
0.811523 0.347590 0.070900
0.833659 0.347991 0.071301
0.855796 0.348393 0.071703
0.877933 0.348795 0.072105
0.900070 0.349197 0.072507
0.919255 0.349545 0.072855
0.919255 0.349545 0.072855
0.919255 0.349545 0.072855
0.092013 0.365621 0.059629
0.115379 0.366045 0.060053
0.138746 0.366469 0.060477
0.162113 0.366893 0.060901
0.185479 0.367317 0.061325
0.208846 0.367741 0.061749
0.232213 0.368166 0.062174
0.255579 0.368590 0.062598
0.286254 0.369146 0.063154
0.317000 0.369705 0.063713
0.347746 0.370263 0.064271
0.378491 0.370821 0.064829
0.409237 0.371379 0.065387
0.439982 0.371937 0.065945
0.470728 0.372495 0.066503
0.502844 0.373078 0.067086
0.537279 0.373703 0.067711
0.571714 0.374328 0.068336
0.606149 0.374953 0.068961
0.640584 0.375578 0.069586
0.675019 0.376203 0.070211
0.709454 0.376828 0.070836
0.743889 0.377453 0.071461
0.769071 0.377910 0.071918
0.791208 0.378312 0.072320
0.813345 0.378714 0.072722
0.835482 0.379116 0.073124
0.857619 0.379518 0.073526
0.879755 0.379919 0.073927
0.901892 0.380321 0.074329
0.921077 0.380669 0.074677
0.921077 0.380669 0.074677
0.921077 0.380669 0.074677
0.093835 0.396745 0.061451
0.117202 0.397169 0.061875
0.140568 0.397593 0.062299
0.163935 0.398017 0.062723
0.187302 0.398442 0.063148
0.210668 0.398866 0.063572
0.234035 0.399290 0.063996
0.257402 0.399714 0.064420
0.288077 0.400271 0.064977
0.318822 0.400829 0.065535
0.349568 0.401387 0.066093
0.380314 0.401945 0.066651
0.411059 0.402503 0.067209
0.441805 0.403061 0.067767
0.472550 0.403619 0.068325
0.504666 0.404202 0.068908
0.539101 0.404827 0.069533
0.573536 0.405452 0.070158
0.607971 0.406077 0.070783
0.642406 0.406702 0.071408
0.676841 0.407327 0.072033
0.711276 0.407952 0.072658
0.745712 0.408578 0.073284
0.770894 0.409035 0.073741
0.793030 0.409436 0.074142
0.815167 0.409838 0.074544
0.837304 0.410240 0.074946
0.859441 0.410642 0.075348
0.881578 0.411044 0.075750
0.903714 0.411445 0.076151
0.922900 0.411794 0.076500
0.922900 0.411794 0.076500
0.922900 0.411794 0.076500
0.095657 0.427869 0.063273
0.119024 0.428294 0.063698
0.142391 0.428718 0.064122
0.165757 0.429142 0.064546
0.189124 0.429566 0.064970
0.212491 0.429990 0.065394
0.235857 0.430414 0.065818
0.259224 0.430838 0.066242
0.289899 0.431395 0.066799
0.320645 0.431953 0.067357
0.351390 0.432511 0.067915
0.382136 0.433069 0.068473
0.412881 0.433627 0.069031
0.443627 0.434186 0.069590
0.474373 0.434744 0.070148
0.506489 0.435327 0.070731
0.540924 0.435952 0.071356
0.575359 0.436577 0.071981
0.609794 0.437202 0.072606
0.644229 0.437827 0.073231
0.678664 0.438452 0.073856
0.713099 0.439077 0.074481
0.747534 0.439702 0.075106
0.772716 0.440159 0.075563
0.794853 0.440561 0.075965
0.816990 0.440963 0.076367
0.839126 0.441364 0.076768
0.861263 0.441766 0.077170
0.883400 0.442168 0.077572
0.905537 0.442570 0.077974
0.924722 0.442918 0.078322
0.924722 0.442918 0.078322
0.924722 0.442918 0.078322
0.097480 0.458994 0.065096
0.120846 0.459418 0.065520
0.144213 0.459842 0.065944
0.167580 0.460266 0.066368
0.190946 0.460690 0.066792
0.214313 0.461114 0.067216
0.237680 0.461539 0.067641
0.261046 0.461963 0.068065
0.291721 0.462519 0.068621
0.322467 0.463078 0.069180
0.353213 0.463636 0.069738
0.383958 0.464194 0.070296
0.414704 0.464752 0.070854
0.445449 0.465310 0.071412
0.476195 0.465868 0.071970
0.508311 0.466451 0.072553
0.542746 0.467076 0.073178
0.577181 0.467701 0.073803
0.611616 0.468326 0.074428
0.646051 0.468951 0.075053
0.680486 0.469576 0.075678
0.714921 0.470201 0.076303
0.749356 0.470826 0.076928
0.774538 0.471283 0.077385
0.796675 0.471685 0.077787
0.818812 0.472087 0.078189
0.840949 0.472489 0.078591
0.863086 0.472891 0.078993
0.885222 0.473292 0.079394
0.907359 0.473694 0.079796
0.926544 0.474042 0.080144
0.926544 0.474042 0.080144
0.926544 0.474042 0.080144
0.099302 0.490118 0.066918
0.122669 0.490542 0.067342
0.146035 0.490966 0.067766
0.169402 0.491390 0.068190
0.192769 0.491815 0.068615
0.216135 0.492239 0.069039
0.239502 0.492663 0.069463
0.262869 0.493087 0.069887
0.293544 0.493644 0.070444
0.324289 0.494202 0.071002
0.355035 0.494760 0.071560
0.385781 0.495318 0.072118
0.416526 0.495876 0.072676
0.447272 0.496434 0.073234
0.478017 0.496992 0.073792
0.510133 0.497575 0.074375
0.544568 0.498200 0.075000
0.579003 0.498825 0.075625
0.613438 0.499450 0.076250
0.647873 0.500075 0.076875
0.682308 0.500700 0.077500
0.716743 0.501325 0.078125
0.751179 0.501951 0.078751
0.776361 0.502408 0.079208
0.798497 0.502809 0.079609
0.820634 0.503211 0.080011
0.842771 0.503613 0.080413
0.864908 0.504015 0.080815
0.887045 0.504417 0.081217
0.909181 0.504818 0.081618
0.928367 0.505167 0.081967
0.928367 0.505167 0.081967
0.928367 0.505167 0.081967
0.101265 0.523637 0.068881
0.124631 0.524061 0.069305
0.147998 0.524485 0.069729
0.171364 0.524909 0.070153
0.194731 0.525333 0.070577
0.218098 0.525757 0.071001
0.241464 0.526181 0.071425
0.264831 0.526606 0.071850
0.295506 0.527162 0.072406
0.326252 0.527720 0.072964
0.356997 0.528278 0.073522
0.387743 0.528837 0.074081
0.418489 0.529395 0.074639
0.449234 0.529953 0.075197
0.479980 0.530511 0.075755
0.512096 0.531094 0.076338
0.546531 0.531719 0.076963
0.580966 0.532344 0.077588
0.615401 0.532969 0.078213
0.649836 0.533594 0.078838
0.684271 0.534219 0.079463
0.718706 0.534844 0.080088
0.753141 0.535469 0.080713
0.778323 0.535926 0.081170
0.800460 0.536328 0.081572
0.822597 0.536730 0.081974
0.844734 0.537132 0.082376
0.866870 0.537533 0.082777
0.889007 0.537935 0.083179
0.911144 0.538337 0.083581
0.930329 0.538685 0.083929
0.930329 0.538685 0.083929
0.930329 0.538685 0.083929
0.103227 0.557155 0.070843
0.126594 0.557579 0.071267
0.149960 0.558003 0.071691
0.173327 0.558427 0.072115
0.196694 0.558852 0.072540
0.220060 0.559276 0.072964
0.243427 0.559700 0.073388
0.266794 0.560124 0.073812
0.297469 0.560681 0.074369
0.328214 0.561239 0.074927
0.358960 0.561797 0.075485
0.389706 0.562355 0.076043
0.420451 0.562913 0.076601
0.451197 0.563471 0.077159
0.481942 0.564029 0.077717
0.514058 0.564612 0.078300
0.548493 0.565237 0.078925
0.582928 0.565862 0.079550
0.617363 0.566487 0.080175
0.651798 0.567112 0.080800
0.686233 0.567737 0.081425
0.720668 0.568362 0.082050
0.755104 0.568988 0.082676
0.780286 0.569445 0.083133
0.802422 0.569846 0.083534
0.824559 0.570248 0.083936
0.846696 0.570650 0.084338
0.868833 0.571052 0.084740
0.890970 0.571454 0.085142
0.913106 0.571855 0.085543
0.932292 0.572204 0.085892
0.932292 0.572204 0.085892
0.932292 0.572204 0.085892
0.105190 0.590674 0.072806
0.128556 0.591098 0.073230
0.151923 0.591522 0.073654
0.175289 0.591946 0.074078
0.198656 0.592370 0.074502
0.222023 0.592794 0.074926
0.245389 0.593218 0.075350
0.268756 0.593643 0.075775
0.299431 0.594199 0.076331
0.330177 0.594757 0.076889
0.360922 0.595315 0.077447
0.391668 0.595874 0.078006
0.422414 0.596432 0.078564
0.453159 0.596990 0.079122
0.483905 0.597548 0.079680
0.516021 0.598131 0.080263
0.550456 0.598756 0.080888
0.584891 0.599381 0.081513
0.619326 0.600006 0.082138
0.653761 0.600631 0.082763
0.688196 0.601256 0.083388
0.722631 0.601881 0.084013
0.757066 0.602506 0.084638
0.782248 0.602963 0.085095
0.804385 0.603365 0.085497
0.826522 0.603767 0.085899
0.848659 0.604169 0.086301
0.870795 0.604570 0.086702
0.892932 0.604972 0.087104
0.915069 0.605374 0.087506
0.934254 0.605722 0.087854
0.934254 0.605722 0.087854
0.934254 0.605722 0.087854
0.107152 0.624192 0.074768
0.130519 0.624616 0.075192
0.153885 0.625040 0.075616
0.177252 0.625464 0.076040
0.200619 0.625889 0.076465
0.223985 0.626313 0.076889
0.247352 0.626737 0.077313
0.270719 0.627161 0.077737
0.301394 0.627718 0.078294
0.332139 0.628276 0.078852
0.362885 0.628834 0.079410
0.393631 0.629392 0.079968
0.424376 0.629950 0.080526
0.455122 0.630508 0.081084
0.485867 0.631066 0.081642
0.517983 0.631649 0.082225
0.552418 0.632274 0.082850
0.586853 0.632899 0.083475
0.621288 0.633524 0.084100
0.655723 0.634149 0.084725
0.690158 0.634774 0.085350
0.724593 0.635399 0.085975
0.759029 0.636025 0.086601
0.784211 0.636482 0.087058
0.806347 0.636883 0.087459
0.828484 0.637285 0.087861
0.850621 0.637687 0.088263
0.872758 0.638089 0.088665
0.894895 0.638491 0.089067
0.917032 0.638893 0.089469
0.936217 0.639241 0.089817
0.936217 0.639241 0.089817
0.936217 0.639241 0.089817
0.109115 0.657711 0.076731
0.132481 0.658135 0.077155
0.155848 0.658559 0.077579
0.179214 0.658983 0.078003
0.202581 0.659407 0.078427
0.225948 0.659831 0.078851
0.249314 0.660255 0.079275
0.272681 0.660680 0.079700
0.303356 0.661236 0.080256
0.334102 0.661794 0.080814
0.364847 0.662352 0.081372
0.395593 0.662911 0.081931
0.426339 0.663469 0.082489
0.457084 0.664027 0.083047
0.487830 0.664585 0.083605
0.519946 0.665168 0.084188
0.554381 0.665793 0.084813
0.588816 0.666418 0.085438
0.623251 0.667043 0.086063
0.657686 0.667668 0.086688
0.692121 0.668293 0.087313
0.726556 0.668918 0.087938
0.760991 0.669543 0.088563
0.786173 0.670000 0.089020
0.808310 0.670402 0.089422
0.830447 0.670804 0.089824
0.852584 0.671206 0.090226
0.874720 0.671607 0.090627
0.896857 0.672009 0.091029
0.918994 0.672411 0.091431
0.938179 0.672759 0.091779
0.938179 0.672759 0.091779
0.938179 0.672759 0.091779
0.111077 0.691229 0.078693
0.134444 0.691653 0.079117
0.157810 0.692077 0.079541
0.181177 0.692502 0.079966
0.204544 0.692926 0.080390
0.227910 0.693350 0.080814
0.251277 0.693774 0.081238
0.274644 0.694198 0.081662
0.305319 0.694755 0.082219
0.336064 0.695313 0.082777
0.366810 0.695871 0.083335
0.397556 0.696429 0.083893
0.428301 0.696987 0.084451
0.459047 0.697545 0.085009
0.489792 0.698103 0.085567
0.521908 0.698686 0.086150
0.556343 0.699311 0.086775
0.590778 0.699936 0.087400
0.625213 0.700561 0.088025
0.659648 0.701186 0.088650
0.694083 0.701811 0.089275
0.728519 0.702437 0.089901
0.762954 0.703062 0.090526
0.788136 0.703519 0.090983
0.810272 0.703920 0.091384
0.832409 0.704322 0.091786
0.854546 0.704724 0.092188
0.876683 0.705126 0.092590
0.898820 0.705528 0.092992
0.920957 0.705930 0.093394
0.940142 0.706278 0.093742
0.940142 0.706278 0.093742
0.940142 0.706278 0.093742
0.113040 0.724748 0.080656
0.136406 0.725172 0.081080
0.159773 0.725596 0.081504
0.183140 0.726020 0.081928
0.206506 0.726444 0.082352
0.229873 0.726868 0.082776
0.253239 0.727292 0.083200
0.276606 0.727717 0.083625
0.307281 0.728273 0.084181
0.338027 0.728831 0.084739
0.368773 0.729390 0.085298
0.399518 0.729948 0.085856
0.430264 0.730506 0.086414
0.461009 0.731064 0.086972
0.491755 0.731622 0.087530
0.523871 0.732205 0.088113
0.558306 0.732830 0.088738
0.592741 0.733455 0.089363
0.627176 0.734080 0.089988
0.661611 0.734705 0.090613
0.696046 0.735330 0.091238
0.730481 0.735955 0.091863
0.764916 0.736580 0.092488
0.790098 0.737037 0.092945
0.812235 0.737439 0.093347
0.834372 0.737841 0.093749
0.856509 0.738243 0.094151
0.878645 0.738644 0.094552
0.900782 0.739046 0.094954
0.922919 0.739448 0.095356
0.942104 0.739796 0.095704
0.942104 0.739796 0.095704
0.942104 0.739796 0.095704
0.115002 0.758266 0.082618
0.138369 0.758690 0.083042
0.161735 0.759114 0.083466
0.185102 0.759539 0.083891
0.208469 0.759963 0.084315
0.231835 0.760387 0.084739
0.255202 0.760811 0.085163
0.278569 0.761235 0.085587
0.309244 0.761792 0.086144
0.339989 0.762350 0.086702
0.370735 0.762908 0.087260
0.401481 0.763466 0.087818
0.432226 0.764024 0.088376
0.462972 0.764582 0.088934
0.493717 0.765140 0.089492
0.525833 0.765723 0.090075
0.560268 0.766348 0.090700
0.594703 0.766973 0.091325
0.629138 0.767598 0.091950
0.663573 0.768223 0.092575
0.698008 0.768848 0.093200
0.732444 0.769474 0.093826
0.766879 0.770099 0.094451
0.792061 0.770556 0.094908
0.814197 0.770957 0.095309
0.836334 0.771359 0.095711
0.858471 0.771761 0.096113
0.880608 0.772163 0.096515
0.902745 0.772565 0.096917
0.924882 0.772967 0.097319
0.944067 0.773315 0.097667
0.944067 0.773315 0.097667
0.944067 0.773315 0.097667
0.116320 0.780767 0.083936
0.139686 0.781191 0.084360
0.163053 0.781615 0.084784
0.186419 0.782039 0.085208
0.209786 0.782463 0.085632
0.233153 0.782887 0.086056
0.256519 0.783311 0.086480
0.279886 0.783735 0.086904
0.310561 0.784292 0.087461
0.341307 0.784850 0.088019
0.372052 0.785408 0.088577
0.402798 0.785966 0.089135
0.433544 0.786525 0.089694
0.464289 0.787083 0.090252
0.495035 0.787641 0.090810
0.527151 0.788224 0.091393
0.561586 0.788849 0.092018
0.596021 0.789474 0.092643
0.630456 0.790099 0.093268
0.664891 0.790724 0.093893
0.699326 0.791349 0.094518
0.733761 0.791974 0.095143
0.768196 0.792599 0.095768
0.793378 0.793056 0.096225
0.815515 0.793458 0.096627
0.837652 0.793860 0.097029
0.859789 0.794262 0.097431
0.881925 0.794663 0.097832
0.904062 0.795065 0.098234
0.926199 0.795467 0.098636
0.945384 0.795815 0.098984
0.945384 0.795815 0.098984
0.945384 0.795815 0.098984
0.117511 0.801117 0.085127
0.140878 0.801541 0.085551
0.164244 0.801965 0.085975
0.187611 0.802389 0.086399
0.210978 0.802814 0.086824
0.234344 0.803238 0.087248
0.257711 0.803662 0.087672
0.281077 0.804086 0.088096
0.311753 0.804643 0.088653
0.342498 0.805201 0.089211
0.373244 0.805759 0.089769
0.403990 0.806317 0.090327
0.434735 0.806875 0.090885
0.465481 0.807433 0.091443
0.496226 0.807991 0.092001
0.528342 0.808574 0.092584
0.562777 0.809199 0.093209
0.597212 0.809824 0.093834
0.631647 0.810449 0.094459
0.666082 0.811074 0.095084
0.700517 0.811699 0.095709
0.734952 0.812324 0.096334
0.769387 0.812949 0.096959
0.794570 0.813407 0.097417
0.816706 0.813808 0.097818
0.838843 0.814210 0.098220
