docs/brainstorm/marketing-site/luts/A_WarmFilmic.cube
TITLE "SuperBad A — Warm Filmic (Portra 400)"
LUT_3D_SIZE 5
DOMAIN_MIN 0.0 0.0 0.0
DOMAIN_MAX 1.0 1.0 1.0
0.073990 0.057798 0.041606
0.268231 0.061323 0.045131
0.519256 0.065880 0.049688
0.773185 0.070489 0.054297
0.903054 0.072846 0.056654
0.084723 0.241123 0.052339
0.278965 0.244649 0.055865
0.529990 0.249206 0.060422
0.783919 0.253815 0.065031
0.913788 0.256172 0.067388
0.099302 0.490118 0.066918
0.293544 0.493644 0.070444
0.544568 0.498200 0.075000
0.798497 0.502809 0.079609
0.928367 0.505167 0.081967
0.115002 0.758266 0.082618
0.309244 0.761792 0.086144
0.560268 0.766348 0.090700
0.814197 0.770957 0.095309
0.944067 0.773315 0.097667
0.124660 0.923220 0.092276
0.318902 0.926746 0.095802
0.569926 0.931302 0.100358
0.823856 0.935912 0.104968
0.953725 0.938269 0.107325
0.074905 0.058713 0.188249
0.269146 0.062238 0.191774
0.520171 0.066795 0.196331
0.774100 0.071404 0.200940
0.903969 0.073761 0.203297
0.085638 0.242038 0.198982
0.279880 0.245564 0.202508
0.530905 0.250121 0.207065
0.784834 0.254730 0.211674
0.914703 0.257087 0.214031
0.100217 0.491033 0.213561
0.294459 0.494559 0.217087
0.545483 0.499115 0.221643
0.799412 0.503724 0.226252
0.929282 0.506082 0.228610
0.115917 0.759181 0.229261
0.310159 0.762707 0.232787
0.561183 0.767263 0.237343
0.815112 0.771872 0.241952
0.944982 0.774230 0.244310
0.125575 0.924135 0.238919
0.319817 0.927661 0.242445
0.570841 0.932217 0.247001
0.824770 0.936826 0.251610
0.954640 0.939184 0.253968
0.076231 0.060039 0.400807
0.270473 0.063565 0.404333
0.521497 0.068121 0.408889
0.775426 0.072730 0.413498
0.905295 0.075087 0.415855
0.086964 0.243364 0.411540
0.281206 0.246890 0.415066
0.532231 0.251447 0.419623
0.786160 0.256056 0.424232
0.916029 0.258413 0.426589
0.101543 0.492359 0.426119
0.295785 0.495885 0.429645
0.546809 0.500441 0.434201
0.800738 0.505050 0.438810
0.930608 0.507408 0.441168
0.117243 0.760507 0.441819
0.311485 0.764033 0.445345
0.562509 0.768589 0.449901
0.816439 0.773199 0.454511
0.946308 0.775556 0.456868
0.126901 0.925461 0.451477
0.321143 0.928987 0.455003
0.572167 0.933543 0.459559
0.826097 0.938153 0.464169
0.955966 0.940510 0.466526
0.077612 0.061420 0.622252
0.271854 0.064946 0.625778
0.522879 0.069503 0.630335
0.776808 0.074112 0.634944
0.906677 0.076469 0.637301
0.088346 0.244746 0.632986
0.282588 0.248272 0.636512
0.533612 0.252828 0.641068
0.787541 0.257437 0.645677
0.917411 0.259795 0.648035
0.102925 0.493741 0.647565
0.297167 0.497267 0.651091
0.548191 0.501823 0.655647
0.802120 0.506432 0.660256
0.931989 0.508789 0.662613
0.118625 0.761889 0.663265
0.312867 0.765415 0.666791
0.563891 0.769971 0.671347
0.817820 0.774580 0.675956
0.947689 0.776937 0.678313
0.128283 0.926843 0.672923
0.322525 0.930369 0.676449
0.573549 0.934925 0.681005
0.827478 0.939534 0.685614
0.957348 0.941892 0.687972
0.078698 0.062506 0.796298
0.272940 0.066032 0.799824
0.523964 0.070588 0.804380
0.777894 0.075198 0.808990
0.907763 0.077555 0.811347
0.089432 0.245832 0.807032
0.283674 0.249358 0.810558
0.534698 0.253914 0.815114
0.788627 0.258523 0.819723
0.918497 0.260881 0.822081
0.104011 0.494827 0.821611
0.298252 0.498352 0.825136
0.549277 0.502909 0.829693
0.803206 0.507518 0.834302
0.933075 0.509875 0.836659
0.119711 0.762975 0.837311
0.313952 0.766500 0.840836
0.564977 0.771057 0.845393
0.818906 0.775666 0.850002
0.948775 0.778023 0.852359
0.129369 0.927929 0.846969
0.323611 0.931455 0.850495
0.574635 0.936011 0.855051
0.828564 0.940620 0.859660
0.958433 0.942977 0.862017
