docs/brainstorm/marketing-site/luts/A_WarmFilmic.cube
TITLE "SuperBad A — Warm Filmic (Portra 400)"
LUT_3D_SIZE 9
DOMAIN_MIN 0.0 0.0 0.0
DOMAIN_MAX 1.0 1.0 1.0
0.073990 0.057798 0.041606
0.167456 0.059494 0.043302
0.268231 0.061323 0.045131
0.391214 0.063556 0.047364
0.519256 0.065880 0.049688
0.656996 0.068380 0.052188
0.773185 0.070489 0.054297
0.861732 0.072096 0.055904
0.903054 0.072846 0.056654
0.079316 0.148776 0.046932
0.172783 0.150473 0.048629
0.273558 0.152302 0.050458
0.396541 0.154535 0.052691
0.524583 0.156859 0.055015
0.662323 0.159359 0.057515
0.778512 0.161468 0.059624
0.867059 0.163075 0.061231
0.908381 0.163825 0.061981
0.084723 0.241123 0.052339
0.178190 0.242820 0.054036
0.278965 0.244649 0.055865
0.401947 0.246881 0.058097
0.529990 0.249206 0.060422
0.667730 0.251706 0.062922
0.783919 0.253815 0.065031
0.872466 0.255422 0.066638
0.913788 0.256172 0.067388
0.092013 0.365621 0.059629
0.185479 0.367317 0.061325
0.286254 0.369146 0.063154
0.409237 0.371379 0.065387
0.537279 0.373703 0.067711
0.675019 0.376203 0.070211
0.791208 0.378312 0.072320
0.879755 0.379919 0.073927
0.921077 0.380669 0.074677
0.099302 0.490118 0.066918
0.192769 0.491815 0.068615
0.293544 0.493644 0.070444
0.416526 0.495876 0.072676
0.544568 0.498200 0.075000
0.682308 0.500700 0.077500
0.798497 0.502809 0.079609
0.887045 0.504417 0.081217
0.928367 0.505167 0.081967
0.107152 0.624192 0.074768
0.200619 0.625889 0.076465
0.301394 0.627718 0.078294
0.424376 0.629950 0.080526
0.552418 0.632274 0.082850
0.690158 0.634774 0.085350
0.806347 0.636883 0.087459
0.894895 0.638491 0.089067
0.936217 0.639241 0.089817
0.115002 0.758266 0.082618
0.208469 0.759963 0.084315
0.309244 0.761792 0.086144
0.432226 0.764024 0.088376
0.560268 0.766348 0.090700
0.698008 0.768848 0.093200
0.814197 0.770957 0.095309
0.902745 0.772565 0.096917
0.944067 0.773315 0.097667
0.119894 0.841818 0.087510
0.213361 0.843515 0.089207
0.314136 0.845344 0.091036
0.437118 0.847576 0.093268
0.565160 0.849900 0.095592
0.702900 0.852400 0.098092
0.819089 0.854509 0.100201
0.907637 0.856117 0.101809
0.948959 0.856867 0.102559
0.124660 0.923220 0.092276
0.218127 0.924917 0.093973
0.318902 0.926746 0.095802
0.441884 0.928978 0.098034
0.569926 0.931302 0.100358
0.707667 0.933803 0.102859
0.823856 0.935912 0.104968
0.912403 0.937519 0.106575
0.953725 0.938269 0.107325
0.074426 0.058234 0.111594
0.167893 0.059931 0.113291
0.268668 0.061760 0.115120
0.391650 0.063992 0.117352
0.519693 0.066317 0.119677
0.657433 0.068817 0.122177
0.773622 0.070926 0.124286
0.862169 0.072533 0.125893
0.903491 0.073283 0.126643
0.079753 0.149213 0.116921
0.173220 0.150910 0.118618
0.273995 0.152739 0.120447
0.396977 0.154971 0.122679
0.525019 0.157295 0.125003
0.662760 0.159796 0.127504
0.778949 0.161905 0.129613
0.867496 0.163512 0.131220
0.908818 0.164262 0.131970
0.085160 0.241560 0.122328
0.178627 0.243257 0.124025
0.279402 0.245086 0.125854
0.402384 0.247318 0.128086
0.530426 0.249642 0.130410
0.668166 0.252142 0.132910
0.784355 0.254251 0.135019
0.872903 0.255859 0.136627
0.914225 0.256609 0.137377
0.092449 0.366057 0.129617
0.185916 0.367754 0.131314
0.286691 0.369583 0.133143
0.409673 0.371815 0.135375
0.537716 0.374140 0.137700
0.675456 0.376640 0.140200
0.791645 0.378749 0.142309
0.880192 0.380356 0.143916
0.921514 0.381106 0.144666
0.099739 0.490555 0.136907
0.193205 0.492251 0.138603
0.293980 0.494080 0.140432
0.416963 0.496313 0.142665
0.545005 0.498637 0.144989
0.682745 0.501137 0.147489
0.798934 0.503246 0.149598
0.887481 0.504853 0.151205
0.928803 0.505603 0.151955
0.107589 0.624629 0.144757
0.201055 0.626325 0.146453
0.301831 0.628155 0.148283
0.424813 0.630387 0.150515
0.552855 0.632711 0.152839
0.690595 0.635211 0.155339
0.806784 0.637320 0.157448
0.895331 0.638927 0.159055
0.936653 0.639677 0.159805
0.115439 0.758703 0.152607
0.208905 0.760399 0.154303
0.309681 0.762229 0.156133
0.432663 0.764461 0.158365
0.560705 0.766785 0.160689
0.698445 0.769285 0.163189
0.814634 0.771394 0.165298
0.903181 0.773001 0.166905
0.944503 0.773751 0.167655
0.120331 0.842255 0.157499
0.213797 0.843951 0.159195
0.314573 0.845781 0.161025
0.437555 0.848013 0.163257
0.565597 0.850337 0.165581
0.703337 0.852837 0.168081
0.819526 0.854946 0.170190
0.908073 0.856553 0.171797
0.949395 0.857303 0.172547
0.125097 0.923657 0.162265
0.218563 0.925353 0.163961
0.319339 0.927183 0.165791
0.442321 0.929415 0.168023
0.570363 0.931739 0.170347
0.708103 0.934239 0.172847
0.824292 0.936348 0.174956
0.912839 0.937955 0.176563
0.954162 0.938706 0.177314
0.074905 0.058713 0.188249
0.168371 0.060409 0.189945
0.269146 0.062238 0.191774
0.392129 0.064471 0.194007
0.520171 0.066795 0.196331
0.657911 0.069295 0.198831
0.774100 0.071404 0.200940
0.862647 0.073011 0.202547
0.903969 0.073761 0.203297
0.080231 0.149691 0.193575
0.173698 0.151388 0.195272
0.274473 0.153217 0.197101
0.397455 0.155449 0.199333
0.525498 0.157774 0.201658
0.663238 0.160274 0.204158
0.779427 0.162383 0.206267
0.867974 0.163990 0.207874
0.909296 0.164740 0.208624
0.085638 0.242038 0.198982
0.179105 0.243735 0.200679
0.279880 0.245564 0.202508
0.402862 0.247796 0.204740
0.530905 0.250121 0.207065
0.668645 0.252621 0.209565
0.784834 0.254730 0.211674
0.873381 0.256337 0.213281
0.914703 0.257087 0.214031
0.092928 0.366536 0.206272
0.186394 0.368232 0.207968
0.287169 0.370061 0.209797
0.410152 0.372294 0.212030
0.538194 0.374618 0.214354
0.675934 0.377118 0.216854
0.792123 0.379227 0.218963
0.880670 0.380834 0.220570
0.921992 0.381584 0.221320
0.100217 0.491033 0.213561
0.193684 0.492730 0.215258
0.294459 0.494559 0.217087
0.417441 0.496791 0.219319
0.545483 0.499115 0.221643
0.683223 0.501615 0.224143
0.799412 0.503724 0.226252
0.887960 0.505332 0.227860
0.929282 0.506082 0.228610
0.108067 0.625107 0.221411
0.201534 0.626804 0.223108
0.302309 0.628633 0.224937
0.425291 0.630865 0.227169
0.553333 0.633189 0.229493
0.691073 0.635689 0.231993
0.807262 0.637798 0.234102
0.895810 0.639406 0.235710
0.937132 0.640156 0.236460
0.115917 0.759181 0.229261
0.209384 0.760878 0.230958
0.310159 0.762707 0.232787
0.433141 0.764939 0.235019
0.561183 0.767263 0.237343
0.698923 0.769763 0.239843
0.815112 0.771872 0.241952
0.903660 0.773480 0.243560
0.944982 0.774230 0.244310
0.120809 0.842733 0.234153
0.214276 0.844430 0.235850
0.315051 0.846259 0.237679
0.438033 0.848491 0.239911
0.566075 0.850815 0.242235
0.703815 0.853315 0.244735
0.820004 0.855424 0.246844
0.908552 0.857032 0.248452
0.949874 0.857782 0.249202
0.125575 0.924135 0.238919
0.219042 0.925832 0.240616
0.319817 0.927661 0.242445
0.442799 0.929893 0.244677
0.570841 0.932217 0.247001
0.708581 0.934717 0.249501
0.824770 0.936826 0.251610
0.913318 0.938434 0.253218
0.954640 0.939184 0.253968
0.075540 0.059348 0.290084
0.169007 0.061045 0.291781
0.269782 0.062874 0.293610
0.392764 0.065106 0.295842
0.520806 0.067430 0.298166
0.658546 0.069930 0.300666
0.774735 0.072039 0.302775
0.863283 0.073647 0.304383
0.904605 0.074397 0.305133
0.080867 0.150327 0.295411
0.174333 0.152023 0.297107
0.275109 0.153853 0.298937
0.398091 0.156085 0.301169
0.526133 0.158409 0.303493
0.663873 0.160909 0.305993
0.780062 0.163018 0.308102
0.868609 0.164625 0.309709
0.909931 0.165375 0.310459
0.086274 0.242674 0.300818
0.179740 0.244370 0.302514
0.280515 0.246199 0.304343
0.403498 0.248432 0.306576
0.531540 0.250756 0.308900
0.669280 0.253256 0.311400
0.785469 0.255365 0.313509
0.874016 0.256972 0.315116
0.915338 0.257722 0.315866
0.093563 0.367171 0.308107
0.187030 0.368868 0.309804
0.287805 0.370697 0.311633
0.410787 0.372929 0.313865
0.538829 0.375253 0.316189
0.676569 0.377753 0.318689
0.792758 0.379862 0.320798
0.881306 0.381470 0.322406
0.922628 0.382220 0.323156
0.100852 0.491668 0.315396
0.194319 0.493365 0.317093
0.295094 0.495194 0.318922
0.418076 0.497426 0.321154
0.546119 0.499751 0.323479
0.683859 0.502251 0.325979
0.800048 0.504360 0.328088
0.888595 0.505967 0.329695
0.929917 0.506717 0.330445
0.108702 0.625742 0.323246
0.202169 0.627439 0.324943
0.302944 0.629268 0.326772
0.425926 0.631500 0.329004
0.553969 0.633825 0.331329
0.691709 0.636325 0.333829
0.807898 0.638434 0.335938
0.896445 0.640041 0.337545
0.937767 0.640791 0.338295
0.116552 0.759816 0.331096
0.210019 0.761513 0.332793
0.310794 0.763342 0.334622
0.433776 0.765574 0.336854
0.561819 0.767899 0.339179
0.699559 0.770399 0.341679
0.815748 0.772508 0.343788
0.904295 0.774115 0.345395
0.945617 0.774865 0.346145
0.121444 0.843368 0.335988
0.214911 0.845065 0.337685
0.315686 0.846894 0.339514
0.438668 0.849126 0.341746
0.566711 0.851451 0.344071
0.704451 0.853951 0.346571
0.820640 0.856060 0.348680
0.909187 0.857667 0.350287
0.950509 0.858417 0.351037
0.126210 0.924770 0.340754
0.219677 0.926467 0.342451
0.320452 0.928296 0.344280
0.443435 0.930529 0.346513
0.571477 0.932853 0.348837
0.709217 0.935353 0.351337
0.825406 0.937462 0.353446
0.913953 0.939069 0.355053
0.955275 0.939819 0.355803
0.076231 0.060039 0.400807
0.169697 0.061735 0.402503
0.270473 0.063565 0.404333
0.393455 0.065797 0.406565
0.521497 0.068121 0.408889
0.659237 0.070621 0.411389
0.775426 0.072730 0.413498
0.863973 0.074337 0.415105
0.905295 0.075087 0.415855
0.081558 0.151018 0.406134
0.175024 0.152714 0.407830
0.275799 0.154543 0.409659
0.398782 0.156776 0.411892
0.526824 0.159100 0.414216
0.664564 0.161600 0.416716
0.780753 0.163709 0.418825
0.869300 0.165316 0.420432
0.910622 0.166066 0.421182
0.086964 0.243364 0.411540
0.180431 0.245061 0.413237
0.281206 0.246890 0.415066
0.404189 0.249123 0.417299
0.532231 0.251447 0.419623
0.669971 0.253947 0.422123
0.786160 0.256056 0.424232
0.874707 0.257663 0.425839
0.916029 0.258413 0.426589
0.094254 0.367862 0.418830
0.187720 0.369558 0.420526
0.288496 0.371388 0.422356
0.411478 0.373620 0.424588
0.539520 0.375944 0.426912
0.677260 0.378444 0.429412
0.793449 0.380553 0.431521
0.881996 0.382160 0.433128
0.923318 0.382910 0.433878
0.101543 0.492359 0.426119
0.195010 0.494056 0.427816
0.295785 0.495885 0.429645
0.418767 0.498117 0.431877
0.546809 0.500441 0.434201
0.684550 0.502942 0.436702
0.800738 0.505050 0.438810
0.889286 0.506658 0.440418
0.930608 0.507408 0.441168
0.109393 0.626433 0.433969
0.202860 0.628130 0.435666
0.303635 0.629959 0.437495
0.426617 0.632191 0.439727
0.554659 0.634515 0.442051
0.692400 0.637016 0.444552
0.808589 0.639125 0.446661
0.897136 0.640732 0.448268
0.938458 0.641482 0.449018
0.117243 0.760507 0.441819
0.210710 0.762204 0.443516
0.311485 0.764033 0.445345
0.434467 0.766265 0.447577
0.562509 0.768589 0.449901
0.700250 0.771090 0.452402
0.816439 0.773199 0.454511
0.904986 0.774806 0.456118
0.946308 0.775556 0.456868
0.122135 0.844059 0.446711
0.215602 0.845756 0.448408
0.316377 0.847585 0.450237
0.439359 0.849817 0.452469
0.567401 0.852141 0.454793
0.705142 0.854642 0.457294
0.821331 0.856751 0.459403
0.909878 0.858358 0.461010
0.951200 0.859108 0.461760
0.126901 0.925461 0.451477
0.220368 0.927158 0.453174
0.321143 0.928987 0.455003
0.444125 0.931219 0.457235
0.572167 0.933543 0.459559
0.709908 0.936044 0.462060
0.826097 0.938153 0.464169
0.914644 0.939760 0.465776
0.955966 0.940510 0.466526
0.076922 0.060730 0.511530
0.170388 0.062426 0.513226
0.271163 0.064255 0.515055
0.394146 0.066488 0.517288
0.522188 0.068812 0.519612
0.659928 0.071312 0.522112
0.776117 0.073421 0.524221
0.864664 0.075028 0.525828
0.905986 0.075778 0.526578
0.082248 0.151708 0.516856
0.175715 0.153405 0.518553
0.276490 0.155234 0.520382
0.399472 0.157466 0.522614
0.527515 0.159791 0.524939
0.665255 0.162291 0.527439
0.781444 0.164400 0.529548
0.869991 0.166007 0.531155
0.911313 0.166757 0.531905
0.087655 0.244055 0.522263
0.181122 0.245752 0.523960
0.281897 0.247581 0.525789
0.404879 0.249813 0.528021
0.532922 0.252138 0.530346
0.670662 0.254638 0.532846
0.786851 0.256747 0.534955
0.875398 0.258354 0.536562
0.916720 0.259104 0.537312
0.094945 0.368553 0.529553
0.188411 0.370249 0.531249
0.289186 0.372078 0.533078
0.412169 0.374311 0.535311
0.540211 0.376635 0.537635
0.677951 0.379135 0.540135
0.794140 0.381244 0.542244
0.882687 0.382851 0.543851
0.924009 0.383601 0.544601
0.102234 0.493050 0.536842
0.195700 0.494746 0.538538
0.296476 0.496576 0.540368
0.419458 0.498808 0.542600
0.547500 0.501132 0.544924
0.685240 0.503632 0.547424
0.801429 0.505741 0.549533
0.889977 0.507349 0.551141
0.931299 0.508099 0.551891
0.110084 0.627124 0.544692
0.203551 0.628821 0.546389
0.304326 0.630650 0.548218
0.427308 0.632882 0.550450
0.555350 0.635206 0.552774
0.693090 0.637706 0.555274
0.809279 0.639815 0.557383
0.897827 0.641423 0.558991
0.939149 0.642173 0.559741
0.117934 0.761198 0.552542
0.211401 0.762895 0.554239
0.312176 0.764724 0.556068
0.435158 0.766956 0.558300
0.563200 0.769280 0.560624
0.700940 0.771780 0.563124
0.817129 0.773889 0.565233
0.905677 0.775497 0.566841
0.946999 0.776247 0.567591
0.122826 0.844750 0.557434
0.216293 0.846447 0.559131
0.317068 0.848276 0.560960
0.440050 0.850508 0.563192
0.568092 0.852832 0.565516
0.705832 0.855332 0.568016
0.822021 0.857441 0.570125
0.910569 0.859049 0.571733
0.951891 0.859799 0.572483
0.127592 0.926152 0.562200
0.221059 0.927849 0.563897
0.321834 0.929678 0.565726
0.444816 0.931910 0.567958
0.572858 0.934234 0.570282
0.710598 0.936734 0.572782
0.826787 0.938843 0.574891
0.915335 0.940451 0.576499
0.956657 0.941201 0.577249
0.077612 0.061420 0.622252
0.171079 0.063117 0.623949
0.271854 0.064946 0.625778
0.394836 0.067178 0.628010
0.522879 0.069503 0.630335
0.660619 0.072003 0.632835
0.776808 0.074112 0.634944
0.865355 0.075719 0.636551
0.906677 0.076469 0.637301
0.082939 0.152399 0.627579
0.176406 0.154096 0.629276
0.277181 0.155925 0.631105
0.400163 0.158157 0.633337
0.528205 0.160481 0.635661
0.665946 0.162982 0.638162
0.782135 0.165091 0.640271
0.870682 0.166698 0.641878
0.912004 0.167448 0.642628
0.088346 0.244746 0.632986
0.181813 0.246443 0.634683
0.282588 0.248272 0.636512
0.405570 0.250504 0.638744
0.533612 0.252828 0.641068
0.671352 0.255328 0.643568
0.787541 0.257437 0.645677
0.876089 0.259045 0.647285
0.917411 0.259795 0.648035
0.095635 0.369243 0.640275
0.189102 0.370940 0.641972
0.289877 0.372769 0.643801
0.412859 0.375001 0.646033
0.540902 0.377326 0.648358
0.678642 0.379826 0.650858
0.794831 0.381935 0.652967
0.883378 0.383542 0.654574
0.924700 0.384292 0.655324
0.102925 0.493741 0.647565
0.196391 0.495437 0.649261
0.297167 0.497267 0.651091
0.420149 0.499499 0.653323
0.548191 0.501823 0.655647
0.685931 0.504323 0.658147
0.802120 0.506432 0.660256
0.890667 0.508039 0.661863
0.931989 0.508789 0.662613
0.110775 0.627815 0.655415
0.204241 0.629511 0.657111
0.305017 0.631341 0.658941
0.427999 0.633573 0.661173
0.556041 0.635897 0.663497
0.693781 0.638397 0.665997
0.809970 0.640506 0.668106
0.898517 0.642113 0.669713
0.939839 0.642863 0.670463
0.118625 0.761889 0.663265
0.212091 0.763585 0.664961
0.312867 0.765415 0.666791
0.435849 0.767647 0.669023
0.563891 0.769971 0.671347
0.701631 0.772471 0.673847
0.817820 0.774580 0.675956
0.906367 0.776187 0.677563
0.947689 0.776937 0.678313
0.123517 0.845441 0.668157
0.216983 0.847137 0.669853
0.317759 0.848967 0.671683
0.440741 0.851199 0.673915
0.568783 0.853523 0.676239
0.706523 0.856023 0.678739
0.822712 0.858132 0.680848
0.911259 0.859739 0.682455
0.952581 0.860489 0.683205
0.128283 0.926843 0.672923
0.221749 0.928539 0.674619
0.322525 0.930369 0.676449
0.445507 0.932601 0.678681
0.573549 0.934925 0.681005
0.711289 0.937425 0.683505
0.827478 0.939534 0.685614
0.916026 0.941142 0.687222
0.957348 0.941892 0.687972
0.078220 0.062028 0.719644
0.171687 0.063725 0.721341
0.272462 0.065554 0.723170
0.395444 0.067786 0.725402
0.523486 0.070110 0.727726
0.661226 0.072610 0.730226
0.777415 0.074719 0.732335
0.865963 0.076327 0.733943
0.907285 0.077077 0.734693
0.083547 0.153007 0.724971
0.177013 0.154703 0.726667
0.277789 0.156533 0.728497
0.400771 0.158765 0.730729
0.528813 0.161089 0.733053
0.666553 0.163589 0.735553
0.782742 0.165698 0.737662
0.871289 0.167305 0.739269
0.912612 0.168056 0.740020
0.088954 0.245354 0.730378
0.182420 0.247050 0.732074
0.283196 0.248880 0.733904
0.406178 0.251112 0.736136
0.534220 0.253436 0.738460
0.671960 0.255936 0.740960
0.788149 0.258045 0.743069
0.876696 0.259652 0.744676
0.918018 0.260402 0.745426
0.096243 0.369851 0.737667
0.189710 0.371548 0.739364
0.290485 0.373377 0.741193
0.413467 0.375609 0.743425
0.541509 0.377933 0.745749
0.679249 0.380433 0.748249
0.795438 0.382542 0.750358
0.883986 0.384150 0.751966
0.925308 0.384900 0.752716
0.103532 0.494348 0.744956
0.196999 0.496045 0.746653
0.297774 0.497874 0.748482
0.420756 0.500106 0.750714
0.548799 0.502431 0.753039
0.686539 0.504931 0.755539
0.802728 0.507040 0.757648
0.891275 0.508647 0.759255
0.932597 0.509397 0.760005
0.111382 0.628422 0.752806
0.204849 0.630119 0.754503
0.305624 0.631948 0.756332
0.428606 0.634180 0.758564
0.556649 0.636505 0.760889
0.694389 0.639005 0.763389
0.810578 0.641114 0.765498
0.899125 0.642721 0.767105
0.940447 0.643471 0.767855
0.119232 0.762496 0.760656
0.212699 0.764193 0.762353
0.313474 0.766022 0.764182
0.436457 0.768255 0.766415
0.564499 0.770579 0.768739
0.702239 0.773079 0.771239
0.818428 0.775188 0.773348
0.906975 0.776795 0.774955
0.948297 0.777545 0.775705
0.124124 0.846048 0.765548
0.217591 0.847745 0.767245
0.318366 0.849574 0.769074
0.441348 0.851806 0.771306
0.569391 0.854131 0.773631
0.707131 0.856631 0.776131
0.823320 0.858740 0.778240
0.911867 0.860347 0.779847
0.953189 0.861097 0.780597
0.128891 0.927451 0.770315
0.222357 0.929147 0.772011
0.323132 0.930976 0.773840
0.446115 0.933209 0.776073
0.574157 0.935533 0.778397
0.711897 0.938033 0.780897
0.828086 0.940142 0.783006
0.916633 0.941749 0.784613
0.957955 0.942499 0.785363
0.078698 0.062506 0.796298
0.172165 0.064203 0.797995
0.272940 0.066032 0.799824
0.395922 0.068264 0.802056
0.523964 0.070588 0.804380
0.661705 0.073089 0.806881
0.777894 0.075198 0.808990
0.866441 0.076805 0.810597
0.907763 0.077555 0.811347
0.084025 0.153485 0.801625
0.177492 0.155182 0.803322
0.278267 0.157011 0.805151
0.401249 0.159243 0.807383
0.529291 0.161567 0.809707
0.667031 0.164067 0.812207
0.783220 0.166176 0.814316
0.871768 0.167784 0.815924
0.913090 0.168534 0.816674
0.089432 0.245832 0.807032
0.182899 0.247529 0.808729
0.283674 0.249358 0.810558
0.406656 0.251590 0.812790
0.534698 0.253914 0.815114
0.672438 0.256414 0.817614
0.788627 0.258523 0.819723
0.877175 0.260131 0.821331
0.918497 0.260881 0.822081
0.096721 0.370329 0.814321
0.190188 0.372026 0.816018
0.290963 0.373855 0.817847
0.413945 0.376087 0.820079
0.541988 0.378412 0.822404
0.679728 0.380912 0.824904
0.795917 0.383021 0.827013
0.884464 0.384628 0.828620
0.925786 0.385378 0.829370
0.104011 0.494827 0.821611
0.197477 0.496523 0.823307
0.298252 0.498352 0.825136
0.421235 0.500585 0.827369
0.549277 0.502909 0.829693
0.687017 0.505409 0.832193
0.803206 0.507518 0.834302
0.891753 0.509125 0.835909
0.933075 0.509875 0.836659
0.111861 0.628901 0.829461
0.205327 0.630597 0.831157
0.306102 0.632426 0.832986
0.429085 0.634659 0.835219
0.557127 0.636983 0.837543
0.694867 0.639483 0.840043
0.811056 0.641592 0.842152
0.899603 0.643199 0.843759
0.940925 0.643949 0.844509
0.119711 0.762975 0.837311
0.213177 0.764671 0.839007
0.313952 0.766500 0.840836
0.436935 0.768733 0.843069
0.564977 0.771057 0.845393
0.702717 0.773557 0.847893
0.818906 0.775666 0.850002
0.907453 0.777273 0.851609
0.948775 0.778023 0.852359
0.124603 0.846527 0.842203
0.218069 0.848223 0.843899
0.318844 0.850052 0.845728
0.441827 0.852285 0.847961
0.569869 0.854609 0.850285
0.707609 0.857109 0.852785
0.823798 0.859218 0.854894
0.912345 0.860825 0.856501
0.953667 0.861575 0.857251
0.129369 0.927929 0.846969
0.222835 0.929625 0.848665
0.323611 0.931455 0.850495
0.446593 0.933687 0.852727
0.574635 0.936011 0.855051
0.712375 0.938511 0.857551
0.828564 0.940620 0.859660
0.917111 0.942227 0.861267
0.958433 0.942977 0.862017
