docs/brainstorm/marketing-site/luts/B_70sWarmFade.cube
TITLE "SuperBad B — 70s Warm Fade"
LUT_3D_SIZE 5
DOMAIN_MIN 0.0 0.0 0.0
DOMAIN_MAX 1.0 1.0 1.0
0.183774 0.160158 0.124734
0.327527 0.172583 0.136007
0.496226 0.186914 0.149186
0.651205 0.200197 0.161317
0.721371 0.207003 0.166971
0.220072 0.315688 0.158728
0.364529 0.328529 0.170129
0.533307 0.343227 0.183387
0.687743 0.356831 0.195551
0.755494 0.363814 0.201094
0.263418 0.503610 0.199770
0.408499 0.516499 0.211219
0.577278 0.531198 0.224478
0.731089 0.544753 0.236593
0.796347 0.551547 0.241947
0.304963 0.683251 0.239011
0.450567 0.695727 0.250407
0.619246 0.709966 0.263566
0.772333 0.723013 0.275533
0.834996 0.729156 0.280596
0.332089 0.796633 0.263833
0.478016 0.807776 0.274976
0.646394 0.820634 0.287834
0.798558 0.832254 0.299454
0.858426 0.836826 0.304026
0.185953 0.162337 0.204529
0.329707 0.174763 0.215803
0.498405 0.189093 0.228981
0.653384 0.202376 0.241112
0.723550 0.209182 0.246766
0.222251 0.317867 0.238523
0.366708 0.330708 0.249924
0.535487 0.345407 0.263183
0.689922 0.359010 0.275346
0.757674 0.365994 0.280890
0.265598 0.505790 0.279566
0.410679 0.518679 0.291015
0.579457 0.533377 0.304273
0.733269 0.546933 0.316389
0.798526 0.553726 0.321742
0.307142 0.685430 0.318806
0.452746 0.697906 0.330202
0.621425 0.712145 0.343361
0.774513 0.725193 0.355329
0.837175 0.731335 0.360391
0.334268 0.798812 0.343628
0.480196 0.809956 0.354772
0.648574 0.822814 0.367630
0.800738 0.834434 0.379250
0.860605 0.839005 0.383821
0.188986 0.165370 0.315562
0.332739 0.177795 0.326835
0.501438 0.192126 0.340014
0.656416 0.205408 0.352144
0.726582 0.212214 0.357798
0.225283 0.320899 0.349555
0.369741 0.333741 0.360957
0.538519 0.348439 0.374215
0.692954 0.362042 0.386378
0.760706 0.369026 0.391922
0.268630 0.508822 0.390598
0.413711 0.521711 0.402047
0.582489 0.536409 0.415305
0.736301 0.549965 0.427421
0.801558 0.556758 0.432774
0.310174 0.688462 0.429838
0.455779 0.700939 0.441235
0.624457 0.715177 0.454393
0.777545 0.728225 0.466361
0.840208 0.734368 0.471424
0.337300 0.801844 0.454660
0.483228 0.812988 0.465804
0.651606 0.825846 0.478662
0.803770 0.837466 0.490282
0.863638 0.842038 0.494854
0.192155 0.168539 0.431627
0.335909 0.180965 0.442901
0.504607 0.195295 0.456079
0.659586 0.208578 0.468210
0.729752 0.215384 0.473864
0.228453 0.324069 0.465621
0.372910 0.336910 0.477022
0.541689 0.351609 0.490281
0.696124 0.365212 0.502444
0.763876 0.372196 0.507988
0.271800 0.511992 0.506664
0.416881 0.524881 0.518113
0.585659 0.539579 0.531371
0.739471 0.553135 0.543487
0.804728 0.559928 0.548840
0.313344 0.691632 0.545904
0.458949 0.704109 0.557301
0.627627 0.718347 0.570459
0.780715 0.731395 0.582427
0.843378 0.737538 0.587490
0.340470 0.805014 0.570726
0.486398 0.816158 0.581870
0.654776 0.829016 0.594728
0.806940 0.840636 0.606348
0.866808 0.845208 0.610920
0.195119 0.171503 0.540143
0.338873 0.183929 0.551417
0.507571 0.198259 0.564595
0.662550 0.211542 0.576726
0.732716 0.218348 0.582380
0.231417 0.327033 0.574137
0.375874 0.339874 0.585538
0.544653 0.354573 0.598797
0.699088 0.368176 0.610960
0.766840 0.375160 0.616504
0.274764 0.514956 0.615180
0.419844 0.527844 0.626628
0.588623 0.542543 0.639887
0.742435 0.556099 0.652003
0.807692 0.562892 0.657356
0.316308 0.694596 0.654420
0.461912 0.707072 0.665816
0.630591 0.721311 0.678975
0.783679 0.734359 0.690943
0.846341 0.740501 0.696005
0.343434 0.807978 0.679242
0.489362 0.819122 0.690386
0.657740 0.831980 0.703244
0.809903 0.843599 0.714863
0.869771 0.848171 0.719435
