docs/brainstorm/marketing-site/luts/B_70sWarmFade.cube
TITLE "SuperBad B — 70s Warm Fade"
LUT_3D_SIZE 9
DOMAIN_MIN 0.0 0.0 0.0
DOMAIN_MAX 1.0 1.0 1.0
0.183774 0.160158 0.124734
0.251285 0.166037 0.130037
0.327527 0.172583 0.136007
0.411877 0.179749 0.142597
0.496226 0.186914 0.149186
0.580575 0.194079 0.155775
0.651205 0.200197 0.161317
0.718716 0.206076 0.166620
0.721371 0.207003 0.166971
0.201362 0.235346 0.141170
0.268873 0.241225 0.146473
0.345427 0.247795 0.152467
0.429777 0.254961 0.159057
0.514126 0.262126 0.165646
0.598475 0.269291 0.172235
0.668793 0.275385 0.177753
0.736304 0.281264 0.183056
0.737712 0.282096 0.183312
0.220072 0.315688 0.158728
0.287623 0.321751 0.164071
0.364529 0.328529 0.170129
0.448918 0.335878 0.176758
0.533307 0.343227 0.183387
0.617697 0.350577 0.190017
0.687743 0.356831 0.195551
0.755294 0.362894 0.200894
0.755494 0.363814 0.201094
0.241745 0.409649 0.179249
0.309296 0.415712 0.184592
0.386514 0.422514 0.190674
0.470903 0.429863 0.197303
0.555293 0.437213 0.203933
0.639682 0.444562 0.210562
0.709416 0.450792 0.216072
0.775720 0.456760 0.221320
0.775921 0.457681 0.221521
0.263418 0.503610 0.199770
0.330970 0.509674 0.205114
0.408499 0.516499 0.211219
0.492888 0.523848 0.217848
0.577278 0.531198 0.224478
0.661667 0.538547 0.231107
0.731089 0.544753 0.236593
0.796146 0.550626 0.241746
0.796347 0.551547 0.241947
0.285092 0.597572 0.220292
0.352643 0.603635 0.225635
0.430484 0.610484 0.231764
0.514874 0.617834 0.238394
0.599263 0.625183 0.245023
0.683652 0.632532 0.251652
0.752763 0.638715 0.257115
0.816572 0.644492 0.262172
0.816773 0.645413 0.262373
0.304963 0.683251 0.239011
0.372464 0.689084 0.244304
0.450567 0.695727 0.250407
0.534906 0.702846 0.256986
0.619246 0.709966 0.263566
0.703585 0.717085 0.270145
0.772333 0.723013 0.275533
0.834846 0.728466 0.280446
0.834996 0.729156 0.280596
0.321530 0.753746 0.254426
0.389031 0.759579 0.259719
0.467446 0.766246 0.265846
0.551785 0.773365 0.272425
0.636124 0.780484 0.279004
0.720463 0.787603 0.285583
0.788900 0.793508 0.290948
0.850165 0.798865 0.295765
0.850316 0.799556 0.295916
0.332089 0.796633 0.263833
0.399440 0.801776 0.268976
0.478016 0.807776 0.274976
0.562205 0.814205 0.281405
0.646394 0.820634 0.287834
0.730583 0.827063 0.294263
0.798558 0.832254 0.299454
0.858426 0.836826 0.304026
0.858426 0.836826 0.304026
0.184750 0.161134 0.160486
0.252262 0.167014 0.165790
0.328504 0.173560 0.171760
0.412853 0.180725 0.178349
0.497202 0.187890 0.184938
0.581552 0.195056 0.191528
0.652181 0.201173 0.197069
0.719693 0.207053 0.202373
0.722347 0.207979 0.202723
0.202338 0.236322 0.176922
0.269850 0.242202 0.182226
0.346404 0.248772 0.188220
0.430753 0.255937 0.194809
0.515102 0.263102 0.201398
0.599452 0.270268 0.207988
0.669769 0.276361 0.213505
0.737281 0.282241 0.218809
0.738688 0.283072 0.219064
0.221048 0.316664 0.194480
0.288600 0.322728 0.199824
0.365505 0.329505 0.205881
0.449895 0.336855 0.212511
0.534284 0.344204 0.219140
0.618673 0.351553 0.225769
0.688719 0.357807 0.231303
0.756271 0.363871 0.236647
0.756471 0.364791 0.236847
0.242721 0.410625 0.215001
0.310273 0.416689 0.220345
0.387490 0.423490 0.226426
0.471880 0.430840 0.233056
0.556269 0.438189 0.239685
0.640658 0.445538 0.246314
0.710392 0.451768 0.251824
0.776697 0.457737 0.257073
0.776897 0.458657 0.257273
0.264395 0.504587 0.235523
0.331946 0.510650 0.240866
0.409476 0.517476 0.246972
0.493865 0.524825 0.253601
0.578254 0.532174 0.260230
0.662643 0.539523 0.266859
0.732066 0.545730 0.272346
0.797123 0.551603 0.277499
0.797323 0.552523 0.277699
0.286068 0.598548 0.256044
0.353620 0.604612 0.261388
0.431461 0.611461 0.267517
0.515850 0.618810 0.274146
0.600239 0.626159 0.280775
0.684629 0.633509 0.287405
0.753739 0.639691 0.292867
0.817549 0.645469 0.297925
0.817749 0.646389 0.298125
0.305939 0.684227 0.274763
0.373441 0.690061 0.280057
0.451544 0.696704 0.286160
0.535883 0.703823 0.292739
0.620222 0.710942 0.299318
0.704561 0.718061 0.305897
0.773310 0.723990 0.311286
0.835822 0.729442 0.316198
0.835972 0.730132 0.316348
0.322506 0.754722 0.290178
0.390007 0.760555 0.295471
0.468422 0.767222 0.301598
0.552761 0.774341 0.308177
0.637101 0.781461 0.314757
0.721440 0.788580 0.321336
0.789877 0.794485 0.326701
0.851142 0.799842 0.331518
0.851292 0.800532 0.331668
0.333065 0.797609 0.299585
0.400416 0.802752 0.304728
0.478993 0.808753 0.310729
0.563182 0.815182 0.317158
0.647371 0.821611 0.323587
0.731560 0.828040 0.330016
0.799535 0.833231 0.335207
0.859402 0.837802 0.339778
0.859402 0.837802 0.339778
0.185953 0.162337 0.204529
0.253465 0.168217 0.209833
0.329707 0.174763 0.215803
0.414056 0.181928 0.222392
0.498405 0.189093 0.228981
0.582754 0.196258 0.235570
0.653384 0.202376 0.241112
0.720895 0.208255 0.246415
0.723550 0.209182 0.246766
0.203541 0.237525 0.220965
0.271053 0.243405 0.226269
0.347607 0.249975 0.232263
0.431956 0.257140 0.238852
0.516305 0.264305 0.245441
0.600654 0.271470 0.252030
0.670972 0.277564 0.257548
0.738484 0.283444 0.262852
0.739891 0.284275 0.263107
0.222251 0.317867 0.238523
0.289802 0.323930 0.243866
0.366708 0.330708 0.249924
0.451097 0.338057 0.256553
0.535487 0.345407 0.263183
0.619876 0.352756 0.269812
0.689922 0.359010 0.275346
0.757473 0.365073 0.280689
0.757674 0.365994 0.280890
0.243924 0.411828 0.259044
0.311476 0.417892 0.264388
0.388693 0.424693 0.270469
0.473083 0.432043 0.277099
0.557472 0.439392 0.283728
0.641861 0.446741 0.290357
0.711595 0.452971 0.295867
0.777900 0.458940 0.301116
0.778100 0.459860 0.301316
0.265598 0.505790 0.279566
0.333149 0.511853 0.284909
0.410679 0.518679 0.291015
0.495068 0.526028 0.297644
0.579457 0.533377 0.304273
0.663846 0.540726 0.310902
0.733269 0.546933 0.316389
0.798326 0.552806 0.321542
0.798526 0.553726 0.321742
0.287271 0.599751 0.300087
0.354822 0.605814 0.305430
0.432664 0.612664 0.311560
0.517053 0.620013 0.318189
0.601442 0.627362 0.324818
0.685832 0.634712 0.331448
0.754942 0.640894 0.336910
0.818752 0.646672 0.341968
0.818952 0.647592 0.342168
0.307142 0.685430 0.318806
0.374643 0.691263 0.324099
0.452746 0.697906 0.330202
0.537086 0.705026 0.336782
0.621425 0.712145 0.343361
0.705764 0.719264 0.349940
0.774513 0.725193 0.355329
0.837025 0.730645 0.360241
0.837175 0.731335 0.360391
0.323709 0.755925 0.334221
0.391210 0.761758 0.339514
0.469625 0.768425 0.345641
0.553964 0.775544 0.352220
0.638303 0.782663 0.358799
0.722643 0.789783 0.365379
0.791080 0.795688 0.370744
0.852345 0.801045 0.375561
0.852495 0.801735 0.375711
0.334268 0.798812 0.343628
0.401619 0.803955 0.348771
0.480196 0.809956 0.354772
0.564385 0.816385 0.361201
0.648574 0.822814 0.367630
0.732763 0.829243 0.374059
0.800738 0.834434 0.379250
0.860605 0.839005 0.383821
0.860605 0.839005 0.383821
0.187353 0.163737 0.255789
0.254865 0.169617 0.261093
0.331107 0.176163 0.267063
0.415456 0.183328 0.273652
0.499805 0.190493 0.280241
0.584154 0.197658 0.286830
0.654784 0.203776 0.292372
0.722295 0.209655 0.297675
0.724950 0.210582 0.298026
0.204941 0.238925 0.272225
0.272453 0.244805 0.277529
0.349007 0.251375 0.283523
0.433356 0.258540 0.290112
0.517705 0.265705 0.296701
0.602054 0.272870 0.303290
0.672372 0.278964 0.308808
0.739883 0.284843 0.314111
0.741291 0.285675 0.314367
0.223651 0.319267 0.289783
0.291202 0.325330 0.295126
0.368108 0.332108 0.301184
0.452497 0.339457 0.307813
0.536887 0.346807 0.314443
0.621276 0.354156 0.321072
0.691322 0.360410 0.326606
0.758873 0.366473 0.331949
0.759074 0.367394 0.332150
0.245324 0.413228 0.310304
0.312876 0.419292 0.315648
0.390093 0.426093 0.321729
0.474483 0.433443 0.328359
0.558872 0.440792 0.334988
0.643261 0.448141 0.341617
0.712995 0.454371 0.347127
0.779300 0.460340 0.352376
0.779500 0.461260 0.352576
0.266998 0.507190 0.330826
0.334549 0.513253 0.336169
0.412078 0.520078 0.342274
0.496468 0.527428 0.348904
0.580857 0.534777 0.355533
0.665246 0.542126 0.362162
0.734669 0.548333 0.367649
0.799726 0.554206 0.372802
0.799926 0.555126 0.373002
0.288671 0.601151 0.351347
0.356222 0.607214 0.356690
0.434064 0.614064 0.362820
0.518453 0.621413 0.369449
0.602842 0.628762 0.376078
0.687231 0.636111 0.382707
0.756342 0.642294 0.388170
0.820152 0.648072 0.393228
0.820352 0.648992 0.393428
0.308542 0.686830 0.370066
0.376043 0.692663 0.375359
0.454146 0.699306 0.381462
0.538486 0.706426 0.388042
0.622825 0.713545 0.394621
0.707164 0.720664 0.401200
0.775913 0.726593 0.406589
0.838425 0.732045 0.411501
0.838575 0.732735 0.411651
0.325109 0.757325 0.385481
0.392610 0.763158 0.390774
0.471025 0.769825 0.396901
0.555364 0.776944 0.403480
0.639703 0.784063 0.410059
0.724043 0.791183 0.416639
0.792479 0.797087 0.422003
0.853745 0.802445 0.426821
0.853895 0.803135 0.426971
0.335668 0.800212 0.394888
0.403019 0.805355 0.400031
0.481596 0.811356 0.406032
0.565785 0.817785 0.412461
0.649974 0.824214 0.418890
0.734163 0.830643 0.425319
0.802137 0.835833 0.430509
0.862005 0.840405 0.435081
0.862005 0.840405 0.435081
0.188986 0.165370 0.315562
0.256497 0.171249 0.320865
0.332739 0.177795 0.326835
0.417088 0.184960 0.333424
0.501438 0.192126 0.340014
0.585787 0.199291 0.346603
0.656416 0.205408 0.352144
0.723928 0.211288 0.357448
0.726582 0.212214 0.357798
0.206574 0.240558 0.331998
0.274085 0.246437 0.337301
0.350639 0.253007 0.343295
0.434988 0.260172 0.349884
0.519338 0.267338 0.356474
0.603687 0.274503 0.363063
0.674004 0.280596 0.368580
0.741516 0.286476 0.373884
0.742923 0.287307 0.374139
0.225283 0.320899 0.349555
0.292835 0.326963 0.354899
0.369741 0.333741 0.360957
0.454130 0.341090 0.367586
0.538519 0.348439 0.374215
0.622908 0.355788 0.380844
0.692954 0.362042 0.386378
0.760506 0.368106 0.391722
0.760706 0.369026 0.391922
0.246957 0.414861 0.370077
0.314508 0.420924 0.375420
0.391726 0.427726 0.381502
0.476115 0.435075 0.388131
0.560504 0.442424 0.394760
0.644894 0.449774 0.401390
0.714628 0.456004 0.406900
0.780932 0.461972 0.412148
0.781132 0.462892 0.412348
0.268630 0.508822 0.390598
0.336181 0.514885 0.395941
0.413711 0.521711 0.402047
0.498100 0.529060 0.408676
0.582489 0.536409 0.415305
0.666879 0.543759 0.421935
0.736301 0.549965 0.427421
0.801358 0.555838 0.432574
0.801558 0.556758 0.432774
0.290303 0.602783 0.411119
0.357855 0.608847 0.416463
0.435696 0.615696 0.422592
0.520085 0.623045 0.429221
0.604475 0.630395 0.435851
0.688864 0.637744 0.442480
0.757974 0.643926 0.447942
0.821784 0.649704 0.453000
0.821984 0.650624 0.453200
0.310174 0.688462 0.429838
0.377676 0.694296 0.435132
0.455779 0.700939 0.441235
0.540118 0.708058 0.447814
0.624457 0.715177 0.454393
0.708796 0.722296 0.460972
0.777545 0.728225 0.466361
0.840058 0.733678 0.471274
0.840208 0.734368 0.471424
0.326741 0.758957 0.445253
0.394243 0.764791 0.450547
0.472657 0.771457 0.456673
0.556997 0.778577 0.463253
0.641336 0.785696 0.469832
0.725675 0.792815 0.476411
0.794112 0.798720 0.481776
0.855377 0.804077 0.486593
0.855527 0.804767 0.486743
0.337300 0.801844 0.454660
0.404652 0.806988 0.459804
0.483228 0.812988 0.465804
0.567417 0.819417 0.472233
0.651606 0.825846 0.478662
0.735795 0.832275 0.485091
0.803770 0.837466 0.490282
0.863638 0.842038 0.494854
0.863638 0.842038 0.494854
0.190609 0.166993 0.375001
0.258120 0.172872 0.380304
0.334362 0.179418 0.386274
0.418712 0.186584 0.392864
0.503061 0.193749 0.399453
0.587410 0.200914 0.406042
0.658040 0.207032 0.411584
0.725551 0.212911 0.416887
0.728206 0.213838 0.417238
0.208197 0.242181 0.391437
0.275708 0.248060 0.396740
0.352262 0.254630 0.402734
0.436612 0.261796 0.409324
0.520961 0.268961 0.415913
0.605310 0.276126 0.422502
0.675628 0.282220 0.428020
0.743139 0.288099 0.433323
0.744547 0.288931 0.433579
0.226907 0.322523 0.408995
0.294458 0.328586 0.414338
0.371364 0.335364 0.420396
0.455753 0.342713 0.427025
0.540142 0.350062 0.433654
0.624532 0.357412 0.440284
0.694578 0.363666 0.445818
0.762129 0.369729 0.451161
0.762329 0.370649 0.451361
0.248580 0.416484 0.429516
0.316131 0.422547 0.434859
0.393349 0.429349 0.440941
0.477738 0.436698 0.447570
0.562128 0.444048 0.454200
0.646517 0.451397 0.460829
0.716251 0.457627 0.466339
0.782555 0.463595 0.471587
0.782756 0.464516 0.471788
0.270253 0.510445 0.450037
0.337805 0.516509 0.455381
0.415334 0.523334 0.461486
0.499724 0.530684 0.468116
0.584113 0.538033 0.474745
0.668502 0.545382 0.481374
0.737924 0.551588 0.486860
0.802981 0.557461 0.492013
0.803182 0.558382 0.492214
0.291927 0.604407 0.470559
0.359478 0.610470 0.475902
0.437319 0.617319 0.482031
0.521709 0.624669 0.488661
0.606098 0.632018 0.495290
0.690487 0.639367 0.501919
0.759598 0.645550 0.507382
0.823408 0.651328 0.512440
0.823608 0.652248 0.512640
0.311798 0.690086 0.489278
0.379299 0.695919 0.494571
0.457402 0.702562 0.500674
0.541741 0.709681 0.507253
0.626081 0.716801 0.513833
0.710420 0.723920 0.520412
0.779168 0.729848 0.525800
0.841681 0.735301 0.530713
0.841831 0.735991 0.530863
0.328365 0.760581 0.504693
0.395866 0.766414 0.509986
0.474281 0.773081 0.516113
0.558620 0.780200 0.522692
0.642959 0.787319 0.529271
0.727298 0.794438 0.535850
0.795735 0.800343 0.541215
0.857000 0.805700 0.546032
0.857151 0.806391 0.546183
0.338924 0.803468 0.514100
0.406275 0.808611 0.519243
0.484851 0.814611 0.525243
0.569040 0.821040 0.531672
0.653229 0.827469 0.538101
0.737418 0.833898 0.544530
0.805393 0.839089 0.549721
0.865261 0.843661 0.554293
0.865261 0.843661 0.554293
0.192155 0.168539 0.431627
0.259667 0.174419 0.436931
0.335909 0.180965 0.442901
0.420258 0.188130 0.449490
0.504607 0.195295 0.456079
0.588957 0.202461 0.462669
0.659586 0.208578 0.468210
0.727098 0.214458 0.473514
0.729752 0.215384 0.473864
0.209744 0.243728 0.448064
0.277255 0.249607 0.453367
0.353809 0.256177 0.459361
0.438158 0.263342 0.465950
0.522507 0.270507 0.472539
0.606857 0.277673 0.479129
0.677174 0.283766 0.484646
0.744686 0.289646 0.489950
0.746093 0.290477 0.490205
0.228453 0.324069 0.465621
0.296005 0.330133 0.470965
0.372910 0.336910 0.477022
0.457300 0.344260 0.483652
0.541689 0.351609 0.490281
0.626078 0.358958 0.496910
0.696124 0.365212 0.502444
0.763676 0.371276 0.507788
0.763876 0.372196 0.507988
0.250127 0.418031 0.486143
0.317678 0.424094 0.491486
0.394896 0.430896 0.497568
0.479285 0.438245 0.504197
0.563674 0.445594 0.510826
0.648063 0.452943 0.517455
0.717798 0.459174 0.522966
0.784102 0.465142 0.528214
0.784302 0.466062 0.528414
0.271800 0.511992 0.506664
0.339351 0.518055 0.512007
0.416881 0.524881 0.518113
0.501270 0.532230 0.524742
0.585659 0.539579 0.531371
0.670049 0.546929 0.538001
0.739471 0.553135 0.543487
0.804528 0.559008 0.548640
0.804728 0.559928 0.548840
0.293473 0.605953 0.527185
0.361025 0.612017 0.532529
0.438866 0.618866 0.538658
0.523255 0.626215 0.545287
0.607644 0.633564 0.551916
0.692034 0.640914 0.558546
0.761144 0.647096 0.564008
0.824954 0.652874 0.569066
0.825154 0.653794 0.569266
0.313344 0.691632 0.545904
0.380846 0.697466 0.551198
0.458949 0.704109 0.557301
0.543288 0.711228 0.563880
0.627627 0.718347 0.570459
0.711966 0.725466 0.577038
0.780715 0.731395 0.582427
0.843227 0.736847 0.587339
0.843378 0.737538 0.587490
0.329911 0.762127 0.561319
0.397413 0.767961 0.566613
0.475827 0.774627 0.572739
0.560167 0.781747 0.579319
0.644506 0.788866 0.585898
0.728845 0.795985 0.592477
0.797282 0.801890 0.597842
0.858547 0.807247 0.602659
0.858697 0.807937 0.602809
0.340470 0.805014 0.570726
0.407821 0.810157 0.575869
0.486398 0.816158 0.581870
0.570587 0.822587 0.588299
0.654776 0.829016 0.594728
0.738965 0.835445 0.601157
0.806940 0.840636 0.606348
0.866808 0.845208 0.610920
0.866808 0.845208 0.610920
0.193702 0.170086 0.488254
0.261213 0.175965 0.493557
0.337456 0.182512 0.499528
0.421805 0.189677 0.506117
0.506154 0.196842 0.512706
0.590503 0.204007 0.519295
0.661133 0.210125 0.524837
0.728644 0.216004 0.530140
0.731299 0.216931 0.530491
0.211290 0.245274 0.504690
0.278802 0.251154 0.509994
0.355355 0.257723 0.515987
0.439705 0.264889 0.522577
0.524054 0.272054 0.529166
0.608403 0.279219 0.535755
0.678721 0.285313 0.541273
0.746232 0.291192 0.546576
0.747640 0.292024 0.546832
0.230000 0.325616 0.522248
0.297551 0.331679 0.527591
0.374457 0.338457 0.533649
0.458846 0.345806 0.540278
0.543236 0.353156 0.546908
0.627625 0.360505 0.553537
0.697671 0.366759 0.559071
0.765222 0.372822 0.564414
0.765422 0.373742 0.564614
0.251673 0.419577 0.542769
0.319225 0.425641 0.548113
0.396442 0.432442 0.554194
0.480831 0.439791 0.560823
0.565221 0.447141 0.567453
0.649610 0.454490 0.574082
0.719344 0.460720 0.579592
0.785648 0.466688 0.584840
0.785849 0.467609 0.585041
0.273346 0.513538 0.563290
0.340898 0.519602 0.568634
0.418427 0.526427 0.574739
0.502817 0.533777 0.581369
0.587206 0.541126 0.587998
0.671595 0.548475 0.594627
0.741017 0.554681 0.600113
0.806074 0.560554 0.605266
0.806275 0.561475 0.605467
0.295020 0.607500 0.583812
0.362571 0.613563 0.589155
0.440412 0.620412 0.595284
0.524802 0.627762 0.601914
0.609191 0.635111 0.608543
0.693580 0.642460 0.615172
0.762691 0.648643 0.620635
0.826501 0.654421 0.625693
0.826701 0.655341 0.625893
0.314891 0.693179 0.602531
0.382392 0.699012 0.607824
0.460495 0.705655 0.613927
0.544834 0.712774 0.620506
0.629174 0.719894 0.627086
0.713513 0.727013 0.633665
0.782262 0.732942 0.639054
0.844774 0.738394 0.643966
0.844924 0.739084 0.644116
0.331458 0.763674 0.617946
0.398959 0.769507 0.623239
0.477374 0.776174 0.629366
0.561713 0.783293 0.635945
0.646052 0.790412 0.642524
0.730391 0.797531 0.649103
0.798828 0.803436 0.654468
0.860094 0.808794 0.659286
0.860244 0.809484 0.659436
0.342017 0.806561 0.627353
0.409368 0.811704 0.632496
0.487944 0.817704 0.638496
0.572133 0.824133 0.644925
0.656322 0.830562 0.651354
0.740511 0.836991 0.657783
0.808486 0.842182 0.662974
0.868354 0.846754 0.667546
0.868354 0.846754 0.667546
0.195119 0.171503 0.540143
0.262631 0.177383 0.545447
0.338873 0.183929 0.551417
0.423222 0.191094 0.558006
0.507571 0.198259 0.564595
0.591920 0.205424 0.571184
0.662550 0.211542 0.576726
0.730061 0.217421 0.582029
0.732716 0.218348 0.582380
0.212707 0.246691 0.556579
0.280219 0.252571 0.561883
0.356773 0.259141 0.567877
0.441122 0.266306 0.574466
0.525471 0.273471 0.581055
0.609820 0.280636 0.587644
0.680138 0.286730 0.593162
0.747649 0.292609 0.598465
0.749057 0.293441 0.598721
0.231417 0.327033 0.574137
0.298968 0.333096 0.579480
0.375874 0.339874 0.585538
0.460263 0.347223 0.592167
0.544653 0.354573 0.598797
0.629042 0.361922 0.605426
0.699088 0.368176 0.610960
0.766639 0.374239 0.616303
0.766840 0.375160 0.616504
0.253090 0.420994 0.594658
0.320642 0.427058 0.600002
0.397859 0.433859 0.606083
0.482249 0.441209 0.612713
0.566638 0.448558 0.619342
0.651027 0.455907 0.625971
0.720761 0.462137 0.631481
0.787065 0.468105 0.636729
0.787266 0.469026 0.636930
0.274764 0.514956 0.615180
0.342315 0.521019 0.620523
0.419844 0.527844 0.626628
0.504234 0.535194 0.633258
0.588623 0.542543 0.639887
0.673012 0.549892 0.646516
0.742435 0.556099 0.652003
0.807492 0.561972 0.657156
0.807692 0.562892 0.657356
0.296437 0.608917 0.635701
0.363988 0.614980 0.641044
0.441830 0.621830 0.647174
0.526219 0.629179 0.653803
0.610608 0.636528 0.660432
0.694997 0.643877 0.667061
0.764108 0.650060 0.672524
0.827918 0.655838 0.677582
0.828118 0.656758 0.677782
0.316308 0.694596 0.654420
0.383809 0.700429 0.659713
0.461912 0.707072 0.665816
0.546252 0.714192 0.672396
0.630591 0.721311 0.678975
0.714930 0.728430 0.685554
0.783679 0.734359 0.690943
0.846191 0.739811 0.695855
0.846341 0.740501 0.696005
0.332875 0.765091 0.669835
0.400376 0.770924 0.675128
0.478791 0.777591 0.681255
0.563130 0.784710 0.687834
0.647469 0.791829 0.694413
0.731809 0.798949 0.700993
0.800245 0.804853 0.706357
0.861511 0.810211 0.711175
0.861661 0.810901 0.711325
0.343434 0.807978 0.679242
0.410785 0.813121 0.684385
0.489362 0.819122 0.690386
0.573551 0.825551 0.696815
0.657740 0.831980 0.703244
0.741929 0.838409 0.709673
0.809903 0.843599 0.714863
0.869771 0.848171 0.719435
0.869771 0.848171 0.719435
