docs/brainstorm/marketing-site/luts/B_70sWarmFade.cube
TITLE "SuperBad B — 70s Warm Fade"
LUT_3D_SIZE 33
DOMAIN_MIN 0.0 0.0 0.0
DOMAIN_MAX 1.0 1.0 1.0
0.183774 0.160158 0.124734
0.200652 0.161628 0.126060
0.217530 0.163098 0.127386
0.234407 0.164567 0.128711
0.251285 0.166037 0.130037
0.268163 0.167507 0.131363
0.285353 0.169001 0.132713
0.306440 0.170792 0.134360
0.327527 0.172583 0.136007
0.348615 0.174375 0.137655
0.369702 0.176166 0.139302
0.390789 0.177957 0.140949
0.411877 0.179749 0.142597
0.432964 0.181540 0.144244
0.454051 0.183331 0.145891
0.475139 0.185123 0.147539
0.496226 0.186914 0.149186
0.517313 0.188705 0.150833
0.538401 0.190497 0.152481
0.559488 0.192288 0.154128
0.580575 0.194079 0.155775
0.600571 0.195787 0.157339
0.617449 0.197257 0.158665
0.634327 0.198727 0.159991
0.651205 0.200197 0.161317
0.668083 0.201667 0.162643
0.684960 0.203136 0.163968
0.701838 0.204606 0.165294
0.718716 0.206076 0.166620
0.721251 0.206451 0.166851
0.721291 0.206635 0.166891
0.721331 0.206819 0.166931
0.721371 0.207003 0.166971
0.188171 0.178955 0.128843
0.205049 0.180425 0.130169
0.221927 0.181895 0.131495
0.238804 0.183364 0.132820
0.255682 0.184834 0.134146
0.272560 0.186304 0.135472
0.289828 0.187804 0.136828
0.310915 0.189595 0.138475
0.332002 0.191386 0.140122
0.353090 0.193178 0.141770
0.374177 0.194969 0.143417
0.395264 0.196760 0.145064
0.416352 0.198552 0.146712
0.437439 0.200343 0.148359
0.458526 0.202134 0.150006
0.479614 0.203926 0.151654
0.500701 0.205717 0.153301
0.521788 0.207508 0.154948
0.542876 0.209300 0.156596
0.563963 0.211091 0.158243
0.585050 0.212882 0.159890
0.604968 0.214584 0.161448
0.621846 0.216054 0.162774
0.638724 0.217524 0.164100
0.655602 0.218994 0.165426
0.672480 0.220464 0.166752
0.689357 0.221933 0.168077
0.706235 0.223403 0.169403
0.723113 0.224873 0.170729
0.725336 0.225224 0.170936
0.725376 0.225408 0.170976
0.725416 0.225592 0.171016
0.725456 0.225776 0.171056
0.192568 0.197752 0.132952
0.209446 0.199222 0.134278
0.226324 0.200692 0.135604
0.243202 0.202162 0.136930
0.260079 0.203631 0.138255
0.276957 0.205101 0.139581
0.294303 0.206607 0.140943
0.315390 0.208398 0.142590
0.336477 0.210189 0.144237
0.357565 0.211981 0.145885
0.378652 0.213772 0.147532
0.399739 0.215563 0.149179
0.420827 0.217355 0.150827
0.441914 0.219146 0.152474
0.463001 0.220937 0.154121
0.484089 0.222729 0.155769
0.505176 0.224520 0.157416
0.526263 0.226311 0.159063
0.547350 0.228102 0.160710
0.568438 0.229894 0.162358
0.589525 0.231685 0.164005
0.609365 0.233381 0.165557
0.626243 0.234851 0.166883
0.643121 0.236321 0.168209
0.659999 0.237791 0.169535
0.676877 0.239261 0.170861
0.693754 0.240730 0.172186
0.710632 0.242200 0.173512
0.727510 0.243670 0.174838
0.729421 0.243997 0.175021
0.729461 0.244181 0.175061
0.729501 0.244365 0.175101
0.729541 0.244549 0.175141
0.196965 0.216549 0.137061
0.213843 0.218019 0.138387
0.230721 0.219489 0.139713
0.247599 0.220959 0.141039
0.264476 0.222428 0.142364
0.281354 0.223898 0.143690
0.298778 0.225410 0.145058
0.319865 0.227201 0.146705
0.340952 0.228992 0.148352
0.362040 0.230784 0.150000
0.383127 0.232575 0.151647
0.404214 0.234366 0.153294
0.425302 0.236158 0.154942
0.446389 0.237949 0.156589
0.467476 0.239740 0.158236
0.488564 0.241532 0.159884
0.509651 0.243323 0.161531
0.530738 0.245114 0.163178
0.551825 0.246905 0.164825
0.572913 0.248697 0.166473
0.594000 0.250488 0.168120
0.613762 0.252178 0.169666
0.630640 0.253648 0.170992
0.647518 0.255118 0.172318
0.664396 0.256588 0.173644
0.681274 0.258058 0.174970
0.698151 0.259527 0.176295
0.715029 0.260997 0.177621
0.731907 0.262467 0.178947
0.733506 0.262770 0.179106
0.733546 0.262954 0.179146
0.733586 0.263138 0.179186
0.733626 0.263322 0.179226
0.201362 0.235346 0.141170
0.218240 0.236816 0.142496
0.235118 0.238286 0.143822
0.251996 0.239756 0.145148
0.268873 0.241225 0.146473
0.285751 0.242695 0.147799
0.303253 0.244213 0.149173
0.324340 0.246004 0.150820
0.345427 0.247795 0.152467
0.366515 0.249587 0.154115
0.387602 0.251378 0.155762
0.408689 0.253169 0.157409
0.429777 0.254961 0.159057
0.450864 0.256752 0.160704
0.471951 0.258543 0.162351
0.493039 0.260335 0.163999
0.514126 0.262126 0.165646
0.535213 0.263917 0.167293
0.556300 0.265708 0.168940
0.577388 0.267500 0.170588
0.598475 0.269291 0.172235
0.618159 0.270975 0.173775
0.635037 0.272445 0.175101
0.651915 0.273915 0.176427
0.668793 0.275385 0.177753
0.685671 0.276855 0.179079
0.702549 0.278325 0.180405
0.719426 0.279794 0.181730
0.736304 0.281264 0.183056
0.737592 0.281544 0.183192
0.737632 0.281728 0.183232
0.737672 0.281912 0.183272
0.737712 0.282096 0.183312
0.205759 0.254143 0.145279
0.222637 0.255613 0.146605
0.239515 0.257083 0.147931
0.256393 0.258553 0.149257
0.273270 0.260022 0.150582
0.290148 0.261492 0.151908
0.307728 0.263016 0.153288
0.328815 0.264807 0.154935
0.349902 0.266598 0.156582
0.370990 0.268390 0.158230
0.392077 0.270181 0.159877
0.413164 0.271972 0.161524
0.434252 0.273764 0.163172
0.455339 0.275555 0.164819
0.476426 0.277346 0.166466
0.497514 0.279138 0.168114
0.518601 0.280929 0.169761
0.539688 0.282720 0.171408
0.560775 0.284511 0.173055
0.581863 0.286303 0.174703
0.602950 0.288094 0.176350
0.622556 0.289772 0.177884
0.639434 0.291242 0.179210
0.656312 0.292712 0.180536
0.673190 0.294182 0.181862
0.690068 0.295652 0.183188
0.706946 0.297122 0.184514
0.723823 0.298591 0.185839
0.740701 0.300061 0.187165
0.741677 0.300317 0.187277
0.741717 0.300501 0.187317
0.741757 0.300685 0.187357
0.741797 0.300869 0.187397
0.210156 0.272940 0.149388
0.227034 0.274410 0.150714
0.243912 0.275880 0.152040
0.260790 0.277350 0.153366
0.277668 0.278820 0.154692
0.294545 0.280289 0.156017
0.312203 0.281819 0.157403
0.333290 0.283610 0.159050
0.354377 0.285401 0.160697
0.375465 0.287193 0.162345
0.396552 0.288984 0.163992
0.417639 0.290775 0.165639
0.438727 0.292567 0.167287
0.459814 0.294358 0.168934
0.480901 0.296149 0.170581
0.501989 0.297941 0.172229
0.523076 0.299732 0.173876
0.544163 0.301523 0.175523
0.565250 0.303314 0.177170
0.586338 0.305106 0.178818
0.607425 0.306897 0.180465
0.626953 0.308569 0.181993
0.643831 0.310039 0.183319
0.660709 0.311509 0.184645
0.677587 0.312979 0.185971
0.694465 0.314449 0.187297
0.711343 0.315919 0.188623
0.728220 0.317388 0.189948
0.745098 0.318858 0.191274
0.745762 0.319090 0.191362
0.745802 0.319274 0.191402
0.745842 0.319458 0.191442
0.745882 0.319642 0.191482
0.214653 0.292197 0.153597
0.231541 0.293713 0.154933
0.248429 0.295229 0.156269
0.265317 0.296745 0.157605
0.282205 0.298261 0.158941
0.299093 0.299777 0.160277
0.316838 0.301358 0.161678
0.337935 0.303195 0.163335
0.359033 0.305033 0.164993
0.380130 0.306870 0.166650
0.401227 0.308707 0.168307
0.422325 0.310545 0.169965
0.443422 0.312382 0.171622
0.464519 0.314219 0.173279
0.485617 0.316057 0.174937
0.506714 0.317894 0.176594
0.527811 0.319731 0.178251
0.548908 0.321568 0.179908
0.570006 0.323406 0.181566
0.591103 0.325243 0.183223
0.612200 0.327080 0.184880
0.631661 0.328793 0.186413
0.648549 0.330309 0.187749
0.665436 0.331824 0.189084
0.682324 0.333340 0.190420
0.699212 0.334856 0.191756
0.716100 0.336372 0.193092
0.732988 0.337888 0.194428
0.749876 0.339404 0.195764
0.750238 0.339658 0.195838
0.750288 0.339888 0.195888
0.750338 0.340118 0.195938
0.750388 0.340348 0.195988
0.220072 0.315688 0.158728
0.236959 0.317203 0.160063
0.253847 0.318719 0.161399
0.270735 0.320235 0.162735
0.287623 0.321751 0.164071
0.304511 0.323267 0.165407
0.322334 0.324854 0.166814
0.343432 0.326692 0.168472
0.364529 0.328529 0.170129
0.385626 0.330366 0.171786
0.406724 0.332204 0.173444
0.427821 0.334041 0.175101
0.448918 0.335878 0.176758
0.470015 0.337715 0.178415
0.491113 0.339553 0.180073
0.512210 0.341390 0.181730
0.533307 0.343227 0.183387
0.554405 0.345065 0.185045
0.575502 0.346902 0.186702
0.596599 0.348739 0.188359
0.617697 0.350577 0.190017
0.637079 0.352283 0.191543
0.653967 0.353799 0.192879
0.670855 0.355315 0.194215
0.687743 0.356831 0.195551
0.704631 0.358347 0.196887
0.721518 0.359862 0.198222
0.738406 0.361378 0.199558
0.755294 0.362894 0.200894
0.755344 0.363124 0.200944
0.755394 0.363354 0.200994
0.755444 0.363584 0.201044
0.755494 0.363814 0.201094
0.225490 0.339178 0.163858
0.242378 0.340694 0.165194
0.259266 0.342210 0.166530
0.276154 0.343726 0.167866
0.293041 0.345241 0.169201
0.309929 0.346757 0.170537
0.327831 0.348351 0.171951
0.348928 0.350188 0.173608
0.370025 0.352025 0.175265
0.391122 0.353862 0.176922
0.412220 0.355700 0.178580
0.433317 0.357537 0.180237
0.454414 0.359374 0.181894
0.475512 0.361212 0.183552
0.496609 0.363049 0.185209
0.517706 0.364886 0.186866
0.538804 0.366724 0.188524
0.559901 0.368561 0.190181
0.580998 0.370398 0.191838
0.602096 0.372236 0.193496
0.623193 0.374073 0.195153
0.642497 0.375773 0.196673
0.659385 0.377289 0.198009
0.676273 0.378805 0.199345
0.693161 0.380321 0.200681
0.710049 0.381837 0.202017
0.726937 0.383353 0.203353
0.743825 0.384869 0.204689
0.760401 0.386361 0.206001
0.760451 0.386591 0.206051
0.760501 0.386821 0.206101
0.760551 0.387051 0.206151
0.760601 0.387281 0.206201
0.230908 0.362668 0.168988
0.247796 0.364184 0.170324
0.264684 0.365700 0.171660
0.281572 0.367216 0.172996
0.298460 0.368732 0.174332
0.315348 0.370248 0.175668
0.333327 0.371847 0.177087
0.354424 0.373684 0.178744
0.375521 0.375521 0.180401
0.396619 0.377359 0.182059
0.417716 0.379196 0.183716
0.438813 0.381033 0.185373
0.459911 0.382871 0.187031
0.481008 0.384708 0.188688
0.502105 0.386545 0.190345
0.523203 0.388383 0.192003
0.544300 0.390220 0.193660
0.565397 0.392057 0.195317
0.586495 0.393895 0.196975
0.607592 0.395732 0.198632
0.628689 0.397569 0.200289
0.647916 0.399264 0.201804
0.664804 0.400780 0.203140
0.681691 0.402295 0.204475
0.698579 0.403811 0.205811
0.715467 0.405327 0.207147
0.732355 0.406843 0.208483
0.749243 0.408359 0.209819
0.765507 0.409827 0.211107
0.765557 0.410057 0.211157
0.765607 0.410287 0.211207
0.765657 0.410517 0.211257
0.765707 0.410747 0.211307
0.236327 0.386159 0.174119
0.253214 0.387674 0.175454
0.270102 0.389190 0.176790
0.286990 0.390706 0.178126
0.303878 0.392222 0.179462
0.320766 0.393738 0.180798
0.338823 0.395343 0.182223
0.359920 0.397180 0.183880
0.381018 0.399018 0.185538
0.402115 0.400855 0.187195
0.423212 0.402692 0.188852
0.444310 0.404530 0.190510
0.465407 0.406367 0.192167
0.486504 0.408204 0.193824
0.507602 0.410042 0.195482
0.528699 0.411879 0.197139
0.549796 0.413716 0.198796
0.570894 0.415554 0.200454
0.591991 0.417391 0.202111
0.613088 0.419228 0.203768
0.634186 0.421066 0.205426
0.653334 0.422754 0.206934
0.670222 0.424270 0.208270
0.687110 0.425786 0.209606
0.703998 0.427302 0.210942
0.720886 0.428818 0.212278
0.737773 0.430333 0.213613
0.754661 0.431849 0.214949
0.770614 0.433294 0.216214
0.770664 0.433524 0.216264
0.770714 0.433754 0.216314
0.770764 0.433984 0.216364
0.770814 0.434214 0.216414
0.241745 0.409649 0.179249
0.258633 0.411165 0.180585
0.275521 0.412681 0.181921
0.292409 0.414197 0.183257
0.309296 0.415712 0.184592
0.326184 0.417228 0.185928
0.344319 0.418839 0.187359
0.365417 0.420677 0.189017
0.386514 0.422514 0.190674
0.407611 0.424351 0.192331
0.428709 0.426189 0.193989
0.449806 0.428026 0.195646
0.470903 0.429863 0.197303
0.492001 0.431701 0.198961
0.513098 0.433538 0.200618
0.534195 0.435375 0.202275
0.555293 0.437213 0.203933
0.576390 0.439050 0.205590
0.597487 0.440887 0.207247
0.618585 0.442725 0.208905
0.639682 0.444562 0.210562
0.658752 0.446244 0.212064
0.675640 0.447760 0.213400
0.692528 0.449276 0.214736
0.709416 0.450792 0.216072
0.726304 0.452308 0.217408
0.743192 0.453824 0.218744
0.760080 0.455340 0.220080
0.775720 0.456760 0.221320
0.775770 0.456990 0.221370
0.775820 0.457220 0.221420
0.775870 0.457450 0.221470
0.775921 0.457681 0.221521
0.247163 0.433139 0.184379
0.264051 0.434655 0.185715
0.280939 0.436171 0.187051
0.297827 0.437687 0.188387
0.314715 0.439203 0.189723
0.331603 0.440719 0.191059
0.349816 0.442336 0.192496
0.370913 0.444173 0.194153
0.392010 0.446010 0.195810
0.413108 0.447848 0.197468
0.434205 0.449685 0.199125
0.455302 0.451522 0.200782
0.476400 0.453360 0.202440
0.497497 0.455197 0.204097
0.518594 0.457034 0.205754
0.539692 0.458872 0.207412
0.560789 0.460709 0.209069
0.581886 0.462546 0.210726
0.602984 0.464384 0.212384
0.624081 0.466221 0.214041
0.645178 0.468058 0.215698
0.664171 0.469735 0.217195
0.681059 0.471251 0.218531
0.697947 0.472767 0.219867
0.714834 0.474282 0.221202
0.731722 0.475798 0.222538
0.748610 0.477314 0.223874
0.765498 0.478830 0.225210
0.780827 0.480227 0.226427
0.780877 0.480457 0.226477
0.780927 0.480687 0.226527
0.780977 0.480917 0.226577
0.781027 0.481147 0.226627
0.252582 0.456630 0.189510
0.269469 0.458145 0.190845
0.286357 0.459661 0.192181
0.303245 0.461177 0.193517
0.320133 0.462693 0.194853
0.337021 0.464209 0.196189
0.355312 0.465832 0.197632
0.376409 0.467669 0.199289
0.397507 0.469507 0.200947
0.418604 0.471344 0.202604
0.439701 0.473181 0.204261
0.460799 0.475019 0.205919
0.481896 0.476856 0.207576
0.502993 0.478693 0.209233
0.524091 0.480531 0.210891
0.545188 0.482368 0.212548
0.566285 0.484205 0.214205
0.587383 0.486043 0.215863
0.608480 0.487880 0.217520
0.629577 0.489717 0.219177
0.650674 0.491554 0.220834
0.669589 0.493225 0.222325
0.686477 0.494741 0.223661
0.703365 0.496257 0.224997
0.720253 0.497773 0.226333
0.737141 0.499289 0.227669
0.754028 0.500804 0.229004
0.770916 0.502320 0.230340
0.785933 0.503693 0.231533
0.785983 0.503923 0.231583
0.786033 0.504153 0.231633
0.786084 0.504384 0.231684
0.786134 0.504614 0.231734
0.258000 0.480120 0.194640
0.274888 0.481636 0.195976
0.291776 0.483152 0.197312
0.308664 0.484668 0.198648
0.325551 0.486183 0.199983
0.342439 0.487699 0.201319
0.360808 0.489328 0.202768
0.381906 0.491166 0.204426
0.403003 0.493003 0.206083
0.424100 0.494840 0.207740
0.445198 0.496678 0.209398
0.466295 0.498515 0.211055
0.487392 0.500352 0.212712
0.508490 0.502190 0.214370
0.529587 0.504027 0.216027
0.550684 0.505864 0.217684
0.571781 0.507701 0.219341
0.592879 0.509539 0.220999
0.613976 0.511376 0.222656
0.635073 0.513213 0.224313
0.656171 0.515051 0.225971
0.675007 0.516715 0.227455
0.691895 0.518231 0.228791
0.708783 0.519747 0.230127
0.725671 0.521263 0.231463
0.742559 0.522779 0.232799
0.759447 0.524295 0.234135
0.776335 0.525811 0.235471
0.791040 0.527160 0.236640
0.791090 0.527390 0.236690
0.791140 0.527620 0.236740
0.791190 0.527850 0.236790
0.791240 0.528080 0.236840
0.263418 0.503610 0.199770
0.280306 0.505126 0.201106
0.297194 0.506642 0.202442
0.314082 0.508158 0.203778
0.330970 0.509674 0.205114
0.347858 0.511190 0.206450
0.366305 0.512825 0.207905
0.387402 0.514662 0.209562
0.408499 0.516499 0.211219
0.429597 0.518337 0.212877
0.450694 0.520174 0.214534
0.471791 0.522011 0.216191
0.492888 0.523848 0.217848
0.513986 0.525686 0.219506
0.535083 0.527523 0.221163
0.556180 0.529360 0.222820
0.577278 0.531198 0.224478
0.598375 0.533035 0.226135
0.619472 0.534872 0.227792
0.640570 0.536710 0.229450
0.661667 0.538547 0.231107
0.680426 0.540206 0.232586
0.697314 0.541722 0.233922
0.714202 0.543238 0.235258
0.731089 0.544753 0.236593
0.747977 0.546269 0.237929
0.764865 0.547785 0.239265
0.781753 0.549301 0.240601
0.796146 0.550626 0.241746
0.796196 0.550856 0.241796
0.796247 0.551087 0.241847
0.796297 0.551317 0.241897
0.796347 0.551547 0.241947
0.268837 0.527101 0.204901
0.285725 0.528617 0.206237
0.302612 0.530132 0.207572
0.319500 0.531648 0.208908
0.336388 0.533164 0.210244
0.353276 0.534680 0.211580
0.371801 0.536321 0.213041
0.392898 0.538158 0.214698
0.413996 0.539996 0.216356
0.435093 0.541833 0.218013
0.456190 0.543670 0.219670
0.477287 0.545507 0.221327
0.498385 0.547345 0.222985
0.519482 0.549182 0.224642
0.540579 0.551019 0.226299
0.561677 0.552857 0.227957
0.582774 0.554694 0.229614
0.603871 0.556531 0.231271
0.624969 0.558369 0.232929
0.646066 0.560206 0.234586
0.667163 0.562043 0.236243
0.685844 0.563696 0.237716
0.702732 0.565212 0.239052
0.719620 0.566728 0.240388
0.736508 0.568244 0.241724
0.753396 0.569760 0.243060
0.770283 0.571275 0.244395
0.787171 0.572791 0.245731
0.801253 0.574093 0.246853
0.801303 0.574323 0.246903
0.801353 0.574553 0.246953
0.801403 0.574783 0.247003
0.801453 0.575013 0.247053
0.274255 0.550591 0.210031
0.291143 0.552107 0.211367
0.308031 0.553623 0.212703
0.324919 0.555139 0.214039
0.341806 0.556654 0.215374
0.358694 0.558170 0.216710
0.377297 0.559817 0.218177
0.398394 0.561654 0.219834
0.419492 0.563492 0.221492
0.440589 0.565329 0.223149
0.461686 0.567166 0.224806
0.482784 0.569004 0.226464
0.503881 0.570841 0.228121
0.524978 0.572678 0.229778
0.546076 0.574516 0.231436
0.567173 0.576353 0.233093
0.588270 0.578190 0.234750
0.609368 0.580028 0.236408
0.630465 0.581865 0.238065
0.651562 0.583702 0.239722
0.672660 0.585540 0.241380
0.691262 0.587186 0.242846
0.708150 0.588702 0.244182
0.725038 0.590218 0.245518
0.741926 0.591734 0.246854
0.758814 0.593250 0.248190
0.775702 0.594766 0.249526
0.792590 0.596282 0.250862
0.806359 0.597559 0.251959
0.806410 0.597790 0.252010
0.806460 0.598020 0.252060
0.806510 0.598250 0.252110
0.806560 0.598480 0.252160
0.279673 0.574081 0.215161
0.296561 0.575597 0.216497
0.313449 0.577113 0.217833
0.330337 0.578629 0.219169
0.347225 0.580145 0.220505
0.364113 0.581661 0.221841
0.382793 0.583313 0.223313
0.403891 0.585151 0.224971
0.424988 0.586988 0.226628
0.446085 0.588825 0.228285
0.467183 0.590663 0.229943
0.488280 0.592500 0.231600
0.509377 0.594337 0.233257
0.530475 0.596175 0.234915
0.551572 0.598012 0.236572
0.572669 0.599849 0.238229
0.593767 0.601687 0.239887
0.614864 0.603524 0.241544
0.635961 0.605361 0.243201
0.657059 0.607199 0.244859
0.678156 0.609036 0.246516
0.696681 0.610677 0.247977
0.713569 0.612193 0.249313
0.730457 0.613709 0.250649
0.747344 0.615224 0.251984
0.764232 0.616740 0.253320
0.781120 0.618256 0.254656
0.798008 0.619772 0.255992
0.811466 0.621026 0.257066
0.811516 0.621256 0.257116
0.811566 0.621486 0.257166
0.811616 0.621716 0.257216
0.811666 0.621946 0.257266
0.285092 0.597572 0.220292
0.301980 0.599088 0.221628
0.318867 0.600603 0.222963
0.335755 0.602119 0.224299
0.352643 0.603635 0.225635
0.369531 0.605151 0.226971
0.388290 0.606810 0.228450
0.409387 0.608647 0.230107
0.430484 0.610484 0.231764
0.451582 0.612322 0.233422
0.472679 0.614159 0.235079
0.493776 0.615996 0.236736
0.514874 0.617834 0.238394
0.535971 0.619671 0.240051
0.557068 0.621508 0.241708
0.578166 0.623346 0.243366
0.599263 0.625183 0.245023
0.620360 0.627020 0.246680
0.641458 0.628858 0.248338
0.662555 0.630695 0.249995
0.683652 0.632532 0.251652
0.702099 0.634167 0.253107
0.718987 0.635683 0.254443
0.735875 0.637199 0.255779
0.752763 0.638715 0.257115
0.769651 0.640231 0.258451
0.786538 0.641746 0.259786
0.803426 0.643262 0.261122
0.816572 0.644492 0.262172
0.816623 0.644723 0.262223
0.816673 0.644953 0.262273
0.816723 0.645183 0.262323
0.816773 0.645413 0.262373
0.290510 0.621062 0.225422
0.307398 0.622578 0.226758
0.324286 0.624094 0.228094
0.341174 0.625610 0.229430
0.358061 0.627125 0.230765
0.374949 0.628641 0.232101
0.393786 0.630306 0.233586
0.414883 0.632143 0.235243
0.435981 0.633981 0.236901
0.457078 0.635818 0.238558
0.478175 0.637655 0.240215
0.499273 0.639493 0.241873
0.520370 0.641330 0.243530
0.541467 0.643167 0.245187
0.562565 0.645005 0.246845
0.583662 0.646842 0.248502
0.604759 0.648679 0.250159
0.625857 0.650517 0.251817
0.646954 0.652354 0.253474
0.668051 0.654191 0.255131
0.689149 0.656029 0.256789
0.707517 0.657657 0.258237
0.724405 0.659173 0.259573
0.741293 0.660689 0.260909
0.758181 0.662205 0.262245
0.775069 0.663721 0.263581
0.791957 0.665237 0.264917
0.808845 0.666753 0.266253
0.821679 0.667959 0.267279
0.821729 0.668189 0.267329
0.821779 0.668419 0.267379
0.821829 0.668649 0.267429
0.821879 0.668879 0.267479
0.295928 0.644552 0.230552
0.312816 0.646068 0.231888
0.329704 0.647584 0.233224
0.346592 0.649100 0.234560
0.363480 0.650616 0.235896
0.380368 0.652132 0.237232
0.399282 0.653802 0.238722
0.420380 0.655640 0.240380
0.441477 0.657477 0.242037
0.462574 0.659314 0.243694
0.483672 0.661152 0.245352
0.504769 0.662989 0.247009
0.525866 0.664826 0.248666
0.546964 0.666664 0.250324
0.568061 0.668501 0.251981
0.589158 0.670338 0.253638
0.610256 0.672176 0.255296
0.631353 0.674013 0.256953
0.652450 0.675850 0.258610
0.673547 0.677687 0.260267
0.694645 0.679525 0.261925
0.712936 0.681148 0.263368
0.729824 0.682664 0.264704
0.746712 0.684180 0.266040
0.763599 0.685695 0.267375
0.780487 0.687211 0.268711
0.797375 0.688727 0.270047
0.814263 0.690243 0.271383
0.826786 0.691426 0.272386
0.826836 0.691656 0.272436
0.826886 0.691886 0.272486
0.826936 0.692116 0.272536
0.826986 0.692346 0.272586
0.300821 0.665627 0.235157
0.317696 0.667085 0.236480
0.334572 0.668544 0.237804
0.351447 0.670002 0.239127
0.368322 0.671460 0.240450
0.385198 0.672919 0.241774
0.404178 0.674538 0.243258
0.425263 0.676318 0.244903
0.446347 0.678097 0.246547
0.467432 0.679877 0.248192
0.488517 0.681657 0.249837
0.509602 0.683437 0.251482
0.530687 0.685217 0.253127
0.551771 0.686996 0.254771
0.572856 0.688776 0.256416
0.593941 0.690556 0.258061
0.615026 0.692336 0.259706
0.636111 0.694116 0.261351
0.657196 0.695896 0.262995
0.678280 0.697675 0.264640
0.699365 0.699455 0.266285
0.717566 0.701015 0.267710
0.734441 0.702473 0.269033
0.751316 0.703931 0.270356
0.768192 0.705390 0.271680
0.785067 0.706848 0.273003
0.801942 0.708306 0.274326
0.818818 0.709765 0.275650
0.831016 0.710866 0.276616
0.831054 0.711039 0.276654
0.831091 0.711211 0.276691
0.831129 0.711384 0.276729
0.831166 0.711556 0.276766
0.304963 0.683251 0.239011
0.321838 0.684709 0.240334
0.338713 0.686167 0.241657
0.355589 0.687626 0.242981
0.372464 0.689084 0.244304
0.389339 0.690542 0.245627
0.408398 0.692168 0.247118
0.429482 0.693947 0.248762
0.450567 0.695727 0.250407
0.471652 0.697507 0.252052
0.492737 0.699287 0.253697
0.513822 0.701067 0.255342
0.534906 0.702846 0.256986
0.555991 0.704626 0.258631
0.577076 0.706406 0.260276
0.598161 0.708186 0.261921
0.619246 0.709966 0.263566
0.640330 0.711745 0.265210
0.661415 0.713525 0.266855
0.682500 0.715305 0.268500
0.703585 0.717085 0.270145
0.721707 0.718638 0.271563
0.738583 0.720097 0.272887
0.755458 0.721555 0.274210
0.772333 0.723013 0.275533
0.789209 0.724472 0.276857
0.806084 0.725930 0.278180
0.822959 0.727388 0.279503
0.834846 0.728466 0.280446
0.834883 0.728638 0.280483
0.834921 0.728811 0.280521
0.834958 0.728984 0.280558
0.834996 0.729156 0.280596
0.309104 0.700874 0.242864
0.325980 0.702333 0.244188
0.342855 0.703791 0.245511
0.359730 0.705249 0.246834
0.376606 0.706708 0.248158
0.393481 0.708166 0.249481
0.412617 0.709797 0.250977
0.433702 0.711577 0.252622
0.454787 0.713357 0.254267
0.475872 0.715137 0.255912
0.496956 0.716916 0.257556
0.518041 0.718696 0.259201
0.539126 0.720476 0.260846
0.560211 0.722256 0.262491
0.581296 0.724036 0.264136
0.602380 0.725815 0.265780
0.623465 0.727595 0.267425
0.644550 0.729375 0.269070
0.665635 0.731155 0.270715
0.686720 0.732935 0.272360
0.707804 0.734714 0.274004
0.725849 0.736262 0.275417
0.742724 0.737720 0.276740
0.759600 0.739179 0.278064
0.776475 0.740637 0.279387
0.793350 0.742095 0.280710
0.810226 0.743554 0.282034
0.827101 0.745012 0.283357
0.838676 0.746066 0.284276
0.838713 0.746238 0.284313
0.838751 0.746411 0.284351
0.838788 0.746583 0.284388
0.838826 0.746756 0.284426
0.313246 0.718498 0.246718
0.330121 0.719956 0.248041
0.346997 0.721415 0.249365
0.363872 0.722873 0.250688
0.380748 0.724332 0.252012
0.397623 0.725790 0.253335
0.416837 0.727427 0.254837
0.437922 0.729207 0.256482
0.459006 0.730986 0.258126
0.480091 0.732766 0.259771
0.501176 0.734546 0.261416
0.522261 0.736326 0.263061
0.543346 0.738106 0.264706
0.564430 0.739885 0.266350
0.585515 0.741665 0.267995
0.606600 0.743445 0.269640
0.627685 0.745225 0.271285
0.648770 0.747005 0.272930
0.669854 0.748784 0.274574
0.690939 0.750564 0.276219
0.712024 0.752344 0.277864
0.729991 0.753886 0.279271
0.746866 0.755344 0.280594
0.763741 0.756802 0.281917
0.780617 0.758261 0.283241
0.797492 0.759719 0.284564
0.814368 0.761178 0.285888
