docs/brainstorm/marketing-site/luts/C_WarmNeutralCinematic.cube
TITLE "SuperBad C — Warm-Neutral Cinematic"
LUT_3D_SIZE 5
DOMAIN_MIN 0.0 0.0 0.0
DOMAIN_MAX 1.0 1.0 1.0
0.016139 0.000179 0.000179
0.193087 0.002137 0.002137
0.493764 0.005464 0.005464
0.810195 0.008965 0.008965
0.960630 0.010630 0.010630
0.021860 0.157900 0.005900
0.198808 0.159858 0.007858
0.499485 0.163185 0.011185
0.815917 0.166687 0.014687
0.966352 0.168352 0.016352
0.032588 0.453628 0.016628
0.209536 0.455586 0.018586
0.510213 0.458913 0.021913
0.826645 0.462415 0.025415
0.977080 0.464080 0.027080
0.044747 0.788787 0.028787
0.221695 0.790745 0.030745
0.522372 0.794072 0.034072
0.838803 0.797573 0.037573
0.989238 0.799238 0.039238
0.051541 0.976081 0.035581
0.228489 0.978039 0.037539
0.529166 0.981366 0.040866
0.845598 0.984868 0.044368
0.996032 0.986532 0.046032
0.016653 0.000693 0.136068
0.193601 0.002651 0.138026
0.494278 0.005978 0.141353
0.810710 0.009480 0.144855
0.961144 0.011144 0.146519
0.022375 0.158415 0.141790
0.199323 0.160373 0.143748
0.500000 0.163700 0.147075
0.816431 0.167201 0.150576
0.966866 0.168866 0.152241
0.033103 0.454143 0.152518
0.210051 0.456101 0.154476
0.510728 0.459428 0.157803
0.827159 0.462929 0.161304
0.977594 0.464594 0.162969
0.045261 0.789301 0.164676
0.222209 0.791259 0.166634
0.522886 0.794586 0.169961
0.839318 0.798088 0.173463
0.989752 0.799752 0.175127
0.052055 0.976595 0.171470
0.229003 0.978553 0.173428
0.529681 0.981881 0.176756
0.846112 0.985382 0.180257
0.996547 0.987047 0.181922
0.017643 0.001683 0.397643
0.194591 0.003641 0.399601
0.495268 0.006968 0.402928
0.811700 0.010470 0.406430
0.962135 0.012135 0.408095
0.023365 0.159405 0.403365
0.200313 0.161363 0.405323
0.500990 0.164690 0.408650
0.817422 0.168192 0.412152
0.967856 0.169856 0.413816
0.034093 0.455133 0.414093
0.211041 0.457091 0.416051
0.511718 0.460418 0.419378
0.828150 0.463920 0.422880
0.978584 0.465584 0.424544
0.046251 0.790291 0.426251
0.223199 0.792249 0.428209
0.523876 0.795576 0.431536
0.840308 0.799078 0.435038
0.990743 0.800743 0.436703
0.053046 0.977586 0.433046
0.229994 0.979544 0.435004
0.530671 0.982871 0.438331
0.847102 0.986372 0.441832
0.997537 0.988037 0.443497
0.018755 0.002795 0.691355
0.195703 0.004753 0.693313
0.496380 0.008080 0.696640
0.812812 0.011582 0.700142
0.963247 0.013247 0.701807
0.024477 0.160517 0.697077
0.201425 0.162475 0.699035
0.502102 0.165802 0.702362
0.818533 0.169303 0.705863
0.968968 0.170968 0.707528
0.035205 0.456245 0.707805
0.212153 0.458203 0.709763
0.512830 0.461530 0.713090
0.829261 0.465031 0.716591
0.979696 0.466696 0.718256
0.047363 0.791403 0.719963
0.224311 0.793361 0.721921
0.524988 0.796688 0.725248
0.841420 0.800190 0.728750
0.991855 0.801855 0.730415
0.054158 0.978698 0.726758
0.231106 0.980656 0.728716
0.531783 0.983983 0.732043
0.848214 0.987484 0.735544
0.998649 0.989149 0.737209
0.019472 0.003512 0.880742
0.196420 0.005470 0.882700
0.497097 0.008797 0.886027
0.813529 0.012299 0.889529
0.963963 0.013963 0.891193
0.025194 0.161234 0.886464
0.202142 0.163192 0.888422
0.502819 0.166519 0.891749
0.819250 0.170020 0.895250
0.969685 0.171685 0.896915
0.035922 0.456962 0.897192
0.212870 0.458920 0.899150
0.513547 0.462247 0.902477
0.829978 0.465748 0.905978
0.980413 0.467413 0.907643
0.048080 0.792120 0.909350
0.225028 0.794078 0.911308
0.525705 0.797405 0.914635
0.842137 0.800907 0.918137
0.992571 0.802571 0.919801
0.054874 0.979414 0.916144
0.231823 0.981373 0.918103
0.532500 0.984700 0.921430
0.848931 0.988201 0.924931
0.999366 0.989866 0.926596
