docs/brainstorm/marketing-site/luts/C_WarmNeutralCinematic.cube
TITLE "SuperBad C — Warm-Neutral Cinematic"
LUT_3D_SIZE 33
DOMAIN_MIN 0.0 0.0 0.0
DOMAIN_MAX 1.0 1.0 1.0
0.016139 0.000179 0.000179
0.037164 0.000411 0.000411
0.058190 0.000644 0.000644
0.079216 0.000877 0.000877
0.100242 0.001109 0.001109
0.121268 0.001342 0.001342
0.142293 0.001575 0.001575
0.163319 0.001807 0.001807
0.193087 0.002137 0.002137
0.230191 0.002547 0.002547
0.267295 0.002958 0.002958
0.304400 0.003368 0.003368
0.341504 0.003779 0.003779
0.378608 0.004190 0.004190
0.415713 0.004600 0.004600
0.452817 0.005011 0.005011
0.493764 0.005464 0.005464
0.535815 0.005929 0.005929
0.577867 0.006394 0.006394
0.619919 0.006860 0.006860
0.661970 0.007325 0.007325
0.704022 0.007790 0.007790
0.746073 0.008256 0.008256
0.787933 0.008719 0.008719
0.810195 0.008965 0.008965
0.832458 0.009212 0.009212
0.854721 0.009458 0.009458
0.876983 0.009704 0.009704
0.899246 0.009951 0.009951
0.921508 0.010197 0.010197
0.943771 0.010443 0.010443
0.960630 0.010630 0.010630
0.960630 0.010630 0.010630
0.016854 0.019894 0.000894
0.037880 0.020126 0.001126
0.058905 0.020359 0.001359
0.079931 0.020592 0.001592
0.100957 0.020824 0.001824
0.121983 0.021057 0.002057
0.143009 0.021290 0.002290
0.164034 0.021522 0.002522
0.193802 0.021852 0.002852
0.230906 0.022262 0.003262
0.268010 0.022673 0.003673
0.305115 0.023084 0.004084
0.342219 0.023494 0.004494
0.379323 0.023905 0.004905
0.416428 0.024315 0.005315
0.453532 0.024726 0.005726
0.494479 0.025179 0.006179
0.536531 0.025644 0.006644
0.578582 0.026110 0.007110
0.620634 0.026575 0.007575
0.662685 0.027040 0.008040
0.704737 0.027506 0.008506
0.746788 0.027971 0.008971
0.788648 0.028434 0.009434
0.810911 0.028681 0.009681
0.833173 0.028927 0.009927
0.855436 0.029173 0.010173
0.877698 0.029420 0.010420
0.899961 0.029666 0.010666
0.922224 0.029912 0.010912
0.944486 0.030159 0.011159
0.961345 0.030345 0.011345
0.961345 0.030345 0.011345
0.017569 0.039609 0.001609
0.038595 0.039842 0.001842
0.059621 0.040074 0.002074
0.080646 0.040307 0.002307
0.101672 0.040540 0.002540
0.122698 0.040772 0.002772
0.143724 0.041005 0.003005
0.164750 0.041238 0.003238
0.194517 0.041567 0.003567
0.231621 0.041978 0.003978
0.268726 0.042388 0.004388
0.305830 0.042799 0.004799
0.342934 0.043209 0.005209
0.380039 0.043620 0.005620
0.417143 0.044031 0.006031
0.454247 0.044441 0.006441
0.495194 0.044894 0.006894
0.537246 0.045360 0.007360
0.579297 0.045825 0.007825
0.621349 0.046290 0.008290
0.663401 0.046756 0.008756
0.705452 0.047221 0.009221
0.747504 0.047686 0.009686
0.789363 0.048149 0.010149
0.811626 0.048396 0.010396
0.833888 0.048642 0.010642
0.856151 0.048888 0.010888
0.878414 0.049135 0.011135
0.900676 0.049381 0.011381
0.922939 0.049627 0.011627
0.945201 0.049874 0.011874
0.962060 0.050060 0.012060
0.962060 0.050060 0.012060
0.018284 0.059324 0.002324
0.039310 0.059557 0.002557
0.060336 0.059790 0.002790
0.081362 0.060022 0.003022
0.102387 0.060255 0.003255
0.123413 0.060488 0.003488
0.144439 0.060720 0.003720
0.165465 0.060953 0.003953
0.195232 0.061282 0.004282
0.232337 0.061693 0.004693
0.269441 0.062103 0.005103
0.306545 0.062514 0.005514
0.343650 0.062925 0.005925
0.380754 0.063335 0.006335
0.417858 0.063746 0.006746
0.454963 0.064156 0.007156
0.495909 0.064609 0.007609
0.537961 0.065075 0.008075
0.580013 0.065540 0.008540
0.622064 0.066005 0.009005
0.664116 0.066471 0.009471
0.706167 0.066936 0.009936
0.748219 0.067401 0.010401
0.790078 0.067865 0.010865
0.812341 0.068111 0.011111
0.834604 0.068357 0.011357
0.856866 0.068604 0.011604
0.879129 0.068850 0.011850
0.901391 0.069096 0.012096
0.923654 0.069343 0.012343
0.945917 0.069589 0.012589
0.962776 0.069776 0.012776
0.962776 0.069776 0.012776
0.018999 0.079039 0.003039
0.040025 0.079272 0.003272
0.061051 0.079505 0.003505
0.082077 0.079737 0.003737
0.103103 0.079970 0.003970
0.124128 0.080203 0.004203
0.145154 0.080435 0.004435
0.166180 0.080668 0.004668
0.195947 0.080997 0.004997
0.233052 0.081408 0.005408
0.270156 0.081819 0.005819
0.307260 0.082229 0.006229
0.344365 0.082640 0.006640
0.381469 0.083050 0.007050
0.418573 0.083461 0.007461
0.455678 0.083872 0.007872
0.496625 0.084325 0.008325
0.538676 0.084790 0.008790
0.580728 0.085255 0.009255
0.622779 0.085721 0.009721
0.664831 0.086186 0.010186
0.706883 0.086651 0.010651
0.748934 0.087117 0.011117
0.790794 0.087580 0.011580
0.813056 0.087826 0.011826
0.835319 0.088072 0.012072
0.857581 0.088319 0.012319
0.879844 0.088565 0.012565
0.902107 0.088812 0.012812
0.924369 0.089058 0.013058
0.946632 0.089304 0.013304
0.963491 0.089491 0.013491
0.963491 0.089491 0.013491
0.019715 0.098755 0.003755
0.040740 0.098987 0.003987
0.061766 0.099220 0.004220
0.082792 0.099453 0.004453
0.103818 0.099685 0.004685
0.124844 0.099918 0.004918
0.145869 0.100151 0.005151
0.166895 0.100383 0.005383
0.196663 0.100713 0.005713
0.233767 0.101123 0.006123
0.270871 0.101534 0.006534
0.307976 0.101944 0.006944
0.345080 0.102355 0.007355
0.382184 0.102766 0.007766
0.419289 0.103176 0.008176
0.456393 0.103587 0.008587
0.497340 0.104040 0.009040
0.539391 0.104505 0.009505
0.581443 0.104970 0.009970
0.623495 0.105436 0.010436
0.665546 0.105901 0.010901
0.707598 0.106366 0.011366
0.749649 0.106832 0.011832
0.791509 0.107295 0.012295
0.813771 0.107541 0.012541
0.836034 0.107788 0.012788
0.858297 0.108034 0.013034
0.880559 0.108280 0.013280
0.902822 0.108527 0.013527
0.925084 0.108773 0.013773
0.947347 0.109019 0.014019
0.964206 0.109206 0.014206
0.964206 0.109206 0.014206
0.020430 0.118470 0.004470
0.041456 0.118702 0.004702
0.062481 0.118935 0.004935
0.083507 0.119168 0.005168
0.104533 0.119400 0.005400
0.125559 0.119633 0.005633
0.146585 0.119866 0.005866
0.167610 0.120098 0.006098
0.197378 0.120428 0.006428
0.234482 0.120838 0.006838
0.271586 0.121249 0.007249
0.308691 0.121660 0.007660
0.345795 0.122070 0.008070
0.382899 0.122481 0.008481
0.420004 0.122891 0.008891
0.457108 0.123302 0.009302
0.498055 0.123755 0.009755
0.540107 0.124220 0.010220
0.582158 0.124686 0.010686
0.624210 0.125151 0.011151
0.666261 0.125616 0.011616
0.708313 0.126082 0.012082
0.750364 0.126547 0.012547
0.792224 0.127010 0.013010
0.814487 0.127257 0.013257
0.836749 0.127503 0.013503
0.859012 0.127749 0.013749
0.881274 0.127996 0.013996
0.903537 0.128242 0.014242
0.925800 0.128488 0.014488
0.948062 0.128735 0.014735
0.964921 0.128921 0.014921
0.964921 0.128921 0.014921
0.021145 0.138185 0.005185
0.042171 0.138418 0.005418
0.063197 0.138650 0.005650
0.084222 0.138883 0.005883
0.105248 0.139116 0.006116
0.126274 0.139348 0.006348
0.147300 0.139581 0.006581
0.168326 0.139814 0.006814
0.198093 0.140143 0.007143
0.235197 0.140554 0.007554
0.272302 0.140964 0.007964
0.309406 0.141375 0.008375
0.346510 0.141785 0.008785
0.383615 0.142196 0.009196
0.420719 0.142607 0.009607
0.457823 0.143017 0.010017
0.498770 0.143470 0.010470
0.540822 0.143936 0.010936
0.582873 0.144401 0.011401
0.624925 0.144866 0.011866
0.666977 0.145332 0.012332
0.709028 0.145797 0.012797
0.751080 0.146262 0.013262
0.792939 0.146725 0.013725
0.815202 0.146972 0.013972
0.837464 0.147218 0.014218
0.859727 0.147464 0.014464
0.881990 0.147711 0.014711
0.904252 0.147957 0.014957
0.926515 0.148203 0.015203
0.948777 0.148450 0.015450
0.965636 0.148636 0.015636
0.965636 0.148636 0.015636
0.021860 0.157900 0.005900
0.042886 0.158133 0.006133
0.063912 0.158366 0.006366
0.084938 0.158598 0.006598
0.105963 0.158831 0.006831
0.126989 0.159064 0.007064
0.148015 0.159296 0.007296
0.169041 0.159529 0.007529
0.198808 0.159858 0.007858
0.235913 0.160269 0.008269
0.273017 0.160679 0.008679
0.310121 0.161090 0.009090
0.347226 0.161501 0.009501
0.384330 0.161911 0.009911
0.421434 0.162322 0.010322
0.458539 0.162732 0.010732
0.499485 0.163185 0.011185
0.541537 0.163651 0.011651
0.583589 0.164116 0.012116
0.625640 0.164581 0.012581
0.667692 0.165047 0.013047
0.709743 0.165512 0.013512
0.751795 0.165977 0.013977
0.793654 0.166441 0.014441
0.815917 0.166687 0.014687
0.838180 0.166933 0.014933
0.860442 0.167180 0.015180
0.882705 0.167426 0.015426
0.904967 0.167672 0.015672
0.927230 0.167919 0.015919
0.949493 0.168165 0.016165
0.966352 0.168352 0.016352
0.966352 0.168352 0.016352
0.023201 0.194866 0.007241
0.044227 0.195099 0.007474
0.065253 0.195332 0.007707
0.086279 0.195564 0.007939
0.107304 0.195797 0.008172
0.128330 0.196030 0.008405
0.149356 0.196262 0.008637
0.170382 0.196495 0.008870
0.200149 0.196824 0.009199
0.237254 0.197235 0.009610
0.274358 0.197645 0.010020
0.311462 0.198056 0.010431
0.348567 0.198467 0.010842
0.385671 0.198877 0.011252
0.422775 0.199288 0.011663
0.459880 0.199698 0.012073
0.500826 0.200151 0.012526
0.542878 0.200617 0.012992
0.584930 0.201082 0.013457
0.626981 0.201547 0.013922
0.669033 0.202013 0.014388
0.711084 0.202478 0.014853
0.753136 0.202943 0.015318
0.794995 0.203407 0.015782
0.817258 0.203653 0.016028
0.839521 0.203899 0.016274
0.861783 0.204146 0.016521
0.884046 0.204392 0.016767
0.906308 0.204638 0.017013
0.928571 0.204885 0.017260
0.950834 0.205131 0.017506
0.967693 0.205318 0.017693
0.967693 0.205318 0.017693
0.024542 0.231832 0.008582
0.045568 0.232065 0.008815
0.066594 0.232298 0.009048
0.087620 0.232530 0.009280
0.108645 0.232763 0.009513
0.129671 0.232996 0.009746
0.150697 0.233228 0.009978
0.171723 0.233461 0.010211
0.201490 0.233790 0.010540
0.238595 0.234201 0.010951
0.275699 0.234611 0.011361
0.312803 0.235022 0.011772
0.349908 0.235433 0.012183
0.387012 0.235843 0.012593
0.424116 0.236254 0.013004
0.461221 0.236664 0.013414
0.502167 0.237117 0.013867
0.544219 0.237583 0.014333
0.586271 0.238048 0.014798
0.628322 0.238513 0.015263
0.670374 0.238979 0.015729
0.712425 0.239444 0.016194
0.754477 0.239909 0.016659
0.796336 0.240373 0.017123
0.818599 0.240619 0.017369
0.840862 0.240865 0.017615
0.863124 0.241112 0.017862
0.885387 0.241358 0.018108
0.907649 0.241604 0.018354
0.929912 0.241851 0.018601
0.952175 0.242097 0.018847
0.969034 0.242284 0.019034
0.969034 0.242284 0.019034
0.025883 0.268798 0.009923
0.046909 0.269031 0.010156
0.067935 0.269264 0.010389
0.088961 0.269496 0.010621
0.109986 0.269729 0.010854
0.131012 0.269962 0.011087
0.152038 0.270194 0.011319
0.173064 0.270427 0.011552
0.202831 0.270756 0.011881
0.239936 0.271167 0.012292
0.277040 0.271577 0.012702
0.314144 0.271988 0.013113
0.351249 0.272399 0.013524
0.388353 0.272809 0.013934
0.425457 0.273220 0.014345
0.462562 0.273630 0.014755
0.503508 0.274083 0.015208
0.545560 0.274549 0.015674
0.587612 0.275014 0.016139
0.629663 0.275479 0.016604
0.671715 0.275945 0.017070
0.713766 0.276410 0.017535
0.755818 0.276875 0.018000
0.797677 0.277339 0.018464
0.819940 0.277585 0.018710
0.842203 0.277831 0.018956
0.864465 0.278078 0.019203
0.886728 0.278324 0.019449
0.908990 0.278570 0.019695
0.931253 0.278817 0.019942
0.953516 0.279063 0.020188
0.970375 0.279250 0.020375
0.970375 0.279250 0.020375
0.027224 0.305764 0.011264
0.048250 0.305997 0.011497
0.069276 0.306230 0.011730
0.090302 0.306462 0.011962
0.111327 0.306695 0.012195
0.132353 0.306928 0.012428
0.153379 0.307160 0.012660
0.174405 0.307393 0.012893
0.204172 0.307722 0.013222
0.241277 0.308133 0.013633
0.278381 0.308543 0.014043
0.315485 0.308954 0.014454
0.352590 0.309365 0.014865
0.389694 0.309775 0.015275
0.426798 0.310186 0.015686
0.463903 0.310596 0.016096
0.504849 0.311049 0.016549
0.546901 0.311515 0.017015
0.588953 0.311980 0.017480
0.631004 0.312445 0.017945
0.673056 0.312911 0.018411
0.715107 0.313376 0.018876
0.757159 0.313841 0.019341
0.799018 0.314305 0.019805
0.821281 0.314551 0.020051
0.843544 0.314797 0.020297
0.865806 0.315044 0.020544
0.888069 0.315290 0.020790
0.910331 0.315536 0.021036
0.932594 0.315783 0.021283
0.954857 0.316029 0.021529
0.971716 0.316216 0.021716
0.971716 0.316216 0.021716
0.028565 0.342730 0.012605
0.049591 0.342963 0.012838
0.070617 0.343196 0.013071
0.091643 0.343428 0.013303
0.112668 0.343661 0.013536
0.133694 0.343894 0.013769
0.154720 0.344126 0.014001
0.175746 0.344359 0.014234
0.205513 0.344688 0.014563
0.242618 0.345099 0.014974
0.279722 0.345509 0.015384
0.316826 0.345920 0.015795
0.353931 0.346331 0.016206
0.391035 0.346741 0.016616
0.428139 0.347152 0.017027
0.465244 0.347562 0.017437
0.506190 0.348015 0.017890
0.548242 0.348481 0.018356
0.590294 0.348946 0.018821
0.632345 0.349411 0.019286
0.674397 0.349877 0.019752
0.716448 0.350342 0.020217
0.758500 0.350807 0.020682
0.800359 0.351271 0.021146
0.822622 0.351517 0.021392
0.844885 0.351763 0.021638
0.867147 0.352010 0.021885
0.889410 0.352256 0.022131
0.911672 0.352502 0.022377
0.933935 0.352749 0.022624
0.956198 0.352995 0.022870
0.973057 0.353182 0.023057
0.973057 0.353182 0.023057
0.029906 0.379696 0.013946
0.050932 0.379929 0.014179
0.071958 0.380162 0.014412
0.092984 0.380394 0.014644
0.114009 0.380627 0.014877
0.135035 0.380860 0.015110
0.156061 0.381092 0.015342
0.177087 0.381325 0.015575
0.206854 0.381654 0.015904
0.243959 0.382065 0.016315
0.281063 0.382475 0.016725
0.318167 0.382886 0.017136
0.355272 0.383297 0.017547
0.392376 0.383707 0.017957
0.429480 0.384118 0.018368
0.466585 0.384528 0.018778
0.507531 0.384981 0.019231
0.549583 0.385447 0.019697
0.591635 0.385912 0.020162
0.633686 0.386377 0.020627
0.675738 0.386843 0.021093
0.717789 0.387308 0.021558
0.759841 0.387773 0.022023
0.801700 0.388237 0.022487
0.823963 0.388483 0.022733
0.846226 0.388729 0.022979
0.868488 0.388976 0.023226
0.890751 0.389222 0.023472
0.913013 0.389468 0.023718
0.935276 0.389715 0.023965
0.957539 0.389961 0.024211
0.974398 0.390148 0.024398
0.974398 0.390148 0.024398
0.031247 0.416662 0.015287
0.052273 0.416895 0.015520
0.073299 0.417128 0.015753
0.094325 0.417360 0.015985
0.115350 0.417593 0.016218
0.136376 0.417826 0.016451
0.157402 0.418058 0.016683
0.178428 0.418291 0.016916
0.208195 0.418620 0.017245
0.245300 0.419031 0.017656
0.282404 0.419441 0.018066
0.319508 0.419852 0.018477
0.356613 0.420263 0.018888
0.393717 0.420673 0.019298
0.430821 0.421084 0.019709
0.467926 0.421494 0.020119
0.508872 0.421947 0.020572
0.550924 0.422413 0.021038
0.592976 0.422878 0.021503
0.635027 0.423343 0.021968
0.677079 0.423809 0.022434
0.719130 0.424274 0.022899
0.761182 0.424739 0.023364
0.803041 0.425203 0.023828
0.825304 0.425449 0.024074
0.847567 0.425695 0.024320
0.869829 0.425942 0.024567
0.892092 0.426188 0.024813
0.914354 0.426434 0.025059
0.936617 0.426681 0.025306
0.958880 0.426927 0.025552
0.975739 0.427114 0.025739
0.975739 0.427114 0.025739
0.032588 0.453628 0.016628
0.053614 0.453861 0.016861
0.074640 0.454094 0.017094
0.095666 0.454326 0.017326
0.116691 0.454559 0.017559
0.137717 0.454792 0.017792
0.158743 0.455024 0.018024
0.179769 0.455257 0.018257
0.209536 0.455586 0.018586
0.246641 0.455997 0.018997
0.283745 0.456407 0.019407
0.320849 0.456818 0.019818
0.357954 0.457229 0.020229
0.395058 0.457639 0.020639
0.432162 0.458050 0.021050
0.469267 0.458460 0.021460
0.510213 0.458913 0.021913
0.552265 0.459379 0.022379
0.594317 0.459844 0.022844
0.636368 0.460309 0.023309
0.678420 0.460775 0.023775
0.720471 0.461240 0.024240
0.762523 0.461705 0.024705
0.804382 0.462169 0.025169
0.826645 0.462415 0.025415
0.848908 0.462661 0.025661
0.871170 0.462908 0.025908
0.893433 0.463154 0.026154
0.915695 0.463400 0.026400
0.937958 0.463647 0.026647
0.960221 0.463893 0.026893
0.977080 0.464080 0.027080
0.977080 0.464080 0.027080
0.034108 0.495523 0.018148
0.055134 0.495756 0.018381
0.076160 0.495988 0.018613
0.097185 0.496221 0.018846
0.118211 0.496454 0.019079
0.139237 0.496686 0.019311
0.160263 0.496919 0.019544
0.181289 0.497152 0.019777
0.211056 0.497481 0.020106
0.248160 0.497892 0.020517
0.285265 0.498302 0.020927
0.322369 0.498713 0.021338
0.359473 0.499123 0.021748
0.396578 0.499534 0.022159
0.433682 0.499945 0.022570
0.470786 0.500355 0.022980
0.511733 0.500808 0.023433
0.553785 0.501274 0.023899
0.595836 0.501739 0.024364
0.637888 0.502204 0.024829
0.679940 0.502670 0.025295
0.721991 0.503135 0.025760
0.764043 0.503600 0.026225
0.805902 0.504063 0.026688
0.828165 0.504310 0.026935
0.850427 0.504556 0.027181
0.872690 0.504802 0.027427
0.894953 0.505049 0.027674
0.917215 0.505295 0.027920
0.939478 0.505541 0.028166
0.961740 0.505788 0.028413
0.978599 0.505974 0.028599
0.978599 0.505974 0.028599
0.035628 0.537418 0.019668
0.056654 0.537650 0.019900
0.077679 0.537883 0.020133
0.098705 0.538116 0.020366
0.119731 0.538348 0.020598
0.140757 0.538581 0.020831
0.161783 0.538814 0.021064
0.182808 0.539046 0.021296
0.212576 0.539376 0.021626
0.249680 0.539786 0.022036
0.286784 0.540197 0.022447
0.323889 0.540608 0.022858
0.360993 0.541018 0.023268
0.398097 0.541429 0.023679
0.435202 0.541839 0.024089
0.472306 0.542250 0.024500
0.513253 0.542703 0.024953
0.555305 0.543168 0.025418
0.597356 0.543634 0.025884
0.639408 0.544099 0.026349
0.681459 0.544564 0.026814
0.723511 0.545030 0.027280
0.765562 0.545495 0.027745
0.807422 0.545958 0.028208
0.829685 0.546205 0.028455
0.851947 0.546451 0.028701
0.874210 0.546697 0.028947
0.896472 0.546944 0.029194
0.918735 0.547190 0.029440
0.940998 0.547436 0.029686
0.963260 0.547683 0.029933
0.980119 0.547869 0.030119
0.980119 0.547869 0.030119
0.037148 0.579313 0.021188
0.058173 0.579545 0.021420
0.079199 0.579778 0.021653
0.100225 0.580011 0.021886
0.121251 0.580243 0.022118
0.142277 0.580476 0.022351
0.163302 0.580709 0.022584
0.184328 0.580941 0.022816
0.214096 0.581271 0.023146
0.251200 0.581681 0.023556
0.288304 0.582092 0.023967
0.325409 0.582502 0.024377
0.362513 0.582913 0.024788
0.399617 0.583324 0.025199
0.436722 0.583734 0.025609
0.473826 0.584145 0.026020
0.514773 0.584598 0.026473
0.556824 0.585063 0.026938
0.598876 0.585528 0.027403
0.640928 0.585994 0.027869
0.682979 0.586459 0.028334
0.725031 0.586924 0.028799
0.767082 0.587390 0.029265
0.808942 0.587853 0.029728
0.831204 0.588099 0.029974
0.853467 0.588346 0.030221
0.875730 0.588592 0.030467
0.897992 0.588838 0.030713
0.920255 0.589085 0.030960
0.942517 0.589331 0.031206
0.964780 0.589577 0.031452
0.981639 0.589764 0.031639
0.981639 0.589764 0.031639
0.038667 0.621207 0.022707
0.059693 0.621440 0.022940
0.080719 0.621673 0.023173
0.101745 0.621905 0.023405
0.122771 0.622138 0.023638
0.143796 0.622371 0.023871
0.164822 0.622603 0.024103
0.185848 0.622836 0.024336
0.215615 0.623165 0.024665
0.252720 0.623576 0.025076
0.289824 0.623987 0.025487
0.326928 0.624397 0.025897
0.364033 0.624808 0.026308
0.401137 0.625218 0.026718
0.438241 0.625629 0.027129
0.475346 0.626040 0.027540
0.516293 0.626493 0.027993
0.558344 0.626958 0.028458
0.600396 0.627423 0.028923
0.642447 0.627889 0.029389
0.684499 0.628354 0.029854
0.726551 0.628819 0.030319
0.768602 0.629285 0.030785
0.810462 0.629748 0.031248
0.832724 0.629994 0.031494
0.854987 0.630240 0.031740
0.877249 0.630487 0.031987
0.899512 0.630733 0.032233
0.921775 0.630980 0.032480
0.944037 0.631226 0.032726
0.966300 0.631472 0.032972
0.983159 0.631659 0.033159
0.983159 0.631659 0.033159
0.040187 0.663102 0.024227
0.061213 0.663335 0.024460
0.082239 0.663568 0.024693
0.103265 0.663800 0.024925
0.124290 0.664033 0.025158
0.145316 0.664266 0.025391
0.166342 0.664498 0.025623
0.187368 0.664731 0.025856
0.217135 0.665060 0.026185
0.254240 0.665471 0.026596
0.291344 0.665881 0.027006
0.328448 0.666292 0.027417
0.365553 0.666703 0.027828
0.402657 0.667113 0.028238
0.439761 0.667524 0.028649
0.476866 0.667934 0.029059
0.517812 0.668387 0.029512
0.559864 0.668853 0.029978
0.601916 0.669318 0.030443
0.643967 0.669783 0.030908
0.686019 0.670249 0.031374
0.728070 0.670714 0.031839
0.770122 0.671179 0.032304
0.811981 0.671643 0.032768
0.834244 0.671889 0.033014
0.856507 0.672135 0.033260
0.878769 0.672382 0.033507
0.901032 0.672628 0.033753
0.923294 0.672874 0.033999
0.945557 0.673121 0.034246
0.967820 0.673367 0.034492
0.984679 0.673554 0.034679
0.984679 0.673554 0.034679
0.041707 0.704997 0.025747
0.062733 0.705230 0.025980
0.083759 0.705462 0.026212
0.104784 0.705695 0.026445
0.125810 0.705928 0.026678
0.146836 0.706160 0.026910
0.167862 0.706393 0.027143
0.188888 0.706626 0.027376
0.218655 0.706955 0.027705
0.255759 0.707366 0.028116
0.292864 0.707776 0.028526
0.329968 0.708187 0.028937
0.367072 0.708597 0.029347
0.404177 0.709008 0.029758
0.441281 0.709419 0.030169
0.478385 0.709829 0.030579
0.519332 0.710282 0.031032
0.561384 0.710748 0.031498
0.603435 0.711213 0.031963
0.645487 0.711678 0.032428
0.687539 0.712144 0.032894
0.729590 0.712609 0.033359
0.771642 0.713074 0.033824
0.813501 0.713537 0.034287
0.835764 0.713784 0.034534
0.858026 0.714030 0.034780
0.880289 0.714276 0.035026
0.902552 0.714523 0.035273
0.924814 0.714769 0.035519
0.947077 0.715015 0.035765
0.969339 0.715262 0.036012
0.986198 0.715448 0.036198
0.986198 0.715448 0.036198
0.043227 0.746892 0.027267
0.064253 0.747124 0.027499
0.085278 0.747357 0.027732
0.106304 0.747590 0.027965
0.127330 0.747822 0.028197
0.148356 0.748055 0.028430
0.169382 0.748288 0.028663
0.190407 0.748520 0.028895
0.220175 0.748850 0.029225
0.257279 0.749260 0.029635
0.294383 0.749671 0.030046
0.331488 0.750082 0.030457
0.368592 0.750492 0.030867
0.405696 0.750903 0.031278
0.442801 0.751313 0.031688
0.479905 0.751724 0.032099
0.520852 0.752177 0.032552
0.562904 0.752642 0.033017
0.604955 0.753108 0.033483
0.647007 0.753573 0.033948
0.689058 0.754038 0.034413
0.731110 0.754504 0.034879
0.773161 0.754969 0.035344
0.815021 0.755432 0.035807
0.837284 0.755679 0.036054
0.859546 0.755925 0.036300
0.881809 0.756171 0.036546
0.904071 0.756418 0.036793
0.926334 0.756664 0.037039
0.948597 0.756910 0.037285
0.970859 0.757157 0.037532
0.987718 0.757343 0.037718
0.987718 0.757343 0.037718
0.044747 0.788787 0.028787
0.065772 0.789019 0.029019
0.086798 0.789252 0.029252
0.107824 0.789485 0.029485
0.128850 0.789717 0.029717
0.149876 0.789950 0.029950
0.170901 0.790183 0.030183
0.191927 0.790415 0.030415
0.221695 0.790745 0.030745
0.258799 0.791155 0.031155
0.295903 0.791566 0.031566
0.333008 0.791976 0.031976
0.370112 0.792387 0.032387
0.407216 0.792798 0.032798
0.444321 0.793208 0.033208
0.481425 0.793619 0.033619
0.522372 0.794072 0.034072
0.564423 0.794537 0.034537
0.606475 0.795002 0.035002
0.648527 0.795468 0.035468
0.690578 0.795933 0.035933
0.732630 0.796398 0.036398
0.774681 0.796864 0.036864
0.816541 0.797327 0.037327
0.838803 0.797573 0.037573
0.861066 0.797820 0.037820
0.883329 0.798066 0.038066
0.905591 0.798312 0.038312
0.927854 0.798559 0.038559
0.950116 0.798805 0.038805
0.972379 0.799051 0.039051
0.989238 0.799238 0.039238
0.989238 0.799238 0.039238
0.045596 0.812198 0.029636
0.066622 0.812431 0.029869
0.087647 0.812664 0.030101
0.108673 0.812896 0.030334
0.129699 0.813129 0.030567
0.150725 0.813362 0.030799
0.171751 0.813594 0.031032
0.192776 0.813827 0.031265
0.222544 0.814156 0.031594
0.259648 0.814567 0.032005
0.296753 0.814978 0.032415
0.333857 0.815388 0.032826
0.370961 0.815799 0.033236
0.408066 0.816209 0.033647
0.445170 0.816620 0.034057
0.482274 0.817031 0.034468
0.523221 0.817484 0.034921
0.565273 0.817949 0.035386
0.607324 0.818414 0.035852
0.649376 0.818880 0.036317
0.691427 0.819345 0.036782
0.733479 0.819810 0.037248
0.775531 0.820276 0.037713
0.817390 0.820739 0.038176
0.839653 0.820985 0.038423
0.861915 0.821231 0.038669
0.884178 0.821478 0.038915
0.906440 0.821724 0.039162
0.928703 0.821971 0.039408
0.950966 0.822217 0.039654
0.973228 0.822463 0.039901
0.990087 0.822650 0.040087
0.990087 0.822650 0.040087
0.046445 0.835610 0.030485
0.067471 0.835843 0.030718
0.088497 0.836076 0.030951
0.109523 0.836308 0.031183
0.130548 0.836541 0.031416
0.151574 0.836774 0.031649
0.172600 0.837006 0.031881
0.193626 0.837239 0.032114
0.223393 0.837568 0.032443
0.260498 0.837979 0.032854
0.297602 0.838389 0.033264
0.334706 0.838800 0.033675
0.371811 0.839211 0.034086
0.408915 0.839621 0.034496
0.446019 0.840032 0.034907
0.483124 0.840442 0.035317
0.524070 0.840895 0.035770
0.566122 0.841361 0.036236
0.608174 0.841826 0.036701
0.650225 0.842291 0.037166
0.692277 0.842757 0.037632
0.734328 0.843222 0.038097
0.776380 0.843687 0.038562
0.818239 0.844151 0.039026
0.840502 0.844397 0.039272
0.862765 0.844643 0.039518
0.885027 0.844890 0.039765
