docs/brainstorm/marketing-site/luts/C_WarmNeutralCinematic.cube
TITLE "SuperBad C — Warm-Neutral Cinematic"
LUT_3D_SIZE 9
DOMAIN_MIN 0.0 0.0 0.0
DOMAIN_MAX 1.0 1.0 1.0
0.016139 0.000179 0.000179
0.100242 0.001109 0.001109
0.193087 0.002137 0.002137
0.341504 0.003779 0.003779
0.493764 0.005464 0.005464
0.661970 0.007325 0.007325
0.810195 0.008965 0.008965
0.899246 0.009951 0.009951
0.960630 0.010630 0.010630
0.018999 0.079039 0.003039
0.103103 0.079970 0.003970
0.195947 0.080997 0.004997
0.344365 0.082640 0.006640
0.496625 0.084325 0.008325
0.664831 0.086186 0.010186
0.813056 0.087826 0.011826
0.902107 0.088812 0.012812
0.963491 0.089491 0.013491
0.021860 0.157900 0.005900
0.105963 0.158831 0.006831
0.198808 0.159858 0.007858
0.347226 0.161501 0.009501
0.499485 0.163185 0.011185
0.667692 0.165047 0.013047
0.815917 0.166687 0.014687
0.904967 0.167672 0.015672
0.966352 0.168352 0.016352
0.027224 0.305764 0.011264
0.111327 0.306695 0.012195
0.204172 0.307722 0.013222
0.352590 0.309365 0.014865
0.504849 0.311049 0.016549
0.673056 0.312911 0.018411
0.821281 0.314551 0.020051
0.910331 0.315536 0.021036
0.971716 0.316216 0.021716
0.032588 0.453628 0.016628
0.116691 0.454559 0.017559
0.209536 0.455586 0.018586
0.357954 0.457229 0.020229
0.510213 0.458913 0.021913
0.678420 0.460775 0.023775
0.826645 0.462415 0.025415
0.915695 0.463400 0.026400
0.977080 0.464080 0.027080
0.038667 0.621207 0.022707
0.122771 0.622138 0.023638
0.215615 0.623165 0.024665
0.364033 0.624808 0.026308
0.516293 0.626493 0.027993
0.684499 0.628354 0.029854
0.832724 0.629994 0.031494
0.921775 0.630980 0.032480
0.983159 0.631659 0.033159
0.044747 0.788787 0.028787
0.128850 0.789717 0.029717
0.221695 0.790745 0.030745
0.370112 0.792387 0.032387
0.522372 0.794072 0.034072
0.690578 0.795933 0.035933
0.838803 0.797573 0.037573
0.927854 0.798559 0.038559
0.989238 0.799238 0.039238
0.048144 0.882434 0.032184
0.132247 0.883364 0.033114
0.225092 0.884392 0.034142
0.373509 0.886034 0.035784
0.525769 0.887719 0.037469
0.693975 0.889580 0.039330
0.842201 0.891221 0.040971
0.931251 0.892206 0.041956
0.992635 0.892885 0.042635
0.051541 0.976081 0.035581
0.135644 0.977012 0.036512
0.228489 0.978039 0.037539
0.376906 0.979681 0.039181
0.529166 0.981366 0.040866
0.697373 0.983228 0.042728
0.845598 0.984868 0.044368
0.934648 0.985853 0.045353
0.996032 0.986532 0.046032
0.016390 0.000430 0.066693
0.100494 0.001361 0.067624
0.193338 0.002388 0.068651
0.341756 0.004031 0.070293
0.494016 0.005716 0.071978
0.662222 0.007577 0.073839
0.810447 0.009217 0.075480
0.899498 0.010203 0.076465
0.960882 0.010882 0.077144
0.019251 0.079291 0.069554
0.103354 0.080222 0.070484
0.196199 0.081249 0.071512
0.344617 0.082892 0.073154
0.496876 0.084576 0.074839
0.665083 0.086438 0.076700
0.813308 0.088078 0.078340
0.902358 0.089063 0.079326
0.963743 0.089743 0.080005
0.022112 0.158152 0.072414
0.106215 0.159083 0.073345
0.199060 0.160110 0.074373
0.347477 0.161752 0.076015
0.499737 0.163437 0.077700
0.667944 0.165299 0.079561
0.816169 0.166939 0.081201
0.905219 0.167924 0.082187
0.966603 0.168603 0.082866
0.027476 0.306016 0.077778
0.111579 0.306947 0.078709
0.204424 0.307974 0.079737
0.352841 0.309616 0.081379
0.505101 0.311301 0.083064
0.673308 0.313163 0.084925
0.821533 0.314803 0.086565
0.910583 0.315788 0.087551
0.971967 0.316467 0.088230
0.032840 0.453880 0.083142
0.116943 0.454811 0.084073
0.209788 0.455838 0.085101
0.358205 0.457480 0.086743
0.510465 0.459165 0.088428
0.678672 0.461027 0.090289
0.826897 0.462667 0.091929
0.915947 0.463652 0.092915
0.977331 0.464331 0.093594
0.038919 0.621459 0.089222
0.123022 0.622390 0.090152
0.215867 0.623417 0.091180
0.364285 0.625060 0.092822
0.516544 0.626744 0.094507
0.684751 0.628606 0.096368
0.832976 0.630246 0.098008
0.922026 0.631231 0.098994
0.983411 0.631911 0.099673
0.044998 0.789038 0.095301
0.129102 0.789969 0.096232
0.221946 0.790996 0.097259
0.370364 0.792639 0.098901
0.522624 0.794324 0.100586
0.690830 0.796185 0.102447
0.839055 0.797825 0.104088
0.928106 0.798811 0.105073
0.989490 0.799490 0.105752
0.048396 0.882686 0.098698
0.132499 0.883616 0.099629
0.225344 0.884644 0.100656
0.373761 0.886286 0.102298
0.526021 0.887971 0.103983
0.694227 0.889832 0.105845
0.842452 0.891472 0.107485
0.931503 0.892458 0.108470
0.992887 0.893137 0.109149
0.051793 0.976333 0.102095
0.135896 0.977263 0.103026
0.228741 0.978291 0.104053
0.377158 0.979933 0.105696
0.529418 0.981618 0.107381
0.697624 0.983479 0.109242
0.845850 0.985120 0.110882
0.934900 0.986105 0.111867
0.996284 0.986784 0.112547
0.016653 0.000693 0.136068
0.100756 0.001624 0.136999
0.193601 0.002651 0.138026
0.342018 0.004293 0.139668
0.494278 0.005978 0.141353
0.662485 0.007840 0.143215
0.810710 0.009480 0.144855
0.899760 0.010465 0.145840
0.961144 0.011144 0.146519
0.019514 0.079554 0.138929
0.103617 0.080484 0.139859
0.196462 0.081512 0.140887
0.344879 0.083154 0.142529
0.497139 0.084839 0.144214
0.665345 0.086700 0.146075
0.813571 0.088341 0.147716
0.902621 0.089326 0.148701
0.964005 0.090005 0.149380
0.022375 0.158415 0.141790
0.106478 0.159345 0.142720
0.199323 0.160373 0.143748
0.347740 0.162015 0.145390
0.500000 0.163700 0.147075
0.668206 0.165561 0.148936
0.816431 0.167201 0.150576
0.905482 0.168187 0.151562
0.966866 0.168866 0.152241
0.027739 0.306279 0.147154
0.111842 0.307209 0.148084
0.204687 0.308237 0.149112
0.353104 0.309879 0.150754
0.505364 0.311564 0.152439
0.673570 0.313425 0.154300
0.821795 0.315065 0.155940
0.910846 0.316051 0.156926
0.972230 0.316730 0.157605
0.033103 0.454143 0.152518
0.117206 0.455073 0.153448
0.210051 0.456101 0.154476
0.358468 0.457743 0.156118
0.510728 0.459428 0.157803
0.678934 0.461289 0.159664
0.827159 0.462929 0.161304
0.916210 0.463915 0.162290
0.977594 0.464594 0.162969
0.039182 0.621722 0.158597
0.123285 0.622652 0.159527
0.216130 0.623680 0.160555
0.364547 0.625322 0.162197
0.516807 0.627007 0.163882
0.685013 0.628868 0.165743
0.833239 0.630509 0.167384
0.922289 0.631494 0.168369
0.983673 0.632173 0.169048
0.045261 0.789301 0.164676
0.129364 0.790232 0.165607
0.222209 0.791259 0.166634
0.370626 0.792901 0.168276
0.522886 0.794586 0.169961
0.691093 0.796448 0.171823
0.839318 0.798088 0.173463
0.928368 0.799073 0.174448
0.989752 0.799752 0.175127
0.048658 0.882948 0.168073
0.132761 0.883879 0.169004
0.225606 0.884906 0.170031
0.374024 0.886549 0.171674
0.526283 0.888233 0.173358
0.694490 0.890095 0.175220
0.842715 0.891735 0.176860
0.931765 0.892720 0.177845
0.993150 0.893400 0.178525
0.052055 0.976595 0.171470
0.136159 0.977526 0.172401
0.229003 0.978553 0.173428
0.377421 0.980196 0.175071
0.529681 0.981881 0.176756
0.697887 0.983742 0.178617
0.846112 0.985382 0.180257
0.935163 0.986368 0.181243
0.996547 0.987047 0.181922
0.017135 0.001175 0.263518
0.101239 0.002106 0.264449
0.194084 0.003134 0.265476
0.342501 0.004776 0.267118
0.494761 0.006461 0.268803
0.662967 0.008322 0.270665
0.811192 0.009962 0.272305
0.900243 0.010948 0.273290
0.961627 0.011627 0.273969
0.019996 0.080036 0.266379
0.104099 0.080967 0.267309
0.196944 0.081994 0.268337
0.345362 0.083637 0.269979
0.497622 0.085322 0.271664
0.665828 0.087183 0.273525
0.814053 0.088823 0.275166
0.903103 0.089808 0.276151
0.964488 0.090488 0.276830
0.022857 0.158897 0.269240
0.106960 0.159828 0.270170
0.199805 0.160855 0.271198
0.348222 0.162497 0.272840
0.500482 0.164182 0.274525
0.668689 0.166044 0.276386
0.816914 0.167684 0.278026
0.905964 0.168669 0.279012
0.967349 0.169349 0.279691
0.028221 0.306761 0.274604
0.112324 0.307692 0.275534
0.205169 0.308719 0.276562
0.353586 0.310361 0.278204
0.505846 0.312046 0.279889
0.674053 0.313908 0.281750
0.822278 0.315548 0.283390
0.911328 0.316533 0.284376
0.972713 0.317213 0.285055
0.033585 0.454625 0.279968
0.117688 0.455556 0.280898
0.210533 0.456583 0.281926
0.358950 0.458225 0.283568
0.511210 0.459910 0.285253
0.679417 0.461772 0.287114
0.827642 0.463412 0.288754
0.916692 0.464397 0.289740
0.978077 0.465077 0.290419
0.039664 0.622204 0.286047
0.123767 0.623135 0.286977
0.216612 0.624162 0.288005
0.365030 0.625805 0.289647
0.517290 0.627490 0.291332
0.685496 0.629351 0.293193
0.833721 0.630991 0.294834
0.922771 0.631976 0.295819
0.984156 0.632656 0.296498
0.045743 0.789783 0.292126
0.129847 0.790714 0.293057
0.222692 0.791742 0.294084
0.371109 0.793384 0.295726
0.523369 0.795069 0.297411
0.691575 0.796930 0.299273
0.839800 0.798570 0.300913
0.928851 0.799556 0.301898
0.990235 0.800235 0.302577
0.049141 0.883431 0.295523
0.133244 0.884361 0.296454
0.226089 0.885389 0.297481
0.374506 0.887031 0.299124
0.526766 0.888716 0.300808
0.694972 0.890577 0.302670
0.843197 0.892217 0.304310
0.932248 0.893203 0.305295
0.993632 0.893882 0.305975
0.052538 0.977078 0.298920
0.136641 0.978009 0.299851
0.229486 0.979036 0.300878
0.377903 0.980678 0.302521
0.530163 0.982363 0.304206
0.698369 0.984224 0.306067
0.846595 0.985865 0.307707
0.935645 0.986850 0.308693
0.997029 0.987529 0.309372
0.017643 0.001683 0.397643
0.101746 0.002614 0.398574
0.194591 0.003641 0.399601
0.343009 0.005284 0.401244
0.495268 0.006968 0.402928
0.663475 0.008830 0.404790
0.811700 0.010470 0.406430
0.900750 0.011455 0.407415
0.962135 0.012135 0.408095
0.020504 0.080544 0.400504
0.104607 0.081475 0.401435
0.197452 0.082502 0.402462
0.345869 0.084144 0.404104
0.498129 0.085829 0.405789
0.666336 0.087691 0.407651
0.814561 0.089331 0.409291
0.903611 0.090316 0.410276
0.964995 0.090995 0.410955
0.023365 0.159405 0.403365
0.107468 0.160335 0.404295
0.200313 0.161363 0.405323
0.348730 0.163005 0.406965
0.500990 0.164690 0.408650
0.669196 0.166551 0.410511
0.817422 0.168192 0.412152
0.906472 0.169177 0.413137
0.967856 0.169856 0.413816
0.028729 0.307269 0.408729
0.112832 0.308199 0.409659
0.205677 0.309227 0.410687
0.354094 0.310869 0.412329
0.506354 0.312554 0.414014
0.674560 0.314415 0.415875
0.822786 0.316056 0.417516
0.911836 0.317041 0.418501
0.973220 0.317720 0.419180
0.034093 0.455133 0.414093
0.118196 0.456063 0.415023
0.211041 0.457091 0.416051
0.359458 0.458733 0.417693
0.511718 0.460418 0.419378
0.679924 0.462279 0.421239
0.828150 0.463920 0.422880
0.917200 0.464905 0.423865
0.978584 0.465584 0.424544
0.040172 0.622712 0.420172
0.124275 0.623643 0.421103
0.217120 0.624670 0.422130
0.365537 0.626312 0.423772
0.517797 0.627997 0.425457
0.686004 0.629859 0.427319
0.834229 0.631499 0.428959
0.923279 0.632484 0.429944
0.984663 0.633163 0.430623
0.046251 0.790291 0.426251
0.130354 0.791222 0.427182
0.223199 0.792249 0.428209
0.371617 0.793892 0.429852
0.523876 0.795576 0.431536
0.692083 0.797438 0.433398
0.840308 0.799078 0.435038
0.929358 0.800063 0.436023
0.990743 0.800743 0.436703
0.049648 0.883938 0.429648
0.133752 0.884869 0.430579
0.226596 0.885896 0.431606
0.375014 0.887539 0.433249
0.527274 0.889224 0.434934
0.695480 0.891085 0.436795
0.843705 0.892725 0.438435
0.932756 0.893711 0.439421
0.994140 0.894390 0.440100
0.053046 0.977586 0.433046
0.137149 0.978516 0.433976
0.229994 0.979544 0.435004
0.378411 0.981186 0.436646
0.530671 0.982871 0.438331
0.698877 0.984732 0.440192
0.847102 0.986372 0.441832
0.936153 0.987358 0.442818
0.997537 0.988037 0.443497
0.018195 0.002235 0.543355
0.102298 0.003165 0.544285
0.195143 0.004193 0.545313
0.343560 0.005835 0.546955
0.495820 0.007520 0.548640
0.664026 0.009381 0.550501
0.812252 0.011022 0.552142
0.901302 0.012007 0.553127
0.962686 0.012686 0.553806
0.021056 0.081096 0.546216
0.105159 0.082026 0.547146
0.198004 0.083054 0.548174
0.346421 0.084696 0.549816
0.498681 0.086381 0.551501
0.666887 0.088242 0.553362
0.815112 0.089882 0.555002
0.904163 0.090868 0.555988
0.965547 0.091547 0.556667
0.023916 0.159956 0.549076
0.108020 0.160887 0.550007
0.200864 0.161914 0.551034
0.349282 0.163557 0.552677
0.501542 0.165242 0.554362
0.669748 0.167103 0.556223
0.817973 0.168743 0.557863
0.907024 0.169729 0.558849
0.968408 0.170408 0.559528
0.029280 0.307820 0.554440
0.113384 0.308751 0.555371
0.206228 0.309778 0.556398
0.354646 0.311421 0.558041
0.506906 0.313106 0.559726
0.675112 0.314967 0.561587
0.823337 0.316607 0.563227
0.912388 0.317593 0.564213
0.973772 0.318272 0.564892
0.034644 0.455684 0.559804
0.118748 0.456615 0.560735
0.211592 0.457642 0.561762
0.360010 0.459285 0.563405
0.512270 0.460970 0.565090
0.680476 0.462831 0.566951
0.828701 0.464471 0.568591
0.917752 0.465457 0.569577
0.979136 0.466136 0.570256
0.040724 0.623264 0.565884
0.124827 0.624194 0.566814
0.217672 0.625222 0.567842
0.366089 0.626864 0.569484
0.518349 0.628549 0.571169
0.686555 0.630410 0.573030
0.834780 0.632050 0.574670
0.923831 0.633036 0.575656
0.985215 0.633715 0.576335
0.046803 0.790843 0.571963
0.130906 0.791773 0.572893
0.223751 0.792801 0.573921
0.372168 0.794443 0.575563
0.524428 0.796128 0.577248
0.692634 0.797989 0.579109
0.840860 0.799630 0.580750
0.929910 0.800615 0.581735
0.991294 0.801294 0.582414
0.050200 0.884490 0.575360
0.134303 0.885421 0.576291
0.227148 0.886448 0.577318
0.375565 0.888090 0.578960
0.527825 0.889775 0.580645
0.696032 0.891637 0.582507
0.844257 0.893277 0.584147
0.933307 0.894262 0.585132
0.994691 0.894941 0.585811
0.053597 0.978137 0.578757
0.137700 0.979068 0.579688
0.230545 0.980095 0.580715
0.378963 0.981738 0.582358
0.531222 0.983422 0.584042
0.699429 0.985284 0.585904
0.847654 0.986924 0.587544
0.936704 0.987909 0.588529
0.998089 0.988589 0.589209
0.018755 0.002795 0.691355
0.102858 0.003726 0.692286
0.195703 0.004753 0.693313
0.344120 0.006395 0.694955
0.496380 0.008080 0.696640
0.664587 0.009942 0.698502
0.812812 0.011582 0.700142
0.901862 0.012567 0.701127
0.963247 0.013247 0.701807
0.021616 0.081656 0.694216
0.105719 0.082587 0.695147
0.198564 0.083614 0.696174
0.346981 0.085256 0.697816
0.499241 0.086941 0.699501
0.667447 0.088802 0.701362
0.815673 0.090443 0.703003
0.904723 0.091428 0.703988
0.966107 0.092107 0.704667
0.024477 0.160517 0.697077
0.108580 0.161447 0.698007
0.201425 0.162475 0.699035
0.349842 0.164117 0.700677
0.502102 0.165802 0.702362
0.670308 0.167663 0.704223
0.818533 0.169303 0.705863
0.907584 0.170289 0.706849
0.968968 0.170968 0.707528
0.029841 0.308381 0.702441
0.113944 0.309311 0.703371
0.206789 0.310339 0.704399
0.355206 0.311981 0.706041
0.507466 0.313666 0.707726
0.675672 0.315527 0.709587
0.823897 0.317167 0.711227
0.912948 0.318153 0.712213
0.974332 0.318832 0.712892
0.035205 0.456245 0.707805
0.119308 0.457175 0.708735
0.212153 0.458203 0.709763
0.360570 0.459845 0.711405
0.512830 0.461530 0.713090
0.681036 0.463391 0.714951
0.829261 0.465031 0.716591
0.918312 0.466017 0.717577
0.979696 0.466696 0.718256
0.041284 0.623824 0.713884
0.125387 0.624755 0.714815
0.218232 0.625782 0.715842
0.366649 0.627424 0.717484
0.518909 0.629109 0.719169
0.687115 0.630970 0.721030
0.835341 0.632611 0.722671
0.924391 0.633596 0.723656
0.985775 0.634275 0.724335
0.047363 0.791403 0.719963
0.131466 0.792334 0.720894
0.224311 0.793361 0.721921
0.372728 0.795003 0.723563
0.524988 0.796688 0.725248
0.693195 0.798550 0.727110
0.841420 0.800190 0.728750
0.930470 0.801175 0.729735
0.991855 0.801855 0.730415
0.050760 0.885050 0.723360
0.134863 0.885981 0.724291
0.227708 0.887008 0.725318
0.376126 0.888651 0.726961
0.528386 0.890336 0.728646
0.696592 0.892197 0.730507
0.844817 0.893837 0.732147
0.933867 0.894822 0.733132
0.995252 0.895502 0.733812
0.054158 0.978698 0.726758
0.138261 0.979628 0.727688
0.231106 0.980656 0.728716
0.379523 0.982298 0.730358
0.531783 0.983983 0.732043
0.699989 0.985844 0.733904
0.848214 0.987484 0.735544
0.937265 0.988470 0.736530
0.998649 0.989149 0.737209
0.019139 0.003179 0.792867
0.103243 0.004110 0.793798
0.196087 0.005137 0.794825
0.344505 0.006780 0.796467
0.496765 0.008465 0.798152
0.664971 0.010326 0.800013
0.813196 0.011966 0.801654
0.902247 0.012952 0.802639
0.963631 0.013631 0.803318
0.022000 0.082040 0.795728
0.106103 0.082971 0.796658
0.198948 0.083998 0.797686
0.347366 0.085641 0.799328
0.499625 0.087325 0.801013
0.667832 0.089187 0.802874
0.816057 0.090827 0.804514
0.905107 0.091812 0.805500
0.966492 0.092492 0.806179
0.024861 0.160901 0.798588
0.108964 0.161832 0.799519
0.201809 0.162859 0.800547
0.350226 0.164501 0.802189
0.502486 0.166186 0.803874
0.670693 0.168048 0.805735
0.818918 0.169688 0.807375
0.907968 0.170673 0.808361
0.969352 0.171352 0.809040
0.030225 0.308765 0.803952
0.114328 0.309696 0.804883
0.207173 0.310723 0.805911
0.355590 0.312365 0.807553
0.507850 0.314050 0.809238
0.676057 0.315912 0.811099
0.824282 0.317552 0.812739
0.913332 0.318537 0.813725
0.974716 0.319216 0.814404
0.035589 0.456629 0.809316
0.119692 0.457560 0.810247
0.212537 0.458587 0.811275
0.360954 0.460229 0.812917
0.513214 0.461914 0.814602
0.681421 0.463776 0.816463
0.829646 0.465416 0.818103
0.918696 0.466401 0.819089
0.980080 0.467080 0.819768
0.041668 0.624208 0.815396
0.125771 0.625139 0.816326
0.218616 0.626166 0.817354
0.367034 0.627809 0.818996
0.519293 0.629493 0.820681
0.687500 0.631355 0.822542
0.835725 0.632995 0.824182
0.924775 0.633980 0.825168
0.986160 0.634660 0.825847
0.047747 0.791787 0.821475
0.131851 0.792718 0.822406
0.224695 0.793745 0.823433
0.373113 0.795388 0.825075
0.525373 0.797073 0.826760
0.693579 0.798934 0.828621
0.841804 0.800574 0.830262
0.930855 0.801560 0.831247
0.992239 0.802239 0.831926
0.051145 0.885435 0.824872
0.135248 0.886365 0.825803
0.228093 0.887393 0.826830
0.376510 0.889035 0.828472
0.528770 0.890720 0.830157
0.696976 0.892581 0.832019
0.845201 0.894221 0.833659
0.934252 0.895207 0.834644
0.995636 0.895886 0.835324
0.054542 0.979082 0.828269
0.138645 0.980012 0.829200
0.231490 0.981040 0.830227
0.379907 0.982682 0.831870
0.532167 0.984367 0.833555
0.700373 0.986228 0.835416
0.848599 0.987869 0.837056
0.937649 0.988854 0.838041
0.999033 0.989533 0.838721
0.019472 0.003512 0.880742
0.103575 0.004443 0.881673
0.196420 0.005470 0.882700
0.344837 0.007112 0.884342
0.497097 0.008797 0.886027
0.665304 0.010659 0.887889
0.813529 0.012299 0.889529
0.902579 0.013284 0.890514
0.963963 0.013963 0.891193
0.022333 0.082373 0.883603
0.106436 0.083304 0.884534
0.199281 0.084331 0.885561
0.347698 0.085973 0.887203
0.499958 0.087658 0.888888
0.668164 0.089519 0.890749
0.816390 0.091160 0.892390
0.905440 0.092145 0.893375
0.966824 0.092824 0.894054
0.025194 0.161234 0.886464
0.109297 0.162164 0.887394
0.202142 0.163192 0.888422
0.350559 0.164834 0.890064
0.502819 0.166519 0.891749
0.671025 0.168380 0.893610
0.819250 0.170020 0.895250
0.908301 0.171006 0.896236
0.969685 0.171685 0.896915
0.030558 0.309098 0.891828
0.114661 0.310028 0.892758
0.207506 0.311056 0.893786
0.355923 0.312698 0.895428
0.508183 0.314383 0.897113
0.676389 0.316244 0.898974
0.824614 0.317884 0.900614
0.913665 0.318870 0.901600
0.975049 0.319549 0.902279
0.035922 0.456962 0.897192
0.120025 0.457892 0.898122
0.212870 0.458920 0.899150
0.361287 0.460562 0.900792
0.513547 0.462247 0.902477
0.681753 0.464108 0.904338
0.829978 0.465748 0.905978
0.919029 0.466734 0.906964
0.980413 0.467413 0.907643
0.042001 0.624541 0.903271
0.126104 0.625472 0.904202
0.218949 0.626499 0.905229
0.367366 0.628141 0.906871
0.519626 0.629826 0.908556
0.687832 0.631687 0.910417
0.836058 0.633328 0.912058
0.925108 0.634313 0.913043
0.986492 0.634992 0.913722
0.048080 0.792120 0.909350
0.132183 0.793051 0.910281
0.225028 0.794078 0.911308
0.373445 0.795720 0.912950
0.525705 0.797405 0.914635
0.693912 0.799267 0.916497
0.842137 0.800907 0.918137
0.931187 0.801892 0.919122
0.992571 0.802571 0.919801
0.051477 0.885767 0.912747
0.135580 0.886698 0.913678
0.228425 0.887725 0.914705
0.376843 0.889368 0.916348
0.529102 0.891052 0.918032
0.697309 0.892914 0.919894
0.845534 0.894554 0.921534
0.934584 0.895539 0.922519
0.995969 0.896219 0.923199
0.054874 0.979414 0.916144
0.138978 0.980345 0.917075
0.231823 0.981373 0.918103
0.380240 0.983015 0.919745
0.532500 0.984700 0.921430
0.700706 0.986561 0.923291
0.848931 0.988201 0.924931
0.937982 0.989187 0.925917
0.999366 0.989866 0.926596
