docs/brainstorm/marketing-site/luts/D_Documentary.cube
TITLE "SuperBad D — Documentary (neutral counterpart)"
LUT_3D_SIZE 5
DOMAIN_MIN 0.0 0.0 0.0
DOMAIN_MAX 1.0 1.0 1.0
0.030222 0.030222 0.041142
0.184167 0.038931 0.049851
0.393671 0.050783 0.061703
0.604333 0.062701 0.073621
0.761750 0.071606 0.082526
0.059819 0.206537 0.070739
0.213764 0.215246 0.079448
0.423268 0.227098 0.091300
0.633929 0.239015 0.103217
0.791347 0.247921 0.112123
0.100209 0.447153 0.111129
0.254154 0.455862 0.119838
0.463658 0.467714 0.131690
0.674319 0.479631 0.143607
0.831737 0.488537 0.152513
0.140709 0.688425 0.151629
0.294654 0.697134 0.160338
0.504158 0.708986 0.172190
0.714820 0.720904 0.184108
0.872237 0.729809 0.193013
0.172147 0.875707 0.183067
0.326092 0.884416 0.191776
0.535596 0.896268 0.203628
0.746257 0.908185 0.215545
0.903675 0.917091 0.224451
0.033501 0.033501 0.205413
0.187446 0.042210 0.214122
0.396950 0.054062 0.225974
0.607611 0.065979 0.237891
0.765029 0.074885 0.246797
0.063097 0.209815 0.235009
0.217042 0.218524 0.243718
0.426546 0.230376 0.255570
0.637208 0.242294 0.267488
0.794625 0.251199 0.276393
0.103487 0.450431 0.275399
0.257432 0.459140 0.284108
0.466936 0.470992 0.295960
0.677598 0.482910 0.307878
0.835015 0.491815 0.316783
0.143988 0.691704 0.315900
0.297933 0.700413 0.324609
0.507437 0.712265 0.336461
0.718098 0.724182 0.348378
0.875516 0.733088 0.357284
0.175425 0.878985 0.347337
0.329370 0.887694 0.356046
0.538874 0.899546 0.367898
0.749536 0.911464 0.379816
0.906953 0.920369 0.388721
0.037713 0.037713 0.416481
0.191658 0.046422 0.425190
0.401162 0.058274 0.437042
0.611824 0.070192 0.448960
0.769241 0.079097 0.457865
0.067310 0.214028 0.446078
0.221255 0.222737 0.454787
0.430759 0.234589 0.466639
0.641420 0.246506 0.478556
0.798838 0.255412 0.487462
0.107700 0.454644 0.486468
0.261645 0.463353 0.495177
0.471149 0.475205 0.507029
0.681810 0.487122 0.518946
0.839228 0.496028 0.527852
0.148200 0.695916 0.526968
0.302145 0.704625 0.535677
0.511649 0.716477 0.547529
0.722311 0.728395 0.559447
0.879728 0.737300 0.568352
0.179638 0.883198 0.558406
0.333583 0.891907 0.567115
0.543087 0.903759 0.578967
0.753748 0.915676 0.590884
0.911165 0.924581 0.599789
0.041849 0.041849 0.623729
0.195794 0.050558 0.632438
0.405298 0.062410 0.644290
0.615960 0.074328 0.656208
0.773377 0.083233 0.665113
0.071446 0.218164 0.653326
0.225391 0.226873 0.662035
0.434895 0.238725 0.673887
0.645556 0.250642 0.685804
0.802974 0.259548 0.694710
0.111836 0.458780 0.693716
0.265781 0.467489 0.702425
0.475285 0.479341 0.714277
0.685947 0.491259 0.726195
0.843364 0.500164 0.735100
0.152336 0.700052 0.734216
0.306281 0.708761 0.742925
0.515785 0.720613 0.754777
0.726447 0.732531 0.766695
0.883864 0.741436 0.775600
0.183774 0.887334 0.765654
0.337719 0.896043 0.774363
0.547223 0.907895 0.786215
0.757884 0.919812 0.798132
0.915302 0.928718 0.807038
0.044772 0.044772 0.770172
0.198717 0.053481 0.778881
0.408221 0.065333 0.790733
0.618883 0.077251 0.802651
0.776300 0.086156 0.811556
0.074369 0.221087 0.799769
0.228313 0.229795 0.808477
0.437817 0.241647 0.820329
0.648479 0.253565 0.832247
0.805896 0.262470 0.841152
0.114759 0.461703 0.840159
0.268704 0.470412 0.848868
0.478208 0.482264 0.860720
0.688869 0.494181 0.872637
0.846287 0.503087 0.881543
0.155259 0.702975 0.880659
0.309204 0.711684 0.889368
0.518708 0.723536 0.901220
0.729370 0.735454 0.913138
0.886787 0.744359 0.922043
0.186696 0.890256 0.912096
0.340641 0.898965 0.920805
0.550145 0.910817 0.932657
0.760807 0.922735 0.944575
0.918224 0.931640 0.953480
