docs/brainstorm/marketing-site/luts/D_Documentary.cube
TITLE "SuperBad D — Documentary (neutral counterpart)"
LUT_3D_SIZE 33
DOMAIN_MIN 0.0 0.0 0.0
DOMAIN_MAX 1.0 1.0 1.0
0.030222 0.030222 0.041142
0.049465 0.031311 0.042231
0.068709 0.032400 0.043320
0.087952 0.033488 0.044408
0.107195 0.034577 0.045497
0.126438 0.035665 0.046585
0.145681 0.036754 0.047674
0.164924 0.037843 0.048763
0.184167 0.038931 0.049851
0.209343 0.040356 0.051276
0.235675 0.041845 0.052765
0.262008 0.043335 0.054255
0.288341 0.044825 0.055745
0.314673 0.046314 0.057234
0.341006 0.047804 0.058724
0.367339 0.049294 0.060214
0.393671 0.050783 0.061703
0.420004 0.052273 0.063193
0.446337 0.053763 0.064683
0.472669 0.055252 0.066172
0.499002 0.056742 0.067662
0.525335 0.058232 0.069152
0.551667 0.059721 0.070641
0.578000 0.061211 0.072131
0.604333 0.062701 0.073621
0.627048 0.063986 0.074906
0.646292 0.065075 0.075995
0.665535 0.066163 0.077083
0.684778 0.067252 0.078172
0.704021 0.068340 0.079260
0.723264 0.069429 0.080349
0.742507 0.070518 0.081438
0.761750 0.071606 0.082526
0.033922 0.052262 0.044842
0.053165 0.053350 0.045931
0.072408 0.054439 0.047019
0.091651 0.055528 0.048108
0.110894 0.056616 0.049196
0.130138 0.057705 0.050285
0.149381 0.058793 0.051374
0.168624 0.059882 0.052462
0.187867 0.060971 0.053551
0.213042 0.062395 0.054975
0.239375 0.063885 0.056465
0.265707 0.065374 0.057954
0.292040 0.066864 0.059444
0.318373 0.068354 0.060934
0.344706 0.069843 0.062424
0.371038 0.071333 0.063913
0.397371 0.072823 0.065403
0.423704 0.074312 0.066893
0.450036 0.075802 0.068382
0.476369 0.077292 0.069872
0.502702 0.078781 0.071362
0.529034 0.080271 0.072851
0.555367 0.081761 0.074341
0.581700 0.083250 0.075831
0.608032 0.084740 0.077320
0.630748 0.086025 0.078605
0.649991 0.087114 0.079694
0.669234 0.088202 0.080783
0.688477 0.089291 0.081871
0.707720 0.090380 0.082960
0.726964 0.091468 0.084049
0.746207 0.092557 0.085137
0.765450 0.093646 0.086226
0.037621 0.074301 0.048541
0.056865 0.075390 0.049630
0.076108 0.076478 0.050719
0.095351 0.077567 0.051807
0.114594 0.078655 0.052896
0.133837 0.079744 0.053985
0.153080 0.080833 0.055073
0.172323 0.081921 0.056162
0.191566 0.083010 0.057250
0.216742 0.084434 0.058675
0.243074 0.085924 0.060164
0.269407 0.087414 0.061654
0.295740 0.088903 0.063144
0.322072 0.090393 0.064633
0.348405 0.091883 0.066123
0.374738 0.093372 0.067613
0.401070 0.094862 0.069102
0.427403 0.096352 0.070592
0.453736 0.097841 0.072082
0.480069 0.099331 0.073572
0.506401 0.100821 0.075061
0.532734 0.102310 0.076551
0.559067 0.103800 0.078041
0.585399 0.105290 0.079530
0.611732 0.106779 0.081020
0.634448 0.108065 0.082305
0.653691 0.109153 0.083394
0.672934 0.110242 0.084482
0.692177 0.111330 0.085571
0.711420 0.112419 0.086659
0.730663 0.113508 0.087748
0.749906 0.114596 0.088837
0.769149 0.115685 0.089925
0.041321 0.096340 0.052241
0.060564 0.097429 0.053330
0.079807 0.098518 0.054418
0.099050 0.099606 0.055507
0.118294 0.100695 0.056596
0.137537 0.101783 0.057684
0.156780 0.102872 0.058773
0.176023 0.103961 0.059861
0.195266 0.105049 0.060950
0.220441 0.106473 0.062374
0.246774 0.107963 0.063864
0.273107 0.109453 0.065354
0.299439 0.110942 0.066843
0.325772 0.112432 0.068333
0.352105 0.113922 0.069823
0.378437 0.115412 0.071312
0.404770 0.116901 0.072802
0.431103 0.118391 0.074292
0.457435 0.119881 0.075781
0.483768 0.121370 0.077271
0.510101 0.122860 0.078761
0.536433 0.124350 0.080250
0.562766 0.125839 0.081740
0.589099 0.127329 0.083230
0.615432 0.128819 0.084720
0.638147 0.130104 0.086005
0.657390 0.131192 0.087093
0.676633 0.132281 0.088182
0.695876 0.133370 0.089270
0.715120 0.134458 0.090359
0.734363 0.135547 0.091448
0.753606 0.136636 0.092536
0.772849 0.137724 0.093625
0.045021 0.118380 0.055941
0.064264 0.119468 0.057029
0.083507 0.120557 0.058118
0.102750 0.121645 0.059206
0.121993 0.122734 0.060295
0.141236 0.123823 0.061384
0.160479 0.124911 0.062472
0.179722 0.126000 0.063561
0.198966 0.127089 0.064650
0.224141 0.128513 0.066074
0.250473 0.130002 0.067563
0.276806 0.131492 0.069053
0.303139 0.132982 0.070543
0.329471 0.134471 0.072032
0.355804 0.135961 0.073522
0.382137 0.137451 0.075012
0.408470 0.138941 0.076502
0.434802 0.140430 0.077991
0.461135 0.141920 0.079481
0.487468 0.143410 0.080971
0.513800 0.144899 0.082460
0.540133 0.146389 0.083950
0.566466 0.147879 0.085440
0.592798 0.149368 0.086929
0.619131 0.150858 0.088419
0.641847 0.152143 0.089704
0.661090 0.153232 0.090793
0.680333 0.154320 0.091881
0.699576 0.155409 0.092970
0.718819 0.156498 0.094059
0.738062 0.157586 0.095147
0.757305 0.158675 0.096236
0.776548 0.159763 0.097324
0.048720 0.140419 0.059640
0.067963 0.141507 0.060729
0.087206 0.142596 0.061817
0.106449 0.143685 0.062906
0.125693 0.144773 0.063995
0.144936 0.145862 0.065083
0.164179 0.146951 0.066172
0.183422 0.148039 0.067260
0.202665 0.149128 0.068349
0.227840 0.150552 0.069773
0.254173 0.152042 0.071263
0.280506 0.153531 0.072753
0.306838 0.155021 0.074242
0.333171 0.156511 0.075732
0.359504 0.158000 0.077222
0.385836 0.159490 0.078711
0.412169 0.160980 0.080201
0.438502 0.162470 0.081691
0.464834 0.163959 0.083180
0.491167 0.165449 0.084670
0.517500 0.166939 0.086160
0.543833 0.168428 0.087650
0.570165 0.169918 0.089139
0.596498 0.171408 0.090629
0.622831 0.172897 0.092119
0.645546 0.174182 0.093404
0.664789 0.175271 0.094492
0.684032 0.176360 0.095581
0.703276 0.177448 0.096670
0.722519 0.178537 0.097758
0.741762 0.179626 0.098847
0.761005 0.180714 0.099935
0.780248 0.181803 0.101024
0.052420 0.162458 0.063340
0.071663 0.163547 0.064428
0.090906 0.164635 0.065517
0.110149 0.165724 0.066606
0.129392 0.166813 0.067694
0.148635 0.167901 0.068783
0.167878 0.168990 0.069871
0.187122 0.170079 0.070960
0.206365 0.171167 0.072049
0.231540 0.172591 0.073473
0.257873 0.174081 0.074963
0.284205 0.175571 0.076452
0.310538 0.177060 0.077942
0.336871 0.178550 0.079432
0.363203 0.180040 0.080921
0.389536 0.181529 0.082411
0.415869 0.183019 0.083901
0.442201 0.184509 0.085390
0.468534 0.185999 0.086880
0.494867 0.187488 0.088370
0.521199 0.188978 0.089859
0.547532 0.190468 0.091349
0.573865 0.191957 0.092839
0.600197 0.193447 0.094328
0.626530 0.194937 0.095818
0.649246 0.196222 0.097103
0.668489 0.197310 0.098192
0.687732 0.198399 0.099280
0.706975 0.199488 0.100369
0.726218 0.200576 0.101458
0.745461 0.201665 0.102546
0.764704 0.202753 0.103635
0.783948 0.203842 0.104724
0.056119 0.184497 0.067039
0.075362 0.185586 0.068128
0.094605 0.186675 0.069216
0.113849 0.187763 0.070305
0.133092 0.188852 0.071394
0.152335 0.189941 0.072482
0.171578 0.191029 0.073571
0.190821 0.192118 0.074660
0.210064 0.193206 0.075748
0.235239 0.194631 0.077172
0.261572 0.196120 0.078662
0.287905 0.197610 0.080152
0.314237 0.199100 0.081641
0.340570 0.200589 0.083131
0.366903 0.202079 0.084621
0.393236 0.203569 0.086111
0.419568 0.205058 0.087600
0.445901 0.206548 0.089090
0.472234 0.208038 0.090580
0.498566 0.209528 0.092069
0.524899 0.211017 0.093559
0.551232 0.212507 0.095049
0.577564 0.213997 0.096538
0.603897 0.215486 0.098028
0.630230 0.216976 0.099518
0.652945 0.218261 0.100803
0.672188 0.219350 0.101891
0.691432 0.220438 0.102980
0.710675 0.221527 0.104069
0.729918 0.222615 0.105157
0.749161 0.223704 0.106246
0.768404 0.224793 0.107334
0.787647 0.225881 0.108423
0.059819 0.206537 0.070739
0.079062 0.207625 0.071827
0.098305 0.208714 0.072916
0.117548 0.209803 0.074005
0.136791 0.210891 0.075093
0.156034 0.211980 0.076182
0.175277 0.213068 0.077270
0.194521 0.214157 0.078359
0.213764 0.215246 0.079448
0.238939 0.216670 0.080872
0.265272 0.218160 0.082362
0.291604 0.219649 0.083851
0.317937 0.221139 0.085341
0.344270 0.222629 0.086831
0.370602 0.224118 0.088320
0.396935 0.225608 0.089810
0.423268 0.227098 0.091300
0.449600 0.228587 0.092789
0.475933 0.230077 0.094279
0.502266 0.231567 0.095769
0.528599 0.233057 0.097259
0.554931 0.234546 0.098748
0.581264 0.236036 0.100238
0.607597 0.237526 0.101728
0.633929 0.239015 0.103217
0.656645 0.240300 0.104502
0.675888 0.241389 0.105591
0.695131 0.242478 0.106680
0.714374 0.243566 0.107768
0.733617 0.244655 0.108857
0.752860 0.245743 0.109945
0.772104 0.246832 0.111034
0.791347 0.247921 0.112123
0.064771 0.236040 0.075691
0.084014 0.237128 0.076780
0.103257 0.238217 0.077868
0.122501 0.239306 0.078957
0.141744 0.240394 0.080046
0.160987 0.241483 0.081134
0.180230 0.242571 0.082223
0.199473 0.243660 0.083312
0.218716 0.244749 0.084400
0.243891 0.246173 0.085824
0.270224 0.247663 0.087314
0.296557 0.249152 0.088804
0.322889 0.250642 0.090293
0.349222 0.252132 0.091783
0.375555 0.253621 0.093273
0.401887 0.255111 0.094762
0.428220 0.256601 0.096252
0.454553 0.258090 0.097742
0.480886 0.259580 0.099232
0.507218 0.261070 0.100721
0.533551 0.262559 0.102211
0.559884 0.264049 0.103701
0.586216 0.265539 0.105190
0.612549 0.267028 0.106680
0.638882 0.268518 0.108170
0.661597 0.269803 0.109455
0.680840 0.270892 0.110543
0.700083 0.271980 0.111632
0.719327 0.273069 0.112721
0.738570 0.274158 0.113809
0.757813 0.275246 0.114898
0.777056 0.276335 0.115986
0.796299 0.277424 0.117075
0.069834 0.266199 0.080754
0.089077 0.267287 0.081842
0.108320 0.268376 0.082931
0.127563 0.269465 0.084020
0.146806 0.270553 0.085108
0.166049 0.271642 0.086197
0.185292 0.272730 0.087285
0.204536 0.273819 0.088374
0.223779 0.274908 0.089463
0.248954 0.276332 0.090887
0.275287 0.277822 0.092377
0.301619 0.279311 0.093866
0.327952 0.280801 0.095356
0.354285 0.282291 0.096846
0.380617 0.283780 0.098335
0.406950 0.285270 0.099825
0.433283 0.286760 0.101315
0.459615 0.288249 0.102804
0.485948 0.289739 0.104294
0.512281 0.291229 0.105784
0.538613 0.292718 0.107273
0.564946 0.294208 0.108763
0.591279 0.295698 0.110253
0.617612 0.297188 0.111743
0.643944 0.298677 0.113232
0.666660 0.299962 0.114517
0.685903 0.301051 0.115606
0.705146 0.302140 0.116695
0.724389 0.303228 0.117783
0.743632 0.304317 0.118872
0.762875 0.305405 0.119960
0.782118 0.306494 0.121049
0.801362 0.307583 0.122138
0.074896 0.296358 0.085816
0.094139 0.297446 0.086905
0.113383 0.298535 0.087994
0.132626 0.299624 0.089082
0.151869 0.300712 0.090171
0.171112 0.301801 0.091259
0.190355 0.302889 0.092348
0.209598 0.303978 0.093437
0.228841 0.305067 0.094525
0.254016 0.306491 0.095949
0.280349 0.307981 0.097439
0.306682 0.309470 0.098929
0.333014 0.310960 0.100418
0.359347 0.312450 0.101908
0.385680 0.313939 0.103398
0.412013 0.315429 0.104888
0.438345 0.316919 0.106377
0.464678 0.318408 0.107867
0.491011 0.319898 0.109357
0.517343 0.321388 0.110846
0.543676 0.322877 0.112336
0.570009 0.324367 0.113826
0.596341 0.325857 0.115315
0.622674 0.327347 0.116805
0.649007 0.328836 0.118295
0.671722 0.330121 0.119580
0.690965 0.331210 0.120668
0.710209 0.332299 0.121757
0.729452 0.333387 0.122846
0.748695 0.334476 0.123934
0.767938 0.335564 0.125023
0.787181 0.336653 0.126112
0.806424 0.337742 0.127200
0.079959 0.326517 0.090879
0.099202 0.327605 0.091967
0.118445 0.328694 0.093056
0.137688 0.329783 0.094145
0.156931 0.330871 0.095233
0.176174 0.331960 0.096322
0.195418 0.333049 0.097411
0.214661 0.334137 0.098499
0.233904 0.335226 0.099588
0.259079 0.336650 0.101012
0.285412 0.338140 0.102502
0.311744 0.339629 0.103991
0.338077 0.341119 0.105481
0.364410 0.342609 0.106971
0.390742 0.344098 0.108460
0.417075 0.345588 0.109950
0.443408 0.347078 0.111440
0.469740 0.348567 0.112929
0.496073 0.350057 0.114419
0.522406 0.351547 0.115909
0.548739 0.353037 0.117399
0.575071 0.354526 0.118888
0.601404 0.356016 0.120378
0.627737 0.357506 0.121868
0.654069 0.358995 0.123357
0.676785 0.360280 0.124642
0.696028 0.361369 0.125731
0.715271 0.362458 0.126820
0.734514 0.363546 0.127908
0.753757 0.364635 0.128997
0.773000 0.365723 0.130085
0.792244 0.366812 0.131174
0.811487 0.367901 0.132263
0.085021 0.356676 0.095941
0.104264 0.357764 0.097030
0.123508 0.358853 0.098119
0.142751 0.359942 0.099207
0.161994 0.361030 0.100296
0.181237 0.362119 0.101384
0.200480 0.363208 0.102473
0.219723 0.364296 0.103562
0.238966 0.365385 0.104650
0.264142 0.366809 0.106075
0.290474 0.368299 0.107564
0.316807 0.369788 0.109054
0.343140 0.371278 0.110544
0.369472 0.372768 0.112033
0.395805 0.374257 0.113523
0.422138 0.375747 0.115013
0.448470 0.377237 0.116502
0.474803 0.378727 0.117992
0.501136 0.380216 0.119482
0.527468 0.381706 0.120971
0.553801 0.383196 0.122461
0.580134 0.384685 0.123951
0.606466 0.386175 0.125440
0.632799 0.387665 0.126930
0.659132 0.389154 0.128420
0.681847 0.390439 0.129705
0.701091 0.391528 0.130794
0.720334 0.392617 0.131882
0.739577 0.393705 0.132971
0.758820 0.394794 0.134059
0.778063 0.395882 0.135148
0.797306 0.396971 0.136237
0.816549 0.398060 0.137325
0.090084 0.386835 0.101004
0.109327 0.387924 0.102093
0.128570 0.389012 0.103181
0.147813 0.390101 0.104270
0.167056 0.391189 0.105358
0.186299 0.392278 0.106447
0.205543 0.393367 0.107536
0.224786 0.394455 0.108624
0.244029 0.395544 0.109713
0.269204 0.396968 0.111137
0.295537 0.398458 0.112627
0.321869 0.399947 0.114116
0.348202 0.401437 0.115606
0.374535 0.402927 0.117096
0.400867 0.404416 0.118585
0.427200 0.405906 0.120075
0.453533 0.407396 0.121565
0.479866 0.408886 0.123055
0.506198 0.410375 0.124544
0.532531 0.411865 0.126034
0.558864 0.413355 0.127524
0.585196 0.414844 0.129013
0.611529 0.416334 0.130503
0.637862 0.417824 0.131993
0.664194 0.419313 0.133482
0.686910 0.420598 0.134767
0.706153 0.421687 0.135856
0.725396 0.422776 0.136945
0.744639 0.423864 0.138033
0.763882 0.424953 0.139122
0.783126 0.426042 0.140211
0.802369 0.427130 0.141299
0.821612 0.428219 0.142388
0.095146 0.416994 0.106066
0.114390 0.418083 0.107155
0.133633 0.419171 0.108244
0.152876 0.420260 0.109332
0.172119 0.421348 0.110421
0.191362 0.422437 0.111510
0.210605 0.423526 0.112598
0.229848 0.424614 0.113687
0.249091 0.425703 0.114775
0.274267 0.427127 0.116200
0.300599 0.428617 0.117689
0.326932 0.430106 0.119179
0.353265 0.431596 0.120669
0.379597 0.433086 0.122158
0.405930 0.434576 0.123648
0.432263 0.436065 0.125138
0.458595 0.437555 0.126627
0.484928 0.439045 0.128117
0.511261 0.440534 0.129607
0.537593 0.442024 0.131096
0.563926 0.443514 0.132586
0.590259 0.445003 0.134076
0.616592 0.446493 0.135566
0.642924 0.447983 0.137055
0.669257 0.449472 0.138545
0.691972 0.450757 0.139830
0.711216 0.451846 0.140919
0.730459 0.452935 0.142007
0.749702 0.454023 0.143096
0.768945 0.455112 0.144184
0.788188 0.456201 0.145273
0.807431 0.457289 0.146362
0.826674 0.458378 0.147450
0.100209 0.447153 0.111129
0.119452 0.448242 0.112218
0.138695 0.449330 0.113306
0.157938 0.450419 0.114395
0.177181 0.451507 0.115483
0.196425 0.452596 0.116572
0.215668 0.453685 0.117661
0.234911 0.454773 0.118749
0.254154 0.455862 0.119838
0.279329 0.457286 0.121262
0.305662 0.458776 0.122752
0.331995 0.460266 0.124242
0.358327 0.461755 0.125731
0.384660 0.463245 0.127221
0.410993 0.464735 0.128711
0.437325 0.466224 0.130200
0.463658 0.467714 0.131690
0.489991 0.469204 0.133180
0.516323 0.470693 0.134669
0.542656 0.472183 0.136159
0.568989 0.473673 0.137649
0.595321 0.475162 0.139138
0.621654 0.476652 0.140628
0.647987 0.478142 0.142118
0.674319 0.479631 0.143607
0.697035 0.480917 0.144893
0.716278 0.482005 0.145981
0.735521 0.483094 0.147070
0.754764 0.484182 0.148158
0.774007 0.485271 0.149247
0.793251 0.486360 0.150336
0.812494 0.487448 0.151424
0.831737 0.488537 0.152513
0.105272 0.477312 0.116192
0.124515 0.478401 0.117280
0.143758 0.479489 0.118369
0.163001 0.480578 0.119457
0.182244 0.481667 0.120546
0.201487 0.482755 0.121635
0.220730 0.483844 0.122723
0.239973 0.484932 0.123812
0.259216 0.486021 0.124900
0.284392 0.487445 0.126325
0.310724 0.488935 0.127814
0.337057 0.490425 0.129304
0.363390 0.491914 0.130794
0.389722 0.493404 0.132283
0.416055 0.494894 0.133773
0.442388 0.496383 0.135263
0.468721 0.497873 0.136753
0.495053 0.499363 0.138242
0.521386 0.500852 0.139732
0.547719 0.502342 0.141222
0.574051 0.503832 0.142711
0.600384 0.505321 0.144201
0.626717 0.506811 0.145691
0.653049 0.508301 0.147180
0.679382 0.509791 0.148670
0.702098 0.511076 0.149955
0.721341 0.512164 0.151044
0.740584 0.513253 0.152132
0.759827 0.514341 0.153221
0.779070 0.515430 0.154310
0.798313 0.516519 0.155398
0.817556 0.517607 0.156487
0.836799 0.518696 0.157575
0.110334 0.507471 0.121254
0.129577 0.508560 0.122343
0.148820 0.509648 0.123431
0.168063 0.510737 0.124520
0.187307 0.511826 0.125609
0.206550 0.512914 0.126697
0.225793 0.514003 0.127786
0.245036 0.515091 0.128874
0.264279 0.516180 0.129963
0.289454 0.517604 0.131387
0.315787 0.519094 0.132877
0.342120 0.520584 0.134367
0.368452 0.522073 0.135856
0.394785 0.523563 0.137346
0.421118 0.525053 0.138836
0.447450 0.526542 0.140325
0.473783 0.528032 0.141815
0.500116 0.529522 0.143305
0.526448 0.531011 0.144794
0.552781 0.532501 0.146284
0.579114 0.533991 0.147774
0.605446 0.535480 0.149263
0.631779 0.536970 0.150753
0.658112 0.538460 0.152243
0.684445 0.539950 0.153733
0.707160 0.541235 0.155018
0.726403 0.542323 0.156106
0.745646 0.543412 0.157195
0.764889 0.544500 0.158283
0.784133 0.545589 0.159372
0.803376 0.546678 0.160461
0.822619 0.547766 0.161549
0.841862 0.548855 0.162638
0.115397 0.537630 0.126317
0.134640 0.538719 0.127405
0.153883 0.539807 0.128494
0.173126 0.540896 0.129582
0.192369 0.541985 0.130671
0.211612 0.543073 0.131760
0.230855 0.544162 0.132848
0.250098 0.545250 0.133937
0.269342 0.546339 0.135026
0.294517 0.547763 0.136450
0.320849 0.549253 0.137939
0.347182 0.550743 0.139429
0.373515 0.552232 0.140919
0.399848 0.553722 0.142409
0.426180 0.555212 0.143898
0.452513 0.556701 0.145388
0.478846 0.558191 0.146878
0.505178 0.559681 0.148367
0.531511 0.561170 0.149857
0.557844 0.562660 0.151347
0.584176 0.564150 0.152836
0.610509 0.565640 0.154326
0.636842 0.567129 0.155816
0.663174 0.568619 0.157305
0.689507 0.570109 0.158795
0.712223 0.571394 0.160080
0.731466 0.572482 0.161169
0.750709 0.573571 0.162257
0.769952 0.574660 0.163346
0.789195 0.575748 0.164435
0.808438 0.576837 0.165523
0.827681 0.577925 0.166612
0.846924 0.579014 0.167700
0.120459 0.567789 0.131379
0.139702 0.568878 0.132468
0.158945 0.569966 0.133556
0.178189 0.571055 0.134645
0.197432 0.572144 0.135734
0.216675 0.573232 0.136822
0.235918 0.574321 0.137911
0.255161 0.575409 0.138999
0.274404 0.576498 0.140088
0.299579 0.577922 0.141512
0.325912 0.579412 0.143002
0.352245 0.580902 0.144492
0.378577 0.582391 0.145981
0.404910 0.583881 0.147471
0.431243 0.585371 0.148961
0.457575 0.586860 0.150450
0.483908 0.588350 0.151940
0.510241 0.589840 0.153430
0.536574 0.591330 0.154920
0.562906 0.592819 0.156409
0.589239 0.594309 0.157899
0.615572 0.595799 0.159389
0.641904 0.597288 0.160878
0.668237 0.598778 0.162368
0.694570 0.600268 0.163858
0.717285 0.601553 0.165143
0.736528 0.602641 0.166231
0.755771 0.603730 0.167320
0.775015 0.604819 0.168409
0.794258 0.605907 0.169497
0.813501 0.606996 0.170586
0.832744 0.608084 0.171674
0.851987 0.609173 0.172763
0.125522 0.597948 0.136442
0.144765 0.599037 0.137530
0.164008 0.600125 0.138619
0.183251 0.601214 0.139708
0.202494 0.602303 0.140796
0.221737 0.603391 0.141885
0.240980 0.604480 0.142973
0.260224 0.605569 0.144062
0.279467 0.606657 0.145151
0.304642 0.608081 0.146575
0.330975 0.609571 0.148065
0.357307 0.611061 0.149554
0.383640 0.612550 0.151044
0.409973 0.614040 0.152534
0.436305 0.615530 0.154023
0.462638 0.617019 0.155513
0.488971 0.618509 0.157003
0.515303 0.619999 0.158492
0.541636 0.621489 0.159982
0.567969 0.622978 0.161472
0.594301 0.624468 0.162961
0.620634 0.625958 0.164451
0.646967 0.627447 0.165941
0.673299 0.628937 0.167430
0.699632 0.630427 0.168920
0.722348 0.631712 0.170205
0.741591 0.632800 0.171294
0.760834 0.633889 0.172382
0.780077 0.634978 0.173471
0.799320 0.636066 0.174560
0.818563 0.637155 0.175648
0.837806 0.638243 0.176737
0.857050 0.639332 0.177826
0.130584 0.628107 0.141504
0.149827 0.629196 0.142593
0.169070 0.630284 0.143681
0.188314 0.631373 0.144770
0.207557 0.632462 0.145859
0.226800 0.633550 0.146947
0.246043 0.634639 0.148036
0.265286 0.635728 0.149125
0.284529 0.636816 0.150213
0.309704 0.638240 0.151637
0.336037 0.639730 0.153127
0.362370 0.641220 0.154617
0.388702 0.642709 0.156106
0.415035 0.644199 0.157596
0.441368 0.645689 0.159086
0.467701 0.647179 0.160576
0.494033 0.648668 0.162065
0.520366 0.650158 0.163555
0.546699 0.651648 0.165045
0.573031 0.653137 0.166534
0.599364 0.654627 0.168024
0.625697 0.656117 0.169514
0.652029 0.657606 0.171003
0.678362 0.659096 0.172493
0.704695 0.660586 0.173983
0.727410 0.661871 0.175268
0.746653 0.662959 0.176356
0.765897 0.664048 0.177445
0.785140 0.665137 0.178534
0.804383 0.666225 0.179622
0.823626 0.667314 0.180711
0.842869 0.668402 0.181799
0.862112 0.669491 0.182888
0.135647 0.658266 0.146567
0.154890 0.659355 0.147655
0.174133 0.660444 0.148744
0.193376 0.661532 0.149833
0.212619 0.662621 0.150921
0.231862 0.663709 0.152010
0.251105 0.664798 0.153098
0.270349 0.665887 0.154187
0.289592 0.666975 0.155276
0.314767 0.668399 0.156700
0.341100 0.669889 0.158190
0.367432 0.671379 0.159679
0.393765 0.672869 0.161169
0.420098 0.674358 0.162659
0.446430 0.675848 0.164148
0.472763 0.677338 0.165638
0.499096 0.678827 0.167128
0.525428 0.680317 0.168617
0.551761 0.681807 0.170107
0.578094 0.683296 0.171597
0.604427 0.684786 0.173087
0.630759 0.686276 0.174576
0.657092 0.687765 0.176066
0.683425 0.689255 0.177556
0.709757 0.690745 0.179045
0.732473 0.692030 0.180330
0.751716 0.693118 0.181419
0.770959 0.694207 0.182508
0.790202 0.695296 0.183596
0.809445 0.696384 0.184685
0.828688 0.697473 0.185773
0.847932 0.698562 0.186862
0.867175 0.699650 0.187951
0.140709 0.688425 0.151629
0.159952 0.689514 0.152718
0.179196 0.690603 0.153807
0.198439 0.691691 0.154895
0.217682 0.692780 0.155984
0.236925 0.693868 0.157072
0.256168 0.694957 0.158161
0.275411 0.696046 0.159250
0.294654 0.697134 0.160338
0.319829 0.698558 0.161762
0.346162 0.700048 0.163252
0.372495 0.701538 0.164742
0.398828 0.703028 0.166232
0.425160 0.704517 0.167721
0.451493 0.706007 0.169211
0.477826 0.707497 0.170701
0.504158 0.708986 0.172190
0.530491 0.710476 0.173680
0.556824 0.711966 0.175170
0.583156 0.713455 0.176659
0.609489 0.714945 0.178149
0.635822 0.716435 0.179639
0.662154 0.717924 0.181128
0.688487 0.719414 0.182618
0.714820 0.720904 0.184108
0.737535 0.722189 0.185393
0.756778 0.723277 0.186481
0.776022 0.724366 0.187570
0.795265 0.725455 0.188659
0.814508 0.726543 0.189747
0.833751 0.727632 0.190836
0.852994 0.728721 0.191925
0.872237 0.729809 0.193013
0.144887 0.713312 0.155807
0.164130 0.714400 0.156895
0.183373 0.715489 0.157984
0.202616 0.716578 0.159073
0.221859 0.717666 0.160161
0.241102 0.718755 0.161250
0.260346 0.719844 0.162339
0.279589 0.720932 0.163427
0.298832 0.722021 0.164516
0.324007 0.723445 0.165940
0.350340 0.724935 0.167430
0.376672 0.726424 0.168919
0.403005 0.727914 0.170409
0.429338 0.729404 0.171899
0.455670 0.730893 0.173388
0.482003 0.732383 0.174878
0.508336 0.733873 0.176368
0.534668 0.735362 0.177857
0.561001 0.736852 0.179347
0.587334 0.738342 0.180837
0.613667 0.739832 0.182327
0.639999 0.741321 0.183816
0.666332 0.742811 0.185306
0.692665 0.744301 0.186796
0.718997 0.745790 0.188285
0.741713 0.747075 0.189570
0.760956 0.748164 0.190659
0.780199 0.749253 0.191748
0.799442 0.750341 0.192836
0.818685 0.751430 0.193925
0.837928 0.752518 0.195013
0.857172 0.753607 0.196102
0.876415 0.754696 0.197191
0.148781 0.736511 0.159701
0.168024 0.737600 0.160790
0.187267 0.738688 0.161878
0.206510 0.739777 0.162967
0.225754 0.740866 0.164056
0.244997 0.741954 0.165144
0.264240 0.743043 0.166233
0.283483 0.744131 0.167321
0.302726 0.745220 0.168410
0.327901 0.746644 0.169834
0.354234 0.748134 0.171324
0.380567 0.749624 0.172814
0.406899 0.751113 0.174303
0.433232 0.752603 0.175793
0.459565 0.754093 0.177283
0.485897 0.755582 0.178772
0.512230 0.757072 0.180262
0.538563 0.758562 0.181752
0.564895 0.760051 0.183241
0.591228 0.761541 0.184731
0.617561 0.763031 0.186221
0.643893 0.764520 0.187710
0.670226 0.766010 0.189200
0.696559 0.767500 0.190690
0.722892 0.768990 0.192180
0.745607 0.770275 0.193465
