docs/brainstorm/marketing-site/luts/D_Documentary.cube
TITLE "SuperBad D — Documentary (neutral counterpart)"
LUT_3D_SIZE 9
DOMAIN_MIN 0.0 0.0 0.0
DOMAIN_MAX 1.0 1.0 1.0
0.030222 0.030222 0.041142
0.107195 0.034577 0.045497
0.184167 0.038931 0.049851
0.288341 0.044825 0.055745
0.393671 0.050783 0.061703
0.499002 0.056742 0.067662
0.604333 0.062701 0.073621
0.684778 0.067252 0.078172
0.761750 0.071606 0.082526
0.045021 0.118380 0.055941
0.121993 0.122734 0.060295
0.198966 0.127089 0.064650
0.303139 0.132982 0.070543
0.408470 0.138941 0.076502
0.513800 0.144899 0.082460
0.619131 0.150858 0.088419
0.699576 0.155409 0.092970
0.776548 0.159763 0.097324
0.059819 0.206537 0.070739
0.136791 0.210891 0.075093
0.213764 0.215246 0.079448
0.317937 0.221139 0.085341
0.423268 0.227098 0.091300
0.528599 0.233057 0.097259
0.633929 0.239015 0.103217
0.714374 0.243566 0.107768
0.791347 0.247921 0.112123
0.079959 0.326517 0.090879
0.156931 0.330871 0.095233
0.233904 0.335226 0.099588
0.338077 0.341119 0.105481
0.443408 0.347078 0.111440
0.548739 0.353037 0.117399
0.654069 0.358995 0.123357
0.734514 0.363546 0.127908
0.811487 0.367901 0.132263
0.100209 0.447153 0.111129
0.177181 0.451507 0.115483
0.254154 0.455862 0.119838
0.358327 0.461755 0.125731
0.463658 0.467714 0.131690
0.568989 0.473673 0.137649
0.674319 0.479631 0.143607
0.754764 0.484182 0.148158
0.831737 0.488537 0.152513
0.120459 0.567789 0.131379
0.197432 0.572144 0.135734
0.274404 0.576498 0.140088
0.378577 0.582391 0.145981
0.483908 0.588350 0.151940
0.589239 0.594309 0.157899
0.694570 0.600268 0.163858
0.775015 0.604819 0.168409
0.851987 0.609173 0.172763
0.140709 0.688425 0.151629
0.217682 0.692780 0.155984
0.294654 0.697134 0.160338
0.398828 0.703028 0.166232
0.504158 0.708986 0.172190
0.609489 0.714945 0.178149
0.714820 0.720904 0.184108
0.795265 0.725455 0.188659
0.872237 0.729809 0.193013
0.156570 0.782910 0.167490
0.233542 0.787264 0.171844
0.310515 0.791619 0.176199
0.414688 0.797512 0.182092
0.520019 0.803471 0.188051
0.625349 0.809429 0.194009
0.730680 0.815388 0.199968
0.811125 0.819939 0.204519
0.888097 0.824293 0.208873
0.172147 0.875707 0.183067
0.249119 0.880061 0.187421
0.326092 0.884416 0.191776
0.430265 0.890309 0.197669
0.535596 0.896268 0.203628
0.640926 0.902226 0.209586
0.746257 0.908185 0.215545
0.826702 0.912736 0.220096
0.903675 0.917091 0.224451
0.031843 0.031843 0.122323
0.108815 0.036197 0.126677
0.185787 0.040551 0.131031
0.289961 0.046445 0.136925
0.395292 0.052404 0.142884
0.500622 0.058362 0.148842
0.605953 0.064321 0.154801
0.686398 0.068872 0.159352
0.763370 0.073226 0.163706
0.046641 0.120000 0.137121
0.123613 0.124354 0.141475
0.200586 0.128709 0.145830
0.304759 0.134602 0.151723
0.410090 0.140561 0.157682
0.515420 0.146519 0.163640
0.620751 0.152478 0.169599
0.701196 0.157029 0.174150
0.778169 0.161384 0.178505
0.061439 0.208157 0.151919
0.138411 0.212511 0.156273
0.215384 0.216866 0.160628
0.319557 0.222759 0.166521
0.424888 0.228718 0.172480
0.530219 0.234677 0.178439
0.635549 0.240635 0.184397
0.715994 0.245186 0.188948
0.792967 0.249541 0.193303
0.081579 0.328137 0.172059
0.158551 0.332491 0.176413
0.235524 0.336846 0.180768
0.339697 0.342739 0.186661
0.445028 0.348698 0.192620
0.550359 0.354657 0.198579
0.655689 0.360615 0.204537
0.736134 0.365166 0.209088
0.813107 0.369521 0.213443
0.101829 0.448773 0.192309
0.178802 0.453128 0.196664
0.255774 0.457482 0.201018
0.359947 0.463375 0.206911
0.465278 0.469334 0.212870
0.570609 0.475293 0.218829
0.675940 0.481252 0.224788
0.756385 0.485803 0.229339
0.833357 0.490157 0.233693
0.122079 0.569409 0.212559
0.199052 0.573764 0.216914
0.276024 0.578118 0.221268
0.380198 0.584012 0.227162
0.485528 0.589970 0.233120
0.590859 0.595929 0.239079
0.696190 0.601888 0.245038
0.776635 0.606439 0.249589
0.853607 0.610793 0.253943
0.142330 0.690046 0.232810
0.219302 0.694400 0.237164
0.296274 0.698754 0.241518
0.400448 0.704648 0.247412
0.505778 0.710606 0.253370
0.611109 0.716565 0.259329
0.716440 0.722524 0.265288
0.796885 0.727075 0.269839
0.873857 0.731429 0.274193
0.158190 0.784530 0.248670
0.235162 0.788884 0.253024
0.312135 0.793239 0.257379
0.416308 0.799132 0.263272
0.521639 0.805091 0.269231
0.626969 0.811049 0.275189
0.732300 0.817008 0.281148
0.812745 0.821559 0.285699
0.889718 0.825914 0.290054
0.173767 0.877327 0.264247
0.250739 0.881681 0.268601
0.327712 0.886036 0.272956
0.431885 0.891929 0.278849
0.537216 0.897888 0.284808
0.642547 0.903847 0.290767
0.747877 0.909805 0.296725
0.828322 0.914356 0.301276
0.905295 0.918711 0.305631
0.033501 0.033501 0.205413
0.110473 0.037855 0.209767
0.187446 0.042210 0.214122
0.291619 0.048103 0.220015
0.396950 0.054062 0.225974
0.502281 0.060021 0.231933
0.607611 0.065979 0.237891
0.688056 0.070530 0.242442
0.765029 0.074885 0.246797
0.048299 0.121658 0.220211
0.125272 0.126013 0.224566
0.202244 0.130367 0.228920
0.306417 0.136260 0.234813
0.411748 0.142219 0.240772
0.517079 0.148178 0.246731
0.622410 0.154137 0.252690
0.702854 0.158687 0.257240
0.779827 0.163042 0.261595
0.063097 0.209815 0.235009
0.140070 0.214170 0.239364
0.217042 0.218524 0.243718
0.321215 0.224417 0.249611
0.426546 0.230376 0.255570
0.531877 0.236335 0.261529
0.637208 0.242294 0.267488
0.717653 0.246845 0.272039
0.794625 0.251199 0.276393
0.083237 0.329795 0.255149
0.160210 0.334150 0.259504
0.237182 0.338504 0.263858
0.341355 0.344397 0.269751
0.446686 0.350356 0.275710
0.552017 0.356315 0.281669
0.657348 0.362274 0.287628
0.737793 0.366825 0.292179
0.814765 0.371179 0.296533
0.103487 0.450431 0.275399
0.180460 0.454786 0.279754
0.257432 0.459140 0.284108
0.361606 0.465034 0.290002
0.466936 0.470992 0.295960
0.572267 0.476951 0.301919
0.677598 0.482910 0.307878
0.758043 0.487461 0.312429
0.835015 0.491815 0.316783
0.123738 0.571068 0.295650
0.200710 0.575422 0.300004
0.277683 0.579777 0.304359
0.381856 0.585670 0.310252
0.487187 0.591629 0.316211
0.592517 0.597587 0.322169
0.697848 0.603546 0.328128
0.778293 0.608097 0.332679
0.855265 0.612451 0.337033
0.143988 0.691704 0.315900
0.220960 0.696058 0.320254
0.297933 0.700413 0.324609
0.402106 0.706306 0.330502
0.507437 0.712265 0.336461
0.612768 0.718224 0.342420
0.718098 0.724182 0.348378
0.798543 0.728733 0.352929
0.875516 0.733088 0.357284
0.159848 0.786188 0.331760
0.236821 0.790543 0.336115
0.313793 0.794897 0.340469
0.417966 0.800790 0.346362
0.523297 0.806749 0.352321
0.628628 0.812708 0.358280
0.733959 0.818667 0.364239
0.814403 0.823217 0.368789
0.891376 0.827572 0.373144
0.175425 0.878985 0.347337
0.252398 0.883340 0.351692
0.329370 0.887694 0.356046
0.433543 0.893587 0.361939
0.538874 0.899546 0.367898
0.644205 0.905505 0.373857
0.749536 0.911464 0.379816
0.829981 0.916015 0.384367
0.906953 0.920369 0.388721
0.035607 0.035607 0.310947
0.112580 0.039962 0.315302
0.189552 0.044316 0.319656
0.293725 0.050209 0.325549
0.399056 0.056168 0.331508
0.504387 0.062127 0.337467
0.609718 0.068086 0.343426
0.690162 0.072636 0.347976
0.767135 0.076991 0.352331
0.050405 0.123764 0.325745
0.127378 0.128119 0.330100
0.204350 0.132473 0.334454
0.308523 0.138366 0.340347
0.413854 0.144325 0.346306
0.519185 0.150284 0.352265
0.624516 0.156243 0.358224
0.704961 0.160794 0.362775
0.781933 0.165148 0.367129
0.065203 0.211921 0.340543
0.142176 0.216276 0.344898
0.219148 0.220630 0.349252
0.323322 0.226524 0.355146
0.428652 0.232482 0.361104
0.533983 0.238441 0.367063
0.639314 0.244400 0.373022
0.719759 0.248951 0.377573
0.796731 0.253305 0.381927
0.085343 0.331901 0.360683
0.162316 0.336256 0.365038
0.239288 0.340610 0.369392
0.343462 0.346504 0.375286
0.448792 0.352462 0.381244
0.554123 0.358421 0.387203
0.659454 0.364380 0.393162
0.739899 0.368931 0.397713
0.816871 0.373285 0.402067
0.105594 0.452538 0.380934
0.182566 0.456892 0.385288
0.259539 0.461247 0.389643
0.363712 0.467140 0.395536
0.469043 0.473099 0.401495
0.574373 0.479057 0.407453
0.679704 0.485016 0.413412
0.760149 0.489567 0.417963
0.837122 0.493922 0.422318
0.125844 0.573174 0.401184
0.202816 0.577528 0.405538
0.279789 0.581883 0.409893
0.383962 0.587776 0.415786
0.489293 0.593735 0.421745
0.594624 0.599694 0.427704
0.699954 0.605652 0.433662
0.780399 0.610203 0.438213
0.857372 0.614558 0.442568
0.146094 0.693810 0.421434
0.223066 0.698164 0.425788
0.300039 0.702519 0.430143
0.404212 0.708412 0.436036
0.509543 0.714371 0.441995
0.614874 0.720330 0.447954
0.720204 0.726288 0.453912
0.800649 0.730839 0.458463
0.877622 0.735194 0.462818
0.161954 0.788294 0.437294
0.238927 0.792649 0.441649
0.315899 0.797003 0.446003
0.420073 0.802897 0.451897
0.525403 0.808855 0.457855
0.630734 0.814814 0.463814
0.736065 0.820773 0.469773
0.816510 0.825324 0.474324
0.893482 0.829678 0.478678
0.177531 0.881091 0.452871
0.254504 0.885446 0.457226
0.331476 0.889800 0.461580
0.435650 0.895694 0.467474
0.540980 0.901652 0.473432
0.646311 0.907611 0.479391
0.751642 0.913570 0.485350
0.832087 0.918121 0.489901
0.909059 0.922475 0.494255
0.037713 0.037713 0.416481
0.114686 0.042068 0.420836
0.191658 0.046422 0.425190
0.295831 0.052315 0.431083
0.401162 0.058274 0.437042
0.506493 0.064233 0.443001
0.611824 0.070192 0.448960
0.692269 0.074743 0.453511
0.769241 0.079097 0.457865
0.052511 0.125870 0.431279
0.129484 0.130225 0.435634
0.206456 0.134579 0.439988
0.310630 0.140473 0.445882
0.415960 0.146431 0.451840
0.521291 0.152390 0.457799
0.626622 0.158349 0.463758
0.707067 0.162900 0.468309
0.784039 0.167254 0.472663
0.067310 0.214028 0.446078
0.144282 0.218382 0.450432
0.221255 0.222737 0.454787
0.325428 0.228630 0.460680
0.430759 0.234589 0.466639
0.536089 0.240547 0.472597
0.641420 0.246506 0.478556
0.721865 0.251057 0.483107
0.798838 0.255412 0.487462
0.087450 0.334008 0.466218
0.164422 0.338362 0.470572
0.241395 0.342717 0.474927
0.345568 0.348610 0.480820
0.450899 0.354569 0.486779
0.556229 0.360527 0.492737
0.661560 0.366486 0.498696
0.742005 0.371037 0.503247
0.818978 0.375392 0.507602
0.107700 0.454644 0.486468
0.184672 0.458998 0.490822
0.261645 0.463353 0.495177
0.365818 0.469246 0.501070
0.471149 0.475205 0.507029
0.576480 0.481164 0.512988
0.681810 0.487122 0.518946
0.762255 0.491673 0.523497
0.839228 0.496028 0.527852
0.127950 0.575280 0.506718
0.204923 0.579635 0.511073
0.281895 0.583989 0.515427
0.386068 0.589882 0.521320
0.491399 0.595841 0.527279
0.596730 0.601800 0.533238
0.702061 0.607759 0.539197
0.782505 0.612309 0.543747
0.859478 0.616664 0.548102
0.148200 0.695916 0.526968
0.225173 0.700271 0.531323
0.302145 0.704625 0.535677
0.406318 0.710518 0.541570
0.511649 0.716477 0.547529
0.616980 0.722436 0.553488
0.722311 0.728395 0.559447
0.802756 0.732946 0.563998
0.879728 0.737300 0.568352
0.164061 0.790401 0.542829
0.241033 0.794755 0.547183
0.318005 0.799109 0.551537
0.422179 0.805003 0.557431
0.527509 0.810961 0.563389
0.632840 0.816920 0.569348
0.738171 0.822879 0.575307
0.818616 0.827430 0.579858
0.895588 0.831784 0.584212
0.179638 0.883198 0.558406
0.256610 0.887552 0.562760
0.333583 0.891907 0.567115
0.437756 0.897800 0.573008
0.543087 0.903759 0.578967
0.648417 0.909717 0.584925
0.753748 0.915676 0.590884
0.834193 0.920227 0.595435
0.911165 0.924581 0.599789
0.039819 0.039819 0.522015
0.116792 0.044174 0.526370
0.193764 0.048528 0.530724
0.297938 0.054422 0.536618
0.403268 0.060380 0.542576
0.508599 0.066339 0.548535
0.613930 0.072298 0.554494
0.694375 0.076849 0.559045
0.771347 0.081203 0.563399
0.054618 0.127977 0.536814
0.131590 0.132331 0.541168
0.208563 0.136686 0.545523
0.312736 0.142579 0.551416
0.418067 0.148538 0.557375
0.523397 0.154496 0.563333
0.628728 0.160455 0.569292
0.709173 0.165006 0.573843
0.786146 0.169361 0.578198
0.069416 0.216134 0.551612
0.146388 0.220488 0.555966
0.223361 0.224843 0.560321
0.327534 0.230736 0.566214
0.432865 0.236695 0.572173
0.538196 0.242654 0.578132
0.643526 0.248612 0.584090
0.723971 0.253163 0.588641
0.800944 0.257518 0.592996
0.089556 0.336114 0.571752
0.166528 0.340468 0.576106
0.243501 0.344823 0.580461
0.347674 0.350716 0.586354
0.453005 0.356675 0.592313
0.558336 0.362634 0.598272
0.663666 0.368592 0.604230
0.744111 0.373143 0.608781
0.821084 0.377498 0.613136
0.109806 0.456750 0.592002
0.186779 0.461105 0.596357
0.263751 0.465459 0.600711
0.367924 0.471352 0.606604
0.473255 0.477311 0.612563
0.578586 0.483270 0.618522
0.683917 0.489229 0.624481
0.764361 0.493779 0.629031
0.841334 0.498134 0.633386
0.130056 0.577386 0.612252
0.207029 0.581741 0.616607
0.284001 0.586095 0.620961
0.388174 0.591988 0.626854
0.493505 0.597947 0.632813
0.598836 0.603906 0.638772
0.704167 0.609865 0.644731
0.784612 0.614416 0.649282
0.861584 0.618770 0.653636
0.150306 0.698022 0.632502
0.227279 0.702377 0.636857
0.304251 0.706731 0.641211
0.408425 0.712625 0.647105
0.513755 0.718583 0.653063
0.619086 0.724542 0.659022
0.724417 0.730501 0.664981
0.804862 0.735052 0.669532
0.881834 0.739406 0.673886
0.166167 0.792507 0.648363
0.243139 0.796861 0.652717
0.320112 0.801216 0.657072
0.424285 0.807109 0.662965
0.529616 0.813068 0.668924
0.634946 0.819026 0.674882
0.740277 0.824985 0.680841
0.820722 0.829536 0.685392
0.897695 0.833891 0.689747
0.181744 0.885304 0.663940
0.258716 0.889658 0.668294
0.335689 0.894013 0.672649
0.439862 0.899906 0.678542
0.545193 0.905865 0.684501
0.650524 0.911824 0.690460
0.755854 0.917782 0.696418
0.836299 0.922333 0.700969
0.913272 0.926688 0.705324
0.041849 0.041849 0.623729
0.118822 0.046204 0.628084
0.195794 0.050558 0.632438
0.299968 0.056452 0.638332
0.405298 0.062410 0.644290
0.510629 0.068369 0.650249
0.615960 0.074328 0.656208
0.696405 0.078879 0.660759
0.773377 0.083233 0.665113
0.056648 0.130007 0.638528
0.133620 0.134361 0.642882
0.210593 0.138716 0.647237
0.314766 0.144609 0.653130
0.420097 0.150568 0.659089
0.525427 0.156526 0.665047
0.630758 0.162485 0.671006
0.711203 0.167036 0.675557
0.788176 0.171391 0.679912
0.071446 0.218164 0.653326
0.148418 0.222518 0.657680
0.225391 0.226873 0.662035
0.329564 0.232766 0.667928
0.434895 0.238725 0.673887
0.540226 0.244684 0.679846
0.645556 0.250642 0.685804
0.726001 0.255193 0.690355
0.802974 0.259548 0.694710
0.091586 0.338144 0.673466
0.168558 0.342498 0.677820
0.245531 0.346853 0.682175
0.349704 0.352746 0.688068
0.455035 0.358705 0.694027
0.560366 0.364664 0.699986
0.665696 0.370622 0.705944
0.746141 0.375173 0.710495
0.823114 0.379528 0.714850
0.111836 0.458780 0.693716
0.188809 0.463135 0.698071
0.265781 0.467489 0.702425
0.369954 0.473382 0.708318
0.475285 0.479341 0.714277
0.580616 0.485300 0.720236
0.685947 0.491259 0.726195
0.766391 0.495809 0.730745
0.843364 0.500164 0.735100
0.132086 0.579416 0.713966
0.209059 0.583771 0.718321
0.286031 0.588125 0.722675
0.390204 0.594018 0.728568
0.495535 0.599977 0.734527
0.600866 0.605936 0.740486
0.706197 0.611895 0.746445
0.786642 0.616446 0.750996
0.863614 0.620800 0.755350
0.152336 0.700052 0.734216
0.229309 0.704407 0.738571
0.306281 0.708761 0.742925
0.410455 0.714655 0.748819
0.515785 0.720613 0.754777
0.621116 0.726572 0.760736
0.726447 0.732531 0.766695
0.806892 0.737082 0.771246
0.883864 0.741436 0.775600
0.168197 0.794537 0.750077
0.245169 0.798891 0.754431
0.322142 0.803246 0.758786
0.426315 0.809139 0.764679
0.531646 0.815098 0.770638
0.636976 0.821056 0.776596
0.742307 0.827015 0.782555
0.822752 0.831566 0.787106
0.899725 0.835921 0.791461
0.183774 0.887334 0.765654
0.260746 0.891688 0.770008
0.337719 0.896043 0.774363
0.441892 0.901936 0.780256
0.547223 0.907895 0.786215
0.652553 0.913853 0.792173
0.757884 0.919812 0.798132
0.838329 0.924363 0.802683
0.915302 0.928718 0.807038
0.043470 0.043470 0.704910
0.120442 0.047824 0.709264
0.197415 0.052179 0.713619
0.301588 0.058072 0.719512
0.406919 0.064031 0.725471
0.512249 0.069989 0.731429
0.617580 0.075948 0.737388
0.698025 0.080499 0.741939
0.774997 0.084853 0.746293
0.058268 0.131627 0.719708
0.135240 0.135981 0.724062
0.212213 0.140336 0.728417
0.316386 0.146229 0.734310
0.421717 0.152188 0.740269
0.527048 0.158147 0.746228
0.632378 0.164105 0.752186
0.712823 0.168656 0.756737
0.789796 0.173011 0.761092
0.073066 0.219784 0.734506
0.150039 0.224139 0.738861
0.227011 0.228493 0.743215
0.331184 0.234386 0.749108
0.436515 0.240345 0.755067
0.541846 0.246304 0.761026
0.647177 0.252263 0.766985
0.727621 0.256813 0.771535
0.804594 0.261168 0.775890
0.093206 0.339764 0.754646
0.170179 0.344119 0.759001
0.247151 0.348473 0.763355
0.351324 0.354366 0.769248
0.456655 0.360325 0.775207
0.561986 0.366284 0.781166
0.667317 0.372243 0.787125
0.747761 0.376793 0.791675
0.824734 0.381148 0.796030
0.113456 0.460400 0.774896
0.190429 0.464755 0.779251
0.267401 0.469109 0.783605
0.371574 0.475002 0.789498
0.476905 0.480961 0.795457
0.582236 0.486920 0.801416
0.687567 0.492879 0.807375
0.768012 0.497430 0.811926
0.844984 0.501784 0.816280
0.133706 0.581036 0.795146
0.210679 0.585391 0.799501
0.287651 0.589745 0.803855
0.391825 0.595639 0.809749
0.497155 0.601597 0.815707
0.602486 0.607556 0.821666
0.707817 0.613515 0.827625
0.788262 0.618066 0.832176
0.865234 0.622420 0.836530
0.153957 0.701673 0.815397
0.230929 0.706027 0.819751
0.307902 0.710382 0.824106
0.412075 0.716275 0.829999
0.517406 0.722234 0.835958
0.622736 0.728192 0.841916
0.728067 0.734151 0.847875
0.808512 0.738702 0.852426
0.885484 0.743056 0.856780
0.169817 0.796157 0.831257
0.246789 0.800511 0.835611
0.323762 0.804866 0.839966
0.427935 0.810759 0.845859
0.533266 0.816718 0.851818
0.638597 0.822677 0.857777
0.743927 0.828635 0.863735
0.824372 0.833186 0.868286
0.901345 0.837541 0.872641
0.185394 0.888954 0.846834
0.262366 0.893308 0.851188
0.339339 0.897663 0.855543
0.443512 0.903556 0.861436
0.548843 0.909515 0.867395
0.654174 0.915474 0.873354
0.759504 0.921432 0.879312
0.839949 0.925983 0.883863
0.916922 0.930338 0.888218
0.044772 0.044772 0.770172
0.121745 0.049127 0.774527
0.198717 0.053481 0.778881
0.302890 0.059374 0.784774
0.408221 0.065333 0.790733
0.513552 0.071292 0.796692
0.618883 0.077251 0.802651
0.699328 0.081802 0.807202
0.776300 0.086156 0.811556
0.059570 0.132929 0.784970
0.136543 0.137284 0.789325
0.213515 0.141638 0.793679
0.317689 0.147532 0.799573
0.423019 0.153490 0.805531
0.528350 0.159449 0.811490
0.633681 0.165408 0.817449
0.714126 0.169959 0.822000
0.791098 0.174313 0.826354
0.074369 0.221087 0.799769
0.151341 0.225441 0.804123
0.228313 0.229795 0.808477
0.332487 0.235689 0.814371
0.437817 0.241647 0.820329
0.543148 0.247606 0.826288
0.648479 0.253565 0.832247
0.728924 0.258116 0.836798
0.805896 0.262470 0.841152
0.094509 0.341067 0.819909
0.171481 0.345421 0.824263
0.248454 0.349776 0.828618
0.352627 0.355669 0.834511
0.457958 0.361628 0.840470
0.563288 0.367586 0.846428
0.668619 0.373545 0.852387
0.749064 0.378096 0.856938
0.826036 0.382450 0.861292
0.114759 0.461703 0.840159
0.191731 0.466057 0.844513
0.268704 0.470412 0.848868
0.372877 0.476305 0.854761
0.478208 0.482264 0.860720
0.583538 0.488222 0.866678
0.688869 0.494181 0.872637
0.769314 0.498732 0.877188
0.846287 0.503087 0.881543
0.135009 0.582339 0.860409
0.211981 0.586693 0.864763
0.288954 0.591048 0.869118
0.393127 0.596941 0.875011
0.498458 0.602900 0.880970
0.603789 0.608859 0.886929
0.709119 0.614817 0.892887
0.789564 0.619368 0.897438
0.866537 0.623723 0.901793
0.155259 0.702975 0.880659
0.232232 0.707330 0.885014
0.309204 0.711684 0.889368
0.413377 0.717577 0.895261
0.518708 0.723536 0.901220
0.624039 0.729495 0.907179
0.729370 0.735454 0.913138
0.809814 0.740004 0.917688
0.886787 0.744359 0.922043
0.171119 0.797459 0.896519
0.248092 0.801814 0.900874
0.325064 0.806168 0.905228
0.429238 0.812062 0.911122
0.534568 0.818020 0.917080
0.639899 0.823979 0.923039
0.745230 0.829938 0.928998
0.825675 0.834489 0.933549
0.902647 0.838843 0.937903
0.186696 0.890256 0.912096
0.263669 0.894611 0.916451
0.340641 0.898965 0.920805
0.444815 0.904859 0.926699
0.550145 0.910817 0.932657
0.655476 0.916776 0.938616
0.760807 0.922735 0.944575
0.841252 0.927286 0.949126
0.918224 0.931640 0.953480
